jacobyokehongsi/assignment-2022fall/assignment3/MetaDrive-Tut-1Env-v0/td3/progress.csv
,log_dir,frame_per_second,episode_reward,total_steps,total_episodes,total_time,target_q,actor_loss,critic_loss,success_rate
0,MetaDrive-Tut-1Env-v0,363,4.685097036144128,1455,2,4.0010387897491455,,,,0.0
1,MetaDrive-Tut-1Env-v0,366,6.5095780707859605,2456,3,6.701018810272217,,,,0.0
2,MetaDrive-Tut-1Env-v0,366,5.702399563287339,3709,5,10.128968954086304,,,,0.0
3,MetaDrive-Tut-1Env-v0,364,6.550075084369435,4710,6,12.9196195602417,,,,0.0
4,MetaDrive-Tut-1Env-v0,357,7.478136738945002,5711,7,15.99458622932434,,,,0.0
5,MetaDrive-Tut-1Env-v0,353,8.120705869075081,6712,8,19.000048637390137,,,,0.0
6,MetaDrive-Tut-1Env-v0,350,7.840930290395363,7532,9,21.48085355758667,,,,0.0
7,MetaDrive-Tut-1Env-v0,353,8.067168860618258,8533,10,24.13338589668274,,,,0.0
8,MetaDrive-Tut-1Env-v0,359,7.694573887314618,9983,12,27.77567958831787,,,,0.0
9,MetaDrive-Tut-1Env-v0,351,8.125635261457623,10069,13,28.622745752334595,-0.0007882211357355118,-0.0012674459721893072,0.2019236981868744,0.0
10,MetaDrive-Tut-1Env-v0,289,2.429848157504976,11001,42,38.04814648628235,0.06723511964082718,-0.0707702711224556,0.21745368838310242,0.0
11,MetaDrive-Tut-1Env-v0,250,0.8740192644131133,12035,75,48.02063345909119,0.0797378346323967,-0.10685862600803375,0.38633108139038086,0.0
12,MetaDrive-Tut-1Env-v0,228,-0.278685096215831,13011,103,56.97110605239868,0.12238472700119019,-0.18029563128948212,0.24551796913146973,0.0
13,MetaDrive-Tut-1Env-v0,209,-1.982565356868951,14025,132,66.85487270355225,0.09554581344127655,-0.1613525152206421,0.05628334730863571,0.0
14,MetaDrive-Tut-1Env-v0,197,-2.54959639383023,15003,160,75.95379161834717,0.0573619082570076,-0.06226962432265282,0.05237380042672157,0.0
15,MetaDrive-Tut-1Env-v0,181,-2.660833802380584,16911,187,92.9922251701355,0.03357763588428497,-0.05683852732181549,0.01317492127418518,0.0
16,MetaDrive-Tut-1Env-v0,178,-2.660062218853351,17912,188,100.23042321205139,-0.002779059112071991,,0.01237567886710167,0.0
17,MetaDrive-Tut-1Env-v0,177,-2.692658544224926,18219,189,102.73570513725281,0.04586096107959747,-0.114300936460495,0.010767973028123379,0.0
18,MetaDrive-Tut-1Env-v0,174,-2.765966968085331,19054,191,109.11739921569824,0.055506784468889236,,0.010155461728572845,0.0
19,MetaDrive-Tut-1Env-v0,172,-2.7792602477216657,20055,192,116.51077151298523,0.0965995043516159,-0.1284157782793045,0.007457984611392021,0.0
20,MetaDrive-Tut-1Env-v0,170,-2.791362979482591,21056,193,123.77226376533508,0.019461143761873245,,0.22475861012935638,0.0
21,MetaDrive-Tut-1Env-v0,167,-2.7358794991945534,22057,194,131.5214557647705,0.09928898513317108,-0.16772343218326569,0.01007925532758236,0.0
22,MetaDrive-Tut-1Env-v0,165,-2.664416295054117,23058,195,138.94974064826965,0.21533295512199402,,0.007291780784726143,0.0
23,MetaDrive-Tut-1Env-v0,165,-2.6000125129155016,24059,196,145.38124251365662,0.28626853227615356,-0.3466130793094635,0.005582564510405064,0.0
24,MetaDrive-Tut-1Env-v0,165,-2.533979486811288,25060,197,151.7738800048828,0.35045284032821655,,0.009642002172768116,0.0
25,MetaDrive-Tut-1Env-v0,163,-2.4663996081604513,26061,198,159.08373951911926,0.3720691502094269,-0.45878738164901733,0.00871588010340929,0.0
26,MetaDrive-Tut-1Env-v0,161,-2.2914017735654832,27845,201,172.05620646476746,0.5134373903274536,-0.586663007736206,0.023311130702495575,0.0
27,MetaDrive-Tut-1Env-v0,161,-1.7207969686110267,28024,203,173.61998009681702,0.45967838168144226,,0.008701851591467857,0.0
28,MetaDrive-Tut-1Env-v0,158,1.7599088582323923,29028,218,183.42887806892395,0.6558708548545837,,0.03681690990924835,0.0
29,MetaDrive-Tut-1Env-v0,155,5.125359063339365,30071,237,193.9986653327942,0.8013726472854614,-0.9609177112579346,0.35169756412506104,0.0
30,MetaDrive-Tut-1Env-v0,151,9.209691736423778,31074,250,204.44705486297607,1.1729270219802856,,0.42116469144821167,0.0
31,MetaDrive-Tut-1Env-v0,149,14.780618746257625,32080,260,214.24852871894836,1.593531608581543,,0.061398278921842575,0.0
32,MetaDrive-Tut-1Env-v0,147,18.8298508698424,33047,270,223.47735834121704,1.867592215538025,-1.984493374824524,0.06419659405946732,0.0
33,MetaDrive-Tut-1Env-v0,146,23.227001562183318,34016,278,232.1727797985077,2.2903759479522705,,0.07397374510765076,0.0
34,MetaDrive-Tut-1Env-v0,144,30.86538414247244,35320,287,243.85751748085022,2.9783105850219727,,0.13574758172035217,0.0
35,MetaDrive-Tut-1Env-v0,143,38.82081094038707,36375,290,253.96827602386475,3.4653866291046143,-3.7780838012695312,0.4705328643321991,0.0
36,MetaDrive-Tut-1Env-v0,141,43.95459643135463,37025,291,261.1785032749176,3.4110608100891113,-3.716294288635254,0.6033629775047302,0.01
37,MetaDrive-Tut-1Env-v0,139,53.4813742971236,38205,294,273.47621870040894,4.472024440765381,-4.573814392089844,0.15552473068237305,0.01
38,MetaDrive-Tut-1Env-v0,138,62.95527384345093,39242,297,284.27108097076416,4.426970481872559,,0.5922566652297974,0.01
39,MetaDrive-Tut-1Env-v0,136,72.84704451722152,40231,300,293.8412809371948,5.046955108642578,-5.243640422821045,0.19629555940628052,0.01
40,MetaDrive-Tut-1Env-v0,136,81.5382683701518,41106,303,302.084499835968,5.647891998291016,,0.2642492651939392,0.01
41,MetaDrive-Tut-1Env-v0,134,91.93332406447259,42181,307,312.6369364261627,6.973671913146973,-7.181547164916992,1.1508824825286865,0.01
42,MetaDrive-Tut-1Env-v0,134,100.6595916992013,43001,310,320.4187915325165,6.89927864074707,-7.161515235900879,2.626098155975342,0.01
43,MetaDrive-Tut-1Env-v0,132,114.02021700557245,44152,315,332.04096150398254,8.181593894958496,,0.7013305425643921,0.01
44,MetaDrive-Tut-1Env-v0,132,125.4707837973807,45138,319,341.2119565010071,9.633234024047852,,1.5826960802078247,0.01
45,MetaDrive-Tut-1Env-v0,131,135.7146899915594,46035,323,349.60021138191223,8.803913116455078,-9.409086227416992,0.45902591943740845,0.01
46,MetaDrive-Tut-1Env-v0,130,148.3669471091729,47098,328,360.10266852378845,11.251203536987305,,11.35403823852539,0.01
47,MetaDrive-Tut-1Env-v0,130,160.16269116361676,48184,334,370.54100823402405,11.590459823608398,,1.514009952545166,0.01
48,MetaDrive-Tut-1Env-v0,129,167.85049063325658,49001,339,378.3318316936493,11.025999069213867,-11.524319648742676,4.668207168579102,0.01
49,MetaDrive-Tut-1Env-v0,128,177.97754933910772,50011,345,388.0340802669525,12.302316665649414,-12.699848175048828,1.3977774381637573,0.01
50,MetaDrive-Tut-1Env-v0,128,185.4569825412226,51042,351,397.50359773635864,15.192859649658203,,0.9552383422851562,0.01
51,MetaDrive-Tut-1Env-v0,127,195.305739974078,52046,357,407.0298089981079,16.529788970947266,,2.5982842445373535,0.01
52,MetaDrive-Tut-1Env-v0,127,205.8252570121327,53106,363,416.6739559173584,17.02836036682129,,1.1789250373840332,0.01
53,MetaDrive-Tut-1Env-v0,127,214.0306662021063,54044,369,425.4297766685486,17.93402862548828,,0.7722245454788208,0.01
54,MetaDrive-Tut-1Env-v0,126,225.77309782725536,55146,375,436.14996671676636,18.877201080322266,,1.3822605609893799,0.01
55,MetaDrive-Tut-1Env-v0,126,234.0703854628452,56009,380,444.40122056007385,19.14439582824707,-20.306007385253906,4.236503601074219,0.01
56,MetaDrive-Tut-1Env-v0,125,243.36228698549436,57024,386,453.7736475467682,22.770280838012695,,24.921039581298828,0.01
57,MetaDrive-Tut-1Env-v0,124,237.53684485264966,58096,392,465.48264932632446,22.134632110595703,,1.6151318550109863,0.0
58,MetaDrive-Tut-1Env-v0,124,232.5690587732135,59201,398,476.1153428554535,26.563549041748047,-27.203128814697266,1.7381746768951416,0.0
59,MetaDrive-Tut-1Env-v0,124,227.40116973183797,60038,403,483.89481234550476,24.91570281982422,,1.6220078468322754,0.0
60,MetaDrive-Tut-1Env-v0,123,218.8555881074911,61136,410,493.55521965026855,27.905506134033203,,33.52330017089844,0.0
61,MetaDrive-Tut-1Env-v0,123,217.9722474968057,62083,415,502.67381262779236,29.210100173950195,-29.16925811767578,25.140228271484375,0.0
62,MetaDrive-Tut-1Env-v0,123,214.26877334505562,63133,421,512.7243940830231,30.876445770263672,-31.033050537109375,1.5757861137390137,0.0
63,MetaDrive-Tut-1Env-v0,122,212.69678132640834,64019,426,521.0237905979156,30.702442169189453,-31.074691772460938,8.594915390014648,0.0
64,MetaDrive-Tut-1Env-v0,122,214.39816384308375,65067,432,530.3694763183594,32.86970520019531,-33.315208435058594,2.401536464691162,0.0
65,MetaDrive-Tut-1Env-v0,122,217.9029806881859,66013,437,539.8424687385559,32.830810546875,-33.67668914794922,2.9980757236480713,0.0
66,MetaDrive-Tut-1Env-v0,121,221.6206117958528,67122,443,550.2739613056183,34.08665084838867,,3.345907688140869,0.0
67,MetaDrive-Tut-1Env-v0,121,226.55474129404791,68078,448,559.3827242851257,34.778194427490234,,4.668676376342773,0.0
68,MetaDrive-Tut-1Env-v0,121,228.78139759942107,69044,453,568.1361830234528,37.223976135253906,,7.057507038116455,0.0
69,MetaDrive-Tut-1Env-v0,121,235.80589107019213,70302,457,580.2004578113556,38.50065231323242,,3.8102152347564697,0.01
70,MetaDrive-Tut-1Env-v0,120,241.5523720639112,71402,459,590.318452835083,38.843475341796875,,2.6411004066467285,0.03
71,MetaDrive-Tut-1Env-v0,120,245.8196521047577,72157,461,597.6196591854095,40.576622009277344,-40.531646728515625,8.769002914428711,0.04
72,MetaDrive-Tut-1Env-v0,120,251.49350881422777,73240,463,610.0421311855316,37.46403503417969,,6.899255752563477,0.06
73,MetaDrive-Tut-1Env-v0,119,258.40664780671204,74306,465,620.0261330604553,41.58189392089844,,9.741722106933594,0.08
74,MetaDrive-Tut-1Env-v0,119,262.6780085287515,75042,467,627.1693856716156,41.71464538574219,,11.024038314819336,0.09
75,MetaDrive-Tut-1Env-v0,119,267.95277061474303,76042,470,636.8934550285339,43.29154968261719,,4.580422401428223,0.09
76,MetaDrive-Tut-1Env-v0,118,271.22559027394226,77213,474,649.148984670639,41.305381774902344,-41.635581970214844,4.815479278564453,0.09
77,MetaDrive-Tut-1Env-v0,118,273.64270214644074,78007,476,657.9832053184509,43.74292755126953,-44.18071365356445,17.816802978515625,0.09
78,MetaDrive-Tut-1Env-v0,118,278.06673076697416,79005,479,667.7647161483765,46.20579147338867,-47.56499481201172,4.675556182861328,0.09
79,MetaDrive-Tut-1Env-v0,117,285.4163174533542,80368,484,681.7203567028046,45.37037658691406,,6.557600021362305,0.09
80,MetaDrive-Tut-1Env-v0,117,288.62622009420915,81310,487,692.1057975292206,47.52448272705078,,11.703386306762695,0.09
81,MetaDrive-Tut-1Env-v0,117,290.4453142948325,82027,489,699.6553061008453,48.766334533691406,-48.93639373779297,22.173198699951172,0.09
82,MetaDrive-Tut-1Env-v0,116,295.0615149942701,83242,493,712.4905099868774,48.13996124267578,,11.549179077148438,0.09
83,MetaDrive-Tut-1Env-v0,116,298.41969908098673,84143,496,722.2433233261108,47.59490966796875,-48.178489685058594,20.04267120361328,0.09
84,MetaDrive-Tut-1Env-v0,116,301.6245339760981,85044,499,730.9807071685791,50.64300537109375,,7.422821998596191,0.09
85,MetaDrive-Tut-1Env-v0,116,306.32570933087413,86092,504,741.0047976970673,52.5326042175293,,5.894467353820801,0.09
86,MetaDrive-Tut-1Env-v0,116,310.25446856771583,87048,509,749.7729218006134,50.3310661315918,,6.952591896057129,0.09
87,MetaDrive-Tut-1Env-v0,115,312.21861786422426,88036,514,759.6596705913544,53.600826263427734,,12.54818344116211,0.09
88,MetaDrive-Tut-1Env-v0,115,314.34381928944185,89247,519,772.6922891139984,50.914886474609375,-52.0401611328125,6.01330041885376,0.09
89,MetaDrive-Tut-1Env-v0,115,315.4398207220364,90087,523,781.9382495880127,52.36379623413086,-52.894874572753906,18.81830596923828,0.09
90,MetaDrive-Tut-1Env-v0,114,319.72511372168253,91339,528,796.9497365951538,55.631099700927734,-56.757015228271484,17.249359130859375,0.09
91,MetaDrive-Tut-1Env-v0,114,321.88879047028,92091,531,805.2174019813538,52.20599365234375,-52.04026794433594,14.655715942382812,0.09
92,MetaDrive-Tut-1Env-v0,113,323.24604672359726,93078,535,816.8126802444458,55.30230712890625,,8.719728469848633,0.09
93,MetaDrive-Tut-1Env-v0,113,324.53153736847975,94038,539,826.443282365799,55.667205810546875,,8.230520248413086,0.09
94,MetaDrive-Tut-1Env-v0,113,327.3243814780637,95190,543,838.193195104599,57.62279510498047,,8.197731018066406,0.09
95,MetaDrive-Tut-1Env-v0,113,329.1882709517102,96069,546,847.9902803897858,55.45793151855469,-56.737525939941406,8.275969505310059,0.09
96,MetaDrive-Tut-1Env-v0,113,332.9314839359254,97298,550,860.5285866260529,61.282691955566406,,4.861055374145508,0.1
97,MetaDrive-Tut-1Env-v0,112,334.0983869630077,98099,553,868.9865999221802,61.919395446777344,-62.311683654785156,4.52788782119751,0.1
98,MetaDrive-Tut-1Env-v0,112,334.9727491420839,99247,556,881.7571346759796,58.90776824951172,-59.45018005371094,15.15514850616455,0.1
99,MetaDrive-Tut-1Env-v0,112,335.1326513390707,100099,558,890.6691572666168,60.13599395751953,-61.11411666870117,6.634430885314941,0.1
100,MetaDrive-Tut-1Env-v0,112,332.53478114466327,101125,561,902.7217965126038,62.24144744873047,-62.89300537109375,8.10037612915039,0.08
101,MetaDrive-Tut-1Env-v0,111,327.8459844330927,102245,564,914.8071839809418,61.53741455078125,-62.32664108276367,20.016708374023438,0.05
102,MetaDrive-Tut-1Env-v0,111,327.2529849031549,103015,566,923.631094455719,63.14794921875,-64.41796875,8.967497825622559,0.04
103,MetaDrive-Tut-1Env-v0,111,328.083273600616,104396,569,939.6804962158203,66.65286254882812,,11.590011596679688,0.04
104,MetaDrive-Tut-1Env-v0,110,329.53818372397245,105029,570,946.5871889591217,68.76104736328125,-69.17058563232422,7.792738914489746,0.05
105,MetaDrive-Tut-1Env-v0,110,334.3900117276226,106238,572,959.3423278331757,66.0014419555664,,5.954489707946777,0.07
106,MetaDrive-Tut-1Env-v0,110,336.8912226466245,107446,574,971.0624086856842,67.07194519042969,,6.938189506530762,0.09
107,MetaDrive-Tut-1Env-v0,110,338.3682043774299,108052,575,976.8713746070862,65.30625915527344,,10.046164512634277,0.1
108,MetaDrive-Tut-1Env-v0,110,340.0023608473049,109063,577,987.9080665111542,67.31295776367188,-68.73355102539062,13.616785049438477,0.11
109,MetaDrive-Tut-1Env-v0,110,343.1397448956402,110169,579,998.8041038513184,67.32144927978516,-67.70820617675781,7.915083408355713,0.13
110,MetaDrive-Tut-1Env-v0,110,347.82722004435846,111286,581,1010.2411143779755,69.86493682861328,,15.077117919921875,0.15
111,MetaDrive-Tut-1Env-v0,110,351.2548373739244,112343,583,1020.8041470050812,68.43070220947266,-69.35395050048828,38.08959197998047,0.16
112,MetaDrive-Tut-1Env-v0,109,353.1640341624288,113344,585,1030.419751405716,67.72250366210938,,9.974983215332031,0.17
113,MetaDrive-Tut-1Env-v0,109,355.3510066520186,114397,587,1040.5689516067505,69.60863494873047,-70.88180541992188,10.416290283203125,0.18
114,MetaDrive-Tut-1Env-v0,109,358.3769869765248,115546,589,1051.5795476436615,70.05827331542969,,41.41044998168945,0.2
115,MetaDrive-Tut-1Env-v0,109,361.1462682465691,116535,591,1061.003255367279,68.98089599609375,-69.59660339355469,13.486077308654785,0.21
116,MetaDrive-Tut-1Env-v0,109,363.41035052277834,117551,593,1071.5685086250305,70.29881286621094,-70.93106079101562,7.904592514038086,0.22
117,MetaDrive-Tut-1Env-v0,109,365.28460223237795,118122,594,1076.9661703109741,68.63688659667969,,10.796287536621094,0.23
118,MetaDrive-Tut-1Env-v0,109,368.6135305783334,119249,596,1088.1456336975098,76.12263488769531,-76.74241638183594,9.688232421875,0.25
119,MetaDrive-Tut-1Env-v0,109,370.9527922985138,120242,598,1097.6384732723236,67.85466003417969,,28.663848876953125,0.26
120,MetaDrive-Tut-1Env-v0,109,374.365557307465,121346,600,1107.7975053787231,74.14468383789062,,11.627986907958984,0.28
121,MetaDrive-Tut-1Env-v0,109,378.40497646344954,122394,602,1118.1809194087982,72.12999725341797,,28.959861755371094,0.29
122,MetaDrive-Tut-1Env-v0,109,382.5199006521512,123425,604,1128.372632265091,72.12786865234375,-72.48965454101562,28.972061157226562,0.3
123,MetaDrive-Tut-1Env-v0,109,387.5224270654803,124544,606,1139.1161859035492,72.52069091796875,,39.297393798828125,0.32
124,MetaDrive-Tut-1Env-v0,109,389.993360944588,125097,607,1144.4217009544373,71.69583892822266,-72.28529357910156,17.48228645324707,0.33
125,MetaDrive-Tut-1Env-v0,109,394.93107125211003,126244,609,1156.3957331180573,71.38764953613281,,43.732269287109375,0.35
126,MetaDrive-Tut-1Env-v0,109,399.853164492092,127404,611,1166.960969209671,75.2772216796875,,8.71064567565918,0.37
127,MetaDrive-Tut-1Env-v0,109,403.85406932997853,128441,613,1177.1927597522736,75.31258392333984,-75.90277862548828,10.887948036193848,0.38
128,MetaDrive-Tut-1Env-v0,109,407.9701987823128,129505,615,1187.0750875473022,71.13609313964844,-70.95210266113281,18.35723876953125,0.39
129,MetaDrive-Tut-1Env-v0,109,410.4321331711259,130058,616,1192.3432245254517,75.16048431396484,,10.253028869628906,0.4
130,MetaDrive-Tut-1Env-v0,108,415.03807349929434,131208,618,1204.71471118927,75.07640075683594,,26.55130958557129,0.42
131,MetaDrive-Tut-1Env-v0,108,419.0875924088552,132366,620,1215.8156578540802,75.49266052246094,,8.812995910644531,0.44
132,MetaDrive-Tut-1Env-v0,108,423.98919214676346,133501,622,1227.3411331176758,73.31513214111328,-74.09170532226562,24.536718368530273,0.46
133,MetaDrive-Tut-1Env-v0,108,426.3691066725589,134074,623,1233.5253615379333,68.96839904785156,,27.263315200805664,0.47
134,MetaDrive-Tut-1Env-v0,108,431.05686894919586,135191,625,1245.50044631958,73.0751953125,-73.87602233886719,13.753458976745605,0.49
135,MetaDrive-Tut-1Env-v0,108,435.71529932994434,136346,627,1257.0314745903015,71.35438537597656,,12.728459358215332,0.51
136,MetaDrive-Tut-1Env-v0,108,439.6879853978794,137463,629,1267.6474239826202,73.46542358398438,-74.35842895507812,14.061246871948242,0.53
137,MetaDrive-Tut-1Env-v0,108,441.464115756843,138038,630,1273.3029839992523,71.00936889648438,,11.61161994934082,0.54
138,MetaDrive-Tut-1Env-v0,108,443.5532600171831,139312,633,1286.6903712749481,74.8789291381836,,15.76111888885498,0.56
139,MetaDrive-Tut-1Env-v0,108,448.10878356962746,140437,635,1297.6602404117584,70.59346008300781,-71.27496337890625,15.293119430541992,0.58
140,MetaDrive-Tut-1Env-v0,108,450.2320373762998,141021,636,1303.9321076869965,72.99253845214844,-73.31144714355469,51.543060302734375,0.59
141,MetaDrive-Tut-1Env-v0,108,454.36034965095126,142156,638,1315.6982066631317,75.64187622070312,,16.097862243652344,0.61
142,MetaDrive-Tut-1Env-v0,108,459.0902668173195,143288,640,1326.666065454483,73.13272094726562,,13.013447761535645,0.63
143,MetaDrive-Tut-1Env-v0,107,463.08306414565703,144471,642,1337.9875161647797,76.69739532470703,-77.59217834472656,8.367072105407715,0.65
144,MetaDrive-Tut-1Env-v0,107,464.6713048313894,145049,643,1343.5991990566254,76.55794525146484,-77.88003540039062,54.451576232910156,0.66
145,MetaDrive-Tut-1Env-v0,107,467.1200442866903,146076,645,1354.857715845108,73.6616439819336,,34.84074401855469,0.67
146,MetaDrive-Tut-1Env-v0,107,470.92676845982606,147217,647,1366.6265194416046,75.32887268066406,-76.82040405273438,20.596588134765625,0.69
147,MetaDrive-Tut-1Env-v0,107,475.1763008920685,148371,649,1379.0259411334991,76.5439453125,-78.31086730957031,30.476543426513672,0.71
148,MetaDrive-Tut-1Env-v0,107,477.48837941034645,149498,651,1389.9211192131042,69.91753387451172,,22.96240234375,0.72
149,MetaDrive-Tut-1Env-v0,107,479.79559196139047,150073,652,1396.2628314495087,74.53073120117188,-75.1661148071289,10.940810203552246,0.73
150,MetaDrive-Tut-1Env-v0,107,481.9387257728249,151080,654,1406.962252855301,75.41417694091797,,19.270183563232422,0.74
151,MetaDrive-Tut-1Env-v0,107,483.35367795204104,152138,656,1417.2661340236664,74.82875061035156,,10.761577606201172,0.74
152,MetaDrive-Tut-1Env-v0,107,484.94962380865763,153288,658,1427.6387965679169,77.30768585205078,,13.61573314666748,0.75
153,MetaDrive-Tut-1Env-v0,107,486.54348222107916,154247,660,1437.9626574516296,76.40110778808594,-77.35388946533203,41.380741119384766,0.75
154,MetaDrive-Tut-1Env-v0,107,489.83438520858743,155390,662,1450.011325597763,73.32257080078125,,9.253978729248047,0.77
155,MetaDrive-Tut-1Env-v0,107,492.85561958795205,156560,664,1461.4917838573456,74.93505859375,,30.48257827758789,0.79
156,MetaDrive-Tut-1Env-v0,107,494.49733635518436,157124,665,1466.667973279953,77.09162902832031,,46.36048889160156,0.8
157,MetaDrive-Tut-1Env-v0,107,496.70353217611256,158270,667,1477.656509399414,76.75396728515625,,32.13009262084961,0.82
158,MetaDrive-Tut-1Env-v0,106,498.3156089076584,159449,669,1490.35613489151,75.57330322265625,-76.85366821289062,8.716737747192383,0.83
159,MetaDrive-Tut-1Env-v0,106,498.358740464031,160013,670,1496.91282248497,74.84165954589844,-74.97380065917969,17.59099578857422,0.83
160,MetaDrive-Tut-1Env-v0,106,498.3698529448313,161157,672,1508.1125349998474,74.63429260253906,-75.67903137207031,27.320064544677734,0.83
161,MetaDrive-Tut-1Env-v0,106,498.35753347628366,162305,674,1519.732678413391,78.53324890136719,-79.17986297607422,15.923595428466797,0.83
162,MetaDrive-Tut-1Env-v0,106,499.0983200355007,163444,676,1530.6803765296936,78.54334259033203,,9.658587455749512,0.84
163,MetaDrive-Tut-1Env-v0,106,499.08394807046955,164009,677,1536.8644626140594,71.05227661132812,-71.41326141357422,37.676048278808594,0.84
164,MetaDrive-Tut-1Env-v0,106,499.041929874749,165161,679,1548.473315000534,76.26607513427734,-77.31715393066406,15.0736083984375,0.84
165,MetaDrive-Tut-1Env-v0,106,498.98634346147884,166280,681,1560.227826833725,71.91972351074219,,10.430927276611328,0.84
166,MetaDrive-Tut-1Env-v0,106,499.6750602419677,167472,683,1571.9309051036835,76.17945861816406,,12.91604995727539,0.85
167,MetaDrive-Tut-1Env-v0,106,499.6569031388458,168048,684,1577.292509317398,76.79063415527344,,12.676586151123047,0.85
168,MetaDrive-Tut-1Env-v0,106,501.53591150624635,169210,686,1589.7665584087372,75.36187744140625,,29.448074340820312,0.87
169,MetaDrive-Tut-1Env-v0,106,501.44344337617736,170371,688,1600.7858531475067,75.65027618408203,-75.88270568847656,40.52561950683594,0.87
170,MetaDrive-Tut-1Env-v0,106,502.538845839809,171543,690,1613.1382455825806,73.77487182617188,-74.2361068725586,11.010793685913086,0.88
171,MetaDrive-Tut-1Env-v0,106,502.4850761315572,172111,691,1619.4730582237244,75.61514282226562,-76.77659606933594,10.84617805480957,0.88
172,MetaDrive-Tut-1Env-v0,106,503.2850753894778,173273,693,1631.6762964725494,76.85208129882812,-77.55572509765625,18.337947845458984,0.89
173,MetaDrive-Tut-1Env-v0,106,503.21404540008604,174419,695,1643.1295239925385,77.9801025390625,-79.46635437011719,20.30415916442871,0.89
174,MetaDrive-Tut-1Env-v0,106,503.17655295032426,175007,696,1648.4949407577515,78.15837097167969,-79.98206329345703,50.66960144042969,0.89
175,MetaDrive-Tut-1Env-v0,106,504.32919098337146,176188,698,1660.1220936775208,75.59879302978516,,63.28852844238281,0.9
176,MetaDrive-Tut-1Env-v0,106,504.19656204455697,177356,700,1670.9783432483673,80.35653686523438,,10.451398849487305,0.9
177,MetaDrive-Tut-1Env-v0,106,504.7149309751294,178532,702,1682.1144762039185,76.43097686767578,,10.534801483154297,0.9
178,MetaDrive-Tut-1Env-v0,106,504.6656525856578,179101,703,1688.3419244289398,77.52291870117188,-77.55731964111328,16.960533142089844,0.9
179,MetaDrive-Tut-1Env-v0,106,505.4603488340631,180257,705,1699.1527755260468,74.40673065185547,-75.57170867919922,14.809340476989746,0.91
180,MetaDrive-Tut-1Env-v0,106,505.41977539632103,181439,707,1710.0126538276672,77.77320861816406,-78.43788146972656,28.181209564208984,0.91
181,MetaDrive-Tut-1Env-v0,106,505.19949706460187,182022,708,1715.5176122188568,78.58432006835938,,9.230019569396973,0.9
182,MetaDrive-Tut-1Env-v0,106,505.15586798763985,183173,710,1726.7553761005402,79.51675415039062,-80.32173919677734,15.903139114379883,0.9
183,MetaDrive-Tut-1Env-v0,106,504.95490239118203,184334,712,1738.4657497406006,75.51881408691406,,13.89503288269043,0.89
184,MetaDrive-Tut-1Env-v0,106,506.36259735465273,185515,714,1749.666223526001,77.31665802001953,-77.79093933105469,14.030230522155762,0.9
185,MetaDrive-Tut-1Env-v0,105,506.34157114600873,186099,715,1756.0203988552094,79.0133056640625,-79.74409484863281,8.347868919372559,0.9
186,MetaDrive-Tut-1Env-v0,105,506.2917893338763,187288,717,1767.6699757575989,73.24244689941406,,11.743849754333496,0.9
187,MetaDrive-Tut-1Env-v0,105,506.32099167425145,188452,719,1778.737182378769,75.65310668945312,,12.971477508544922,0.9
188,MetaDrive-Tut-1Env-v0,105,506.1549885510103,189058,720,1784.6710574626923,74.92155456542969,,12.600654602050781,0.89
189,MetaDrive-Tut-1Env-v0,105,506.0809186264744,190237,722,1795.7140803337097,78.91212463378906,-79.63653564453125,13.767234802246094,0.89
190,MetaDrive-Tut-1Env-v0,105,506.1036175374312,191463,724,1809.2452166080475,76.72944641113281,-77.64970397949219,7.159796714782715,0.89
191,MetaDrive-Tut-1Env-v0,105,506.11378891468513,192067,725,1815.466036081314,74.91151428222656,-74.83062744140625,7.4175333976745605,0.89
192,MetaDrive-Tut-1Env-v0,105,506.12749416449753,193304,727,1827.5740718841553,78.19093322753906,,22.6171875,0.89
193,MetaDrive-Tut-1Env-v0,105,505.9603829476143,194551,729,1839.2093393802643,75.86383056640625,-76.43328094482422,9.656505584716797,0.88
194,MetaDrive-Tut-1Env-v0,105,505.8212064001233,195208,730,1845.2159655094147,75.25286865234375,,10.052539825439453,0.87
195,MetaDrive-Tut-1Env-v0,105,508.971699847688,196398,732,1857.1026706695557,74.24591064453125,,9.707710266113281,0.86
196,MetaDrive-Tut-1Env-v0,105,508.4943769457045,197605,734,1868.8572413921356,73.58831787109375,-74.36833190917969,14.231185913085938,0.84
197,MetaDrive-Tut-1Env-v0,105,508.2604931275762,198210,735,1874.928673028946,77.04081726074219,,42.71098327636719,0.83
198,MetaDrive-Tut-1Env-v0,105,507.74376851179267,199407,737,1886.8846318721771,77.52938842773438,-78.59982299804688,15.141643524169922,0.81
199,MetaDrive-Tut-1Env-v0,105,507.51192322662894,200042,738,1892.479774236679,77.16854095458984,,9.878860473632812,0.8
200,MetaDrive-Tut-1Env-v0,105,507.0241967852424,201293,740,1904.6856195926666,75.50321960449219,-75.36064147949219,9.983829498291016,0.78
201,MetaDrive-Tut-1Env-v0,105,506.4700402173343,202522,742,1917.524647474289,74.9897689819336,,6.743673801422119,0.76
202,MetaDrive-Tut-1Env-v0,105,506.186854297547,203155,743,1924.3767817020416,77.21258544921875,-78.44147491455078,21.365753173828125,0.75
203,MetaDrive-Tut-1Env-v0,105,506.665106575308,204541,745,1937.4352309703827,77.52538299560547,-78.03836059570312,7.921233654022217,0.74
204,MetaDrive-Tut-1Env-v0,105,506.35795815414497,205133,746,1942.8631649017334,73.63972473144531,-74.42829132080078,8.95404052734375,0.73
205,MetaDrive-Tut-1Env-v0,105,505.7264246518795,206312,748,1953.9990015029907,73.45292663574219,,44.486358642578125,0.71
206,MetaDrive-Tut-1Env-v0,105,505.1007868096407,207553,750,1966.3913643360138,76.9747314453125,-77.02474212646484,8.460864067077637,0.69
207,MetaDrive-Tut-1Env-v0,105,504.76851821173017,208146,751,1972.9227771759033,71.90385437011719,,10.47945785522461,0.68
208,MetaDrive-Tut-1Env-v0,105,504.14197228128273,209337,753,1985.362110376358,75.2693099975586,-76.18096923828125,8.763922691345215,0.66
209,MetaDrive-Tut-1Env-v0,105,505.54289565551494,210506,755,1997.7434656620026,74.5350341796875,,11.950973510742188,0.66
210,MetaDrive-Tut-1Env-v0,105,505.212289489952,211096,756,2003.5704040527344,77.37017822265625,,15.623483657836914,0.65
211,MetaDrive-Tut-1Env-v0,105,504.5696600845797,212209,758,2014.6562020778656,75.02885437011719,-76.46118927001953,8.090781211853027,0.63
212,MetaDrive-Tut-1Env-v0,105,505.7439896634975,213323,760,2025.5895819664001,74.13809204101562,-75.70674133300781,11.56188678741455,0.63
213,MetaDrive-Tut-1Env-v0,105,505.11197033262573,214523,762,2037.1605067253113,75.10691833496094,-74.83277893066406,12.03077220916748,0.61
214,MetaDrive-Tut-1Env-v0,105,504.7608980066319,215102,763,2042.3947625160217,75.99374389648438,,6.065922737121582,0.6
215,MetaDrive-Tut-1Env-v0,105,504.10908004702515,216218,765,2052.659710407257,75.78427124023438,,10.245850563049316,0.58
216,MetaDrive-Tut-1Env-v0,105,503.4934255700024,217323,767,2064.8119332790375,77.40095520019531,-78.6119384765625,6.173177719116211,0.56
217,MetaDrive-Tut-1Env-v0,105,502.8604275596467,218441,769,2076.368667602539,73.241943359375,-73.2396240234375,14.038423538208008,0.54
218,MetaDrive-Tut-1Env-v0,105,502.2276228460355,219567,771,2088.647028207779,74.7381591796875,-75.76679229736328,15.92310619354248,0.52
219,MetaDrive-Tut-1Env-v0,105,501.8908875687438,220123,772,2094.2932093143463,74.1330337524414,-74.18679809570312,9.031536102294922,0.51
220,MetaDrive-Tut-1Env-v0,105,501.2090811277817,221209,774,2105.9741747379303,76.0184326171875,-76.82221221923828,14.609968185424805,0.49
221,MetaDrive-Tut-1Env-v0,105,500.6223796936388,222310,776,2116.841363430023,74.21814727783203,,11.014942169189453,0.47
222,MetaDrive-Tut-1Env-v0,105,499.9851815854304,223441,778,2127.9209225177765,77.82192993164062,-78.44998168945312,13.37757682800293,0.45
223,MetaDrive-Tut-1Env-v0,104,499.2835713484417,224540,780,2139.000514984131,77.1639404296875,,7.998176097869873,0.43
224,MetaDrive-Tut-1Env-v0,104,498.96674241200014,225081,781,2145.0157747268677,75.32846069335938,-76.28608703613281,7.223782062530518,0.42
225,MetaDrive-Tut-1Env-v0,104,498.35382771756673,226166,783,2156.8108100891113,71.75471496582031,,41.463096618652344,0.4
226,MetaDrive-Tut-1Env-v0,104,497.73578116187076,227287,785,2168.6902430057526,75.35639190673828,-76.24261474609375,7.52799129486084,0.38
227,MetaDrive-Tut-1Env-v0,104,497.13660008217215,228393,787,2180.918121814728,71.99400329589844,-72.40934753417969,49.41918182373047,0.36
228,MetaDrive-Tut-1Env-v0,104,496.4703430178374,229478,789,2191.9061880111694,75.79676818847656,,10.865896224975586,0.34
229,MetaDrive-Tut-1Env-v0,104,496.2398396492529,230042,790,2198.258270740509,75.04586791992188,,10.763334274291992,0.33
230,MetaDrive-Tut-1Env-v0,104,495.6268738988674,231135,792,2208.9655289649963,72.2824478149414,-73.4684829711914,9.67168140411377,0.31
231,MetaDrive-Tut-1Env-v0,104,494.98507771864263,232226,794,2220.3228080272675,72.1454086303711,,12.240053176879883,0.29
232,MetaDrive-Tut-1Env-v0,104,494.44818344166896,233322,796,2231.4885818958282,75.63932800292969,,7.848071575164795,0.27
233,MetaDrive-Tut-1Env-v0,104,493.8807728642348,234438,798,2242.7130823135376,72.67731475830078,,7.670543670654297,0.25
234,MetaDrive-Tut-1Env-v0,104,493.3191575682597,235523,800,2254.823455095291,72.16400146484375,-72.84741973876953,12.039478302001953,0.23
235,MetaDrive-Tut-1Env-v0,104,493.0599256638768,236066,801,2260.24178814888,74.22509002685547,,7.272227764129639,0.22
236,MetaDrive-Tut-1Env-v0,104,492.6361960751294,237182,803,2270.7934906482697,72.93546295166016,,8.496078491210938,0.21
237,MetaDrive-Tut-1Env-v0,104,492.065394973556,238295,805,2282.0621569156647,72.0927505493164,-73.06873321533203,6.39522647857666,0.19
238,MetaDrive-Tut-1Env-v0,104,491.4698164589701,239421,807,2294.2099063396454,73.27385711669922,-74.26691436767578,8.838241577148438,0.17
239,MetaDrive-Tut-1Env-v0,104,491.07681703960895,240517,809,2306.3911764621735,71.14450073242188,-71.40811920166016,9.833394050598145,0.16
240,MetaDrive-Tut-1Env-v0,104,490.7413547365723,241064,810,2312.5343914031982,71.27713012695312,,8.887290000915527,0.15
241,MetaDrive-Tut-1Env-v0,104,490.40995783855215,242181,812,2325.5031180381775,71.29774475097656,-72.18282318115234,7.817032814025879,0.14
242,MetaDrive-Tut-1Env-v0,104,490.10463330881134,243348,814,2337.4536147117615,73.55372619628906,,10.285372734069824,0.13
243,MetaDrive-Tut-1Env-v0,104,489.72262443963353,244473,816,2348.5595462322235,73.1312255859375,-73.09901428222656,7.375209331512451,0.11
244,MetaDrive-Tut-1Env-v0,104,489.4430625189383,245030,817,2354.1970648765564,68.77523803710938,,7.206803798675537,0.1
245,MetaDrive-Tut-1Env-v0,104,488.98439457837384,246186,819,2365.430247068405,75.35481262207031,,7.103580951690674,0.08
246,MetaDrive-Tut-1Env-v0,104,488.8344003777719,247327,821,2376.3872356414795,74.90251159667969,-75.2550048828125,15.988916397094727,0.07
247,MetaDrive-Tut-1Env-v0,104,488.8258204232891,248471,823,2387.0452814102173,68.58226776123047,-69.45975494384766,10.781246185302734,0.07
248,MetaDrive-Tut-1Env-v0,104,488.56971770076046,249025,824,2392.359183549881,73.22854614257812,-74.45193481445312,6.642283916473389,0.06
249,MetaDrive-Tut-1Env-v0,104,488.1624263881661,250195,826,2403.230095386505,72.22015380859375,-73.28463745117188,13.455154418945312,0.04
250,MetaDrive-Tut-1Env-v0,104,487.9698799999897,251346,828,2413.941197872162,70.474365234375,,13.013345718383789,0.03
251,MetaDrive-Tut-1Env-v0,104,488.13383522479756,252496,830,2425.044539451599,67.69648742675781,,10.955533981323242,0.04
252,MetaDrive-Tut-1Env-v0,104,488.33336263425844,253070,831,2431.774734020233,71.45738220214844,,7.319777011871338,0.05
253,MetaDrive-Tut-1Env-v0,104,488.8088800143171,254222,833,2442.5694530010223,74.89195251464844,,13.87460994720459,0.07
254,MetaDrive-Tut-1Env-v0,104,489.29011342622346,255388,835,2453.9925475120544,72.33573150634766,,8.068113327026367,0.09
255,MetaDrive-Tut-1Env-v0,104,489.85119880284117,256553,837,2465.390508413315,69.68904113769531,-70.23672485351562,16.62602996826172,0.11
256,MetaDrive-Tut-1Env-v0,104,490.08778005846443,257131,838,2471.7944853305817,70.48466491699219,-71.4170150756836,9.134973526000977,0.12
257,MetaDrive-Tut-1Env-v0,103,490.5920908973505,258265,840,2484.2400975227356,72.91189575195312,-73.45307922363281,14.805038452148438,0.14
258,MetaDrive-Tut-1Env-v0,103,491.15180725820346,259411,842,2495.952895641327,70.47282409667969,-71.7553939819336,8.284109115600586,0.16
259,MetaDrive-Tut-1Env-v0,103,491.4112162005047,260002,843,2501.6930165290833,70.91110229492188,,5.777928829193115,0.17
260,MetaDrive-Tut-1Env-v0,103,492.0122974985472,261180,845,2513.433496236801,68.71702575683594,,10.21036148071289,0.19
261,MetaDrive-Tut-1Env-v0,103,492.69537401205895,262340,847,2525.0261080265045,70.02547454833984,,46.5943489074707,0.21
262,MetaDrive-Tut-1Env-v0,103,493.4054213538095,263499,849,2535.805461883545,72.1482162475586,-72.16930389404297,6.752073287963867,0.23
263,MetaDrive-Tut-1Env-v0,103,493.72131876449464,264075,850,2541.394544839859,71.38200378417969,-71.857421875,10.023883819580078,0.24
264,MetaDrive-Tut-1Env-v0,103,494.427882109159,265234,852,2553.6414477825165,68.90257263183594,,10.460494995117188,0.26
265,MetaDrive-Tut-1Env-v0,103,495.0810734602543,266403,854,2567.8465440273285,69.67649841308594,-69.87736511230469,9.534263610839844,0.28
266,MetaDrive-Tut-1Env-v0,103,495.758494162633,267563,856,2579.323888063431,73.93357849121094,-73.04888916015625,8.994550704956055,0.3
267,MetaDrive-Tut-1Env-v0,103,496.1031387093922,268138,857,2585.1795287132263,71.67105102539062,,8.717571258544922,0.31
268,MetaDrive-Tut-1Env-v0,103,496.80266234164424,269299,859,2597.9836478233337,68.20440673828125,-69.20506286621094,9.537721633911133,0.33
269,MetaDrive-Tut-1Env-v0,103,497.43926441411327,270461,861,2610.1869039535522,67.42650604248047,-68.65723419189453,8.657445907592773,0.35
270,MetaDrive-Tut-1Env-v0,103,497.77250323495895,271035,862,2616.0068266391754,68.48381042480469,-68.53926086425781,11.944388389587402,0.36
271,MetaDrive-Tut-1Env-v0,103,498.4620326032376,272187,864,2627.1060972213745,70.70321655273438,-71.122802734375,8.909367561340332,0.38
272,MetaDrive-Tut-1Env-v0,103,499.15133888127247,273380,866,2638.9415230751038,68.76289367675781,,7.382240295410156,0.4
273,MetaDrive-Tut-1Env-v0,103,499.8034792204162,274589,868,2650.855737924576,71.44671630859375,-72.45741271972656,9.110372543334961,0.42
274,MetaDrive-Tut-1Env-v0,103,500.1084235254327,275216,869,2656.880658388138,73.51445770263672,,8.085878372192383,0.43
275,MetaDrive-Tut-1Env-v0,103,500.7754794859937,276420,871,2668.795064687729,71.67032623291016,,9.722375869750977,0.45
276,MetaDrive-Tut-1Env-v0,103,501.1499126132291,277018,872,2674.8592731952667,70.8465347290039,,5.793365955352783,0.46
277,MetaDrive-Tut-1Env-v0,103,501.8519788449188,278152,874,2687.5027980804443,72.66915130615234,,9.349594116210938,0.48
278,MetaDrive-Tut-1Env-v0,103,502.478666509053,279362,876,2699.8183872699738,72.20669555664062,,7.518546104431152,0.5
279,MetaDrive-Tut-1Env-v0,103,503.1224066872655,280545,878,2712.384348630905,70.6907730102539,-71.57230377197266,7.809016227722168,0.52
280,MetaDrive-Tut-1Env-v0,103,503.45337703674994,281148,879,2718.345633983612,70.464599609375,,31.08881950378418,0.53
281,MetaDrive-Tut-1Env-v0,103,504.16588100295894,282360,881,2732.0355231761932,69.51484680175781,,10.241586685180664,0.55
282,MetaDrive-Tut-1Env-v0,103,504.8130765409098,283551,883,2744.032561779022,68.66877746582031,-68.6742935180664,9.234640121459961,0.57
283,MetaDrive-Tut-1Env-v0,103,505.07815697934006,284140,884,2749.7866258621216,70.97393798828125,,7.917667388916016,0.58
284,MetaDrive-Tut-1Env-v0,103,505.7710029389043,285296,886,2761.1834530830383,69.19210815429688,,5.918878555297852,0.6
285,MetaDrive-Tut-1Env-v0,103,506.36816713076746,286529,888,2772.6249434947968,68.56791687011719,-69.25946044921875,6.289750099182129,0.62
286,MetaDrive-Tut-1Env-v0,103,506.69205594590443,287120,889,2778.1044363975525,72.02099609375,,11.68947696685791,0.63
287,MetaDrive-Tut-1Env-v0,103,507.24961979962904,288322,891,2789.7102358341217,69.7514419555664,,5.262986183166504,0.65
288,MetaDrive-Tut-1Env-v0,103,507.84049974280407,289554,893,2801.6903400421143,69.59989166259766,,5.858950614929199,0.67
289,MetaDrive-Tut-1Env-v0,103,508.1725572436828,290158,894,2807.8288655281067,70.91020202636719,,5.039535999298096,0.68
290,MetaDrive-Tut-1Env-v0,103,508.71616437003956,291377,896,2819.7757654190063,69.86869812011719,-70.96675109863281,12.857873916625977,0.7
291,MetaDrive-Tut-1Env-v0,103,509.25615051577915,292577,898,2831.4817056655884,73.47981262207031,-73.56197357177734,4.4492902755737305,0.72
292,MetaDrive-Tut-1Env-v0,103,509.58240916860507,293166,899,2837.428354024887,69.12554931640625,,8.433356285095215,0.73
293,MetaDrive-Tut-1Env-v0,103,510.1913542390136,294422,901,2850.702213048935,65.8779296875,,15.524951934814453,0.75
294,MetaDrive-Tut-1Env-v0,103,510.49766377307424,295063,902,2857.990262031555,71.86321258544922,-72.55205535888672,8.929359436035156,0.76
295,MetaDrive-Tut-1Env-v0,103,510.89992422214345,296382,904,2872.27166056633,69.38260650634766,,7.252988338470459,0.77
296,MetaDrive-Tut-1Env-v0,103,511.0513488523465,297015,905,2878.588282108307,73.25731658935547,-73.29519653320312,6.154120445251465,0.77
297,MetaDrive-Tut-1Env-v0,103,511.6506953353245,298316,907,2892.1619114875793,68.06163024902344,,7.153390884399414,0.79
298,MetaDrive-Tut-1Env-v0,103,512.2100581711661,299588,909,2905.7303478717804,70.38720703125,,9.156457901000977,0.81
299,MetaDrive-Tut-1Env-v0,103,512.5434998806843,300225,910,2912.223927974701,68.28421783447266,-69.43342590332031,14.930899620056152,0.82
300,MetaDrive-Tut-1Env-v0,103,513.0637850171785,301487,912,2925.790200471878,68.5186767578125,-69.42587280273438,7.470178604125977,0.84
301,MetaDrive-Tut-1Env-v0,103,513.2909752145825,302119,913,2931.868201971054,71.4171142578125,-71.14620971679688,7.408846855163574,0.85
302,MetaDrive-Tut-1Env-v0,103,513.7293627623691,303390,915,2943.6940155029297,68.6070785522461,,6.732231140136719,0.87
303,MetaDrive-Tut-1Env-v0,103,513.9150646529475,304019,916,2949.6628737449646,69.06900024414062,-70.402099609375,6.820469856262207,0.88
304,MetaDrive-Tut-1Env-v0,103,514.186855129808,305349,918,2962.5634927749634,67.98704528808594,-68.49607849121094,7.680689811706543,0.89
305,MetaDrive-Tut-1Env-v0,103,514.1965115101698,306168,919,2970.0124876499176,69.38835144042969,,14.051918029785156,0.89
306,MetaDrive-Tut-1Env-v0,103,514.2413877448018,307111,920,2978.5810372829437,70.35427856445312,-70.53163146972656,6.649646282196045,0.89
307,MetaDrive-Tut-1Env-v0,103,514.3586843075764,308316,922,2990.3764033317566,64.43022155761719,,7.950345039367676,0.9
308,MetaDrive-Tut-1Env-v0,103,514.5646069267444,309491,924,3002.3199973106384,66.64158630371094,-66.83992004394531,6.325145244598389,0.91
309,MetaDrive-Tut-1Env-v0,103,514.7475883065885,310075,925,3008.3259539604187,68.57368469238281,-68.7146224975586,11.123294830322266,0.92
310,MetaDrive-Tut-1Env-v0,103,514.9036437968043,311294,927,3020.3872509002686,66.17866516113281,,69.60572814941406,0.93
311,MetaDrive-Tut-1Env-v0,103,515.2229016868955,312525,929,3032.1570966243744,72.15487670898438,-72.78326416015625,4.79772424697876,0.95
312,MetaDrive-Tut-1Env-v0,103,515.0024359193154,313513,930,3040.669730901718,72.45880126953125,-71.92303466796875,59.20455551147461,0.94
313,MetaDrive-Tut-1Env-v0,103,515.0105702058225,314150,931,3047.918148756027,68.60746002197266,,35.43328857421875,0.94
314,MetaDrive-Tut-1Env-v0,103,514.9536576757337,315348,933,3059.5444865226746,65.32640075683594,,6.791887283325195,0.94
315,MetaDrive-Tut-1Env-v0,103,514.9130092104114,316543,935,3071.4789237976074,69.51155090332031,-69.65546417236328,11.164024353027344,0.94
316,MetaDrive-Tut-1Env-v0,103,514.8655827449886,317108,936,3076.736707687378,69.37846374511719,,5.827121734619141,0.94
317,MetaDrive-Tut-1Env-v0,103,514.8221704236977,318312,938,3088.606734752655,69.69012451171875,,54.302940368652344,0.94
318,MetaDrive-Tut-1Env-v0,103,514.7826316061889,319487,940,3100.5187871456146,70.46514892578125,-71.11619567871094,32.828731536865234,0.94
319,MetaDrive-Tut-1Env-v0,103,514.7715468957912,320066,941,3106.40913438797,65.3882064819336,,5.316796779632568,0.94
320,MetaDrive-Tut-1Env-v0,103,514.727097595507,321230,943,3118.068528175354,69.83419799804688,,8.02275276184082,0.94
321,MetaDrive-Tut-1Env-v0,103,514.6484403066198,322397,945,3128.9917335510254,66.39195251464844,-67.67047882080078,13.541753768920898,0.94
322,MetaDrive-Tut-1Env-v0,103,514.5708306168541,323552,947,3139.838181734085,65.05062866210938,,6.496992111206055,0.94
323,MetaDrive-Tut-1Env-v0,103,514.5525067774635,324128,948,3145.827101945877,64.38256072998047,,9.455020904541016,0.94
324,MetaDrive-Tut-1Env-v0,103,514.4661717438488,325301,950,3157.6526625156403,69.55780029296875,-70.43377685546875,4.891567230224609,0.94
325,MetaDrive-Tut-1Env-v0,103,514.3244817622276,326302,951,3166.159427165985,68.4388198852539,,14.463188171386719,0.93
326,MetaDrive-Tut-1Env-v0,103,514.279670428313,327442,953,3177.5865998268127,70.770263671875,,7.150815010070801,0.93
327,MetaDrive-Tut-1Env-v0,103,514.2371020063696,328014,954,3182.930431127548,70.40046691894531,,7.592827320098877,0.93
328,MetaDrive-Tut-1Env-v0,103,514.2114664289368,329183,956,3194.8088326454163,63.672035217285156,-64.0933837890625,5.697478294372559,0.93
329,MetaDrive-Tut-1Env-v0,102,514.1913947765543,330308,958,3207.4621658325195,69.57605743408203,,8.429207801818848,0.93
330,MetaDrive-Tut-1Env-v0,102,514.1567648907453,331494,960,3219.94318151474,64.76760864257812,,24.067251205444336,0.93
331,MetaDrive-Tut-1Env-v0,102,514.1697042847396,332074,961,3226.2755959033966,70.14041137695312,,5.213132381439209,0.93
332,MetaDrive-Tut-1Env-v0,102,514.174405422821,333220,963,3237.0911939144135,65.98880004882812,,7.917332649230957,0.93
333,MetaDrive-Tut-1Env-v0,102,514.1166421187485,334359,965,3248.8161766529083,65.732421875,-66.01631164550781,6.448758125305176,0.93
334,MetaDrive-Tut-1Env-v0,102,514.0109547125611,335938,967,3262.786972284317,66.77676391601562,,8.217248916625977,0.92
335,MetaDrive-Tut-1Env-v0,102,514.0061051626913,336510,968,3268.5964753627777,66.66470336914062,,7.929727077484131,0.92
336,MetaDrive-Tut-1Env-v0,102,514.010872542958,337114,969,3274.0844786167145,65.78347778320312,,6.262883186340332,0.92
337,MetaDrive-Tut-1Env-v0,102,513.9778771703953,338275,971,3285.077688217163,62.89951705932617,-63.40122985839844,6.04072904586792,0.92
338,MetaDrive-Tut-1Env-v0,102,513.9527156249882,339442,973,3296.1523971557617,65.87823486328125,,7.555647850036621,0.92
339,MetaDrive-Tut-1Env-v0,102,513.940394169879,340012,974,3302.064304828644,65.78018951416016,,7.212907791137695,0.92
340,MetaDrive-Tut-1Env-v0,102,513.9235647390157,341161,976,3314.375645160675,65.18792724609375,-65.89190673828125,5.742351055145264,0.92
341,MetaDrive-Tut-1Env-v0,102,513.9110216826818,342318,978,3326.550525188446,69.87147521972656,,3.605802536010742,0.92
342,MetaDrive-Tut-1Env-v0,102,513.875509402011,343464,980,3337.8605556488037,67.42008972167969,,6.241408348083496,0.92
343,MetaDrive-Tut-1Env-v0,102,513.8793259897354,344041,981,3344.29784488678,63.0362548828125,-63.22123718261719,8.9786958694458,0.92
344,MetaDrive-Tut-1Env-v0,102,513.8660754526054,345194,983,3356.4913172721863,64.51083374023438,,7.860185623168945,0.92
345,MetaDrive-Tut-1Env-v0,102,513.839287219185,346347,985,3369.1640644073486,61.97089767456055,-62.33349609375,6.172878265380859,0.92
346,MetaDrive-Tut-1Env-v0,102,513.0625394483327,347441,987,3380.752904176712,66.12892150878906,-66.87200927734375,31.6181583404541,0.91
347,MetaDrive-Tut-1Env-v0,102,513.0561974559038,348021,988,3386.2779548168182,63.924339294433594,-64.64775848388672,7.819189071655273,0.91
348,MetaDrive-Tut-1Env-v0,102,513.0392289037727,349204,990,3397.911845445633,61.58541488647461,,6.813176155090332,0.91
349,MetaDrive-Tut-1Env-v0,102,512.9230027725563,350205,991,3407.2846689224243,65.65103149414062,-64.68089294433594,11.128548622131348,0.9
350,MetaDrive-Tut-1Env-v0,102,512.9047293040622,351373,993,3420.4487857818604,66.0910873413086,-67.18656921386719,31.80846405029297,0.9
351,MetaDrive-Tut-1Env-v0,102,512.8948979047025,352574,995,3432.039690256119,62.45235824584961,,4.853423118591309,0.9
352,MetaDrive-Tut-1Env-v0,102,512.8830300264273,353155,996,3438.8237597942352,64.78092956542969,-64.75850677490234,7.295962810516357,0.9
353,MetaDrive-Tut-1Env-v0,102,512.8782500673325,354320,998,3450.8705246448517,64.82984161376953,,7.6050333976745605,0.9
354,MetaDrive-Tut-1Env-v0,102,512.8594468201517,355480,1000,3462.528447151184,63.793853759765625,,7.560882091522217,0.9
355,MetaDrive-Tut-1Env-v0,102,512.8436390565913,356060,1001,3468.899183988571,60.482810974121094,,8.900671005249023,0.9
356,MetaDrive-Tut-1Env-v0,102,512.9808217733253,357259,1003,3481.322958946228,65.13882446289062,-64.62234497070312,15.981216430664062,0.91
357,MetaDrive-Tut-1Env-v0,102,511.99256191439883,358439,1005,3494.537586450577,60.92646789550781,-62.0523796081543,7.720296859741211,0.91
358,MetaDrive-Tut-1Env-v0,102,510.80063762817355,359557,1007,3506.6385571956635,63.92811584472656,-63.968685150146484,9.891298294067383,0.9
359,MetaDrive-Tut-1Env-v0,102,510.6734552200277,360558,1008,3515.974857568741,65.96310424804688,,24.447532653808594,0.89
360,MetaDrive-Tut-1Env-v0,102,510.6656330090751,361190,1009,3522.804539203644,67.37728118896484,,7.290854454040527,0.89
361,MetaDrive-Tut-1Env-v0,102,509.5810986815051,362387,1011,3534.0202429294586,64.3185806274414,-64.4637451171875,4.303364276885986,0.88
362,MetaDrive-Tut-1Env-v0,102,509.4731009802976,363388,1012,3541.781222820282,62.17588806152344,,7.936387538909912,0.87
363,MetaDrive-Tut-1Env-v0,102,508.37195350984257,364665,1014,3553.598423719406,64.05573272705078,-64.94937133789062,8.785001754760742,0.86
364,MetaDrive-Tut-1Env-v0,102,507.05153541895504,365372,1015,3560.287062883377,64.66930389404297,,26.519004821777344,0.85
365,MetaDrive-Tut-1Env-v0,102,507.22547648497084,366530,1017,3571.3459420204163,62.72837829589844,,5.45140266418457,0.86
366,MetaDrive-Tut-1Env-v0,102,507.22949637849155,367120,1018,3576.735748052597,62.93637466430664,,9.19591999053955,0.86
367,MetaDrive-Tut-1Env-v0,102,506.41302706394856,368278,1020,3588.0807042121887,60.892601013183594,,11.59922981262207,0.87
368,MetaDrive-Tut-1Env-v0,102,506.39596573195763,369423,1022,3599.048028230667,64.84429931640625,-65.3810806274414,4.800948619842529,0.87
369,MetaDrive-Tut-1Env-v0,102,506.3982049326616,370005,1023,3604.5910573005676,61.643707275390625,-61.71284484863281,6.516495704650879,0.87
370,MetaDrive-Tut-1Env-v0,102,506.41410120781023,371146,1025,3616.5793793201447,62.27959442138672,,6.416266918182373,0.87
371,MetaDrive-Tut-1Env-v0,102,506.38683380112843,372289,1027,3628.181592941284,63.857730865478516,-64.73419189453125,9.178342819213867,0.87
372,MetaDrive-Tut-1Env-v0,102,506.37662330017525,373417,1029,3639.423525571823,62.222171783447266,-62.09526062011719,9.681249618530273,0.87
373,MetaDrive-Tut-1Env-v0,102,505.6812642735412,374432,1031,3649.4561138153076,64.1038589477539,,4.72198486328125,0.87
374,MetaDrive-Tut-1Env-v0,102,505.7034921050464,375003,1032,3654.9971430301666,63.622467041015625,-64.79849243164062,5.2606682777404785,0.87
375,MetaDrive-Tut-1Env-v0,102,505.6647507154625,376137,1034,3665.802089214325,59.097225189208984,-59.388362884521484,7.136874198913574,0.87
376,MetaDrive-Tut-1Env-v0,102,505.6511781718088,377271,1036,3676.339369058609,61.48613739013672,-61.65247344970703,19.559364318847656,0.87
377,MetaDrive-Tut-1Env-v0,102,505.65059315643396,378423,1038,3688.0741629600525,60.476341247558594,-60.112876892089844,7.8398847579956055,0.87
378,MetaDrive-Tut-1Env-v0,102,505.65953493354505,379027,1039,3693.985770702362,65.08867645263672,-65.14999389648438,6.702008247375488,0.87
379,MetaDrive-Tut-1Env-v0,102,505.65517473534646,380187,1041,3705.746489048004,65.30028533935547,-65.29947662353516,10.33902359008789,0.87
380,MetaDrive-Tut-1Env-v0,102,505.63353610382524,381327,1043,3717.1980409622192,63.1015510559082,-63.40541458129883,8.02454662322998,0.87
381,MetaDrive-Tut-1Env-v0,102,505.6131582347836,382461,1045,3728.776074409485,61.097801208496094,-61.37294006347656,6.394558906555176,0.87
382,MetaDrive-Tut-1Env-v0,102,505.6098343500964,383008,1046,3734.3739862442017,61.41466522216797,,7.442917346954346,0.87
383,MetaDrive-Tut-1Env-v0,102,505.5503549450695,384146,1048,3745.7782418727875,61.97819519042969,,4.699786186218262,0.87
384,MetaDrive-Tut-1Env-v0,102,505.54444976683425,385269,1050,3757.8288717269897,67.13355255126953,-67.92652893066406,6.4805707931518555,0.87
385,MetaDrive-Tut-1Env-v0,102,505.64020590304875,386405,1052,3770.232102870941,63.50318908691406,-64.21781921386719,6.799152374267578,0.88
386,MetaDrive-Tut-1Env-v0,102,505.6140175435347,387559,1054,3782.519829273224,60.25254821777344,-60.431610107421875,5.216949939727783,0.88
387,MetaDrive-Tut-1Env-v0,102,505.61073254177796,388129,1055,3788.916826725006,61.692420959472656,-62.37053298950195,10.999019622802734,0.88
388,MetaDrive-Tut-1Env-v0,102,505.5307064821868,389267,1057,3800.436104774475,61.23606872558594,-62.164306640625,6.3431901931762695,0.88
389,MetaDrive-Tut-1Env-v0,102,505.48147928082034,390414,1059,3812.627608060837,61.54485321044922,,5.541520118713379,0.88
390,MetaDrive-Tut-1Env-v0,102,505.4589959360359,391538,1061,3824.8779833316803,59.239593505859375,,7.294220924377441,0.88
391,MetaDrive-Tut-1Env-v0,102,505.4254085284872,392126,1062,3830.678804397583,61.744205474853516,,7.8431267738342285,0.88
392,MetaDrive-Tut-1Env-v0,102,505.42380962865786,393270,1064,3841.200816631317,63.849369049072266,,7.360026836395264,0.88
393,MetaDrive-Tut-1Env-v0,102,505.2442429968082,394404,1066,3852.4361610412598,60.83353042602539,,7.217291831970215,0.87
394,MetaDrive-Tut-1Env-v0,102,505.31067592821927,395535,1068,3864.104547739029,61.528377532958984,-60.567588806152344,6.8649396896362305,0.88
395,MetaDrive-Tut-1Env-v0,102,504.5876442359594,396571,1070,3874.5232558250427,61.62663269042969,-63.020896911621094,4.932065963745117,0.87
396,MetaDrive-Tut-1Env-v0,102,504.57858262826807,397132,1071,3879.8679728507996,60.75209045410156,,7.638882160186768,0.87
397,MetaDrive-Tut-1Env-v0,102,504.5396915501995,398238,1073,3890.655613899231,63.11476135253906,,7.3942718505859375,0.87
398,MetaDrive-Tut-1Env-v0,102,504.3701150720785,399373,1075,3901.396469116211,60.80351257324219,-61.96155548095703,4.754988193511963,0.86
399,MetaDrive-Tut-1Env-v0,102,504.20868270108537,400157,1076,3908.048917531967,58.70667266845703,-58.63115692138672,64.32111358642578,0.85
400,MetaDrive-Tut-1Env-v0,102,504.19375216254565,401312,1078,3919.36611700058,61.981937408447266,,7.0333099365234375,0.85
401,MetaDrive-Tut-1Env-v0,102,504.16144262712834,402424,1080,3930.7230553627014,64.68161010742188,,4.578207969665527,0.85
402,MetaDrive-Tut-1Env-v0,102,504.1242270418863,403556,1082,3943.5658457279205,63.2607421875,,6.597012042999268,0.85
403,MetaDrive-Tut-1Env-v0,102,504.1349645337948,404116,1083,3949.7791526317596,61.61007308959961,,6.457458972930908,0.85
404,MetaDrive-Tut-1Env-v0,102,504.13630637894136,405240,1085,3962.406082391739,62.911407470703125,,16.586589813232422,0.85
405,MetaDrive-Tut-1Env-v0,102,504.8642179487121,406374,1087,3974.0212483406067,62.370330810546875,,7.372052192687988,0.86
406,MetaDrive-Tut-1Env-v0,102,504.8668791181808,407518,1089,3985.337550640106,60.31193161010742,,4.176578521728516,0.86
407,MetaDrive-Tut-1Env-v0,102,504.8486013083816,408072,1090,3990.879493713379,63.40571594238281,,3.8007712364196777,0.86
408,MetaDrive-Tut-1Env-v0,102,501.8689842731848,409356,1093,4004.2364575862885,63.68802261352539,,7.557066917419434,0.86
409,MetaDrive-Tut-1Env-v0,102,501.83937559557756,410495,1095,4017.3530807495117,64.61830139160156,-64.47151184082031,7.606567859649658,0.86
410,MetaDrive-Tut-1Env-v0,102,501.68337765583715,411359,1096,4024.8331356048584,59.86820983886719,-60.10823440551758,5.610085487365723,0.85
411,MetaDrive-Tut-1Env-v0,102,501.50659839694976,412495,1098,4036.571627855301,62.11089324951172,-61.71118927001953,5.097809791564941,0.84
412,MetaDrive-Tut-1Env-v0,102,498.3748100124434,413228,1100,4044.4832203388214,64.31238555908203,,5.4848952293396,0.83
413,MetaDrive-Tut-1Env-v0,102,498.17938445225263,414471,1102,4056.488739490509,60.6378173828125,-60.72173309326172,6.040178298950195,0.82
414,MetaDrive-Tut-1Env-v0,102,498.179636725552,415043,1103,4062.5356290340424,60.58357238769531,-60.91242980957031,8.727203369140625,0.82
415,MetaDrive-Tut-1Env-v0,102,499.12048175509926,416180,1105,4075.661170244217,61.402793884277344,,6.695590019226074,0.82
416,MetaDrive-Tut-1Env-v0,102,500.09913989243296,417690,1107,4088.3341484069824,59.933433532714844,,5.154894828796387,0.82
417,MetaDrive-Tut-1Env-v0,102,500.0447718164741,418607,1108,4096.046771287918,60.806060791015625,-61.47105026245117,5.673964500427246,0.82
418,MetaDrive-Tut-1Env-v0,102,499.9032983402349,419608,1109,4104.342492103577,60.28300094604492,,4.14168119430542,0.81
419,MetaDrive-Tut-1Env-v0,102,499.88489328184914,420160,1110,4110.233095169067,60.99327087402344,,4.826141357421875,0.81
420,MetaDrive-Tut-1Env-v0,102,501.05562399587393,421275,1112,4122.277086734772,59.751380920410156,-60.840633392333984,6.126197338104248,0.83
421,MetaDrive-Tut-1Env-v0,102,502.1069935907394,422410,1114,4133.54213309288,62.49250030517578,,4.736504554748535,0.84
422,MetaDrive-Tut-1Env-v0,102,503.2444886679171,423979,1116,4147.597144842148,63.49919128417969,-64.83423614501953,4.7578277587890625,0.84
423,MetaDrive-Tut-1Env-v0,102,503.210329538198,424537,1117,4153.298528432846,60.62700653076172,-61.74945068359375,6.753167152404785,0.84
424,MetaDrive-Tut-1Env-v0,102,503.0705235226699,425538,1118,4161.5699009895325,63.56245803833008,,12.526869773864746,0.83
425,MetaDrive-Tut-1Env-v0,102,504.04420629121705,426105,1119,4167.2943794727325,61.50249099731445,-61.20502853393555,6.659266471862793,0.83
426,MetaDrive-Tut-1Env-v0,102,504.0792178264974,427227,1121,4178.962701559067,61.97283172607422,-62.78474426269531,6.650744438171387,0.83
427,MetaDrive-Tut-1Env-v0,102,504.1006711146333,428201,1122,4186.894061326981,61.178924560546875,-61.97406005859375,11.184732437133789,0.83
428,MetaDrive-Tut-1Env-v0,102,504.0756559538456,429332,1124,4197.902186870575,58.743553161621094,,5.804426193237305,0.83
429,MetaDrive-Tut-1Env-v0,102,504.0742812005554,430449,1126,4208.236272096634,61.38705825805664,-60.79027557373047,8.048233032226562,0.83
430,MetaDrive-Tut-1Env-v0,102,504.0994175634659,431012,1127,4213.649829387665,60.696693420410156,,5.699265480041504,0.83
431,MetaDrive-Tut-1Env-v0,102,500.9385999217613,432289,1130,4226.0489292144775,60.0998420715332,-60.26814270019531,5.2588911056518555,0.82
432,MetaDrive-Tut-1Env-v0,102,501.79757148023884,433414,1132,4238.842880487442,62.80859375,,6.056328773498535,0.83
433,MetaDrive-Tut-1Env-v0,102,501.78734756053547,434527,1134,4250.648604154587,61.685951232910156,-61.49363708496094,5.02867317199707,0.83
434,MetaDrive-Tut-1Env-v0,102,501.693761631264,435528,1135,4258.807958364487,59.421180725097656,,8.199138641357422,0.82
435,MetaDrive-Tut-1Env-v0,102,501.49511370427894,436093,1136,4265.850126981735,62.01357650756836,-62.23955535888672,6.725005149841309,0.81
436,MetaDrive-Tut-1Env-v0,102,501.3180298169497,437037,1137,4273.961453437805,62.02180480957031,-62.923675537109375,5.916043281555176,0.8
437,MetaDrive-Tut-1Env-v0,102,501.27828410708184,438142,1139,4285.482104539871,58.38544464111328,,7.202123641967773,0.8
438,MetaDrive-Tut-1Env-v0,102,501.1381132976764,439143,1140,4293.950130939484,60.50904083251953,-60.79999542236328,4.860929012298584,0.79
439,MetaDrive-Tut-1Env-v0,102,501.13949668982815,440262,1142,4305.890126943588,59.82333755493164,,9.798253059387207,0.79
440,MetaDrive-Tut-1Env-v0,102,501.1709567232327,441385,1144,4316.705457687378,62.074798583984375,-63.565956115722656,8.617557525634766,0.79
441,MetaDrive-Tut-1Env-v0,102,501.2105753303284,442511,1146,4329.017509937286,60.57891845703125,-60.567222595214844,11.398307800292969,0.79
442,MetaDrive-Tut-1Env-v0,102,501.23531136607556,443075,1147,4335.321991920471,59.79188537597656,-60.60226058959961,3.1402475833892822,0.79
443,MetaDrive-Tut-1Env-v0,102,501.3074676350944,444223,1149,4346.842156648636,62.74753189086914,-63.197608947753906,4.150641441345215,0.79
444,MetaDrive-Tut-1Env-v0,102,501.32479800786876,445348,1151,4358.517598867416,61.056217193603516,,7.469113349914551,0.79
445,MetaDrive-Tut-1Env-v0,102,501.32756629816316,446473,1153,4370.173589706421,64.415771484375,-64.62521362304688,3.861091136932373,0.79
446,MetaDrive-Tut-1Env-v0,102,501.3244768374833,447031,1154,4376.489328384399,62.00572967529297,-61.25190734863281,42.99827575683594,0.79
447,MetaDrive-Tut-1Env-v0,102,501.1412229443304,448273,1156,4390.521309137344,64.92096710205078,-65.58103942871094,5.067755222320557,0.78
448,MetaDrive-Tut-1Env-v0,102,501.0182390442508,449440,1158,4403.069149971008,58.990020751953125,,6.189085006713867,0.77
449,MetaDrive-Tut-1Env-v0,102,500.8363985728244,450565,1160,4415.094534873962,59.74678039550781,-58.84341049194336,5.2844014167785645,0.76
450,MetaDrive-Tut-1Env-v0,102,500.8497199445594,451121,1161,4421.054773569107,65.11639404296875,-66.4339599609375,4.897262096405029,0.76
451,MetaDrive-Tut-1Env-v0,102,500.8129857665633,452234,1163,4432.644294977188,62.44890594482422,,7.7884368896484375,0.76
452,MetaDrive-Tut-1Env-v0,102,500.8118996456233,453362,1165,4443.931554555893,61.578819274902344,,5.911641597747803,0.76
453,MetaDrive-Tut-1Env-v0,102,500.96766858910115,454471,1167,4455.034605503082,60.62550354003906,-60.8206787109375,6.906881809234619,0.77
454,MetaDrive-Tut-1Env-v0,101,500.97508751213934,455033,1168,4461.469853878021,60.924530029296875,-60.98914337158203,8.229875564575195,0.77
455,MetaDrive-Tut-1Env-v0,101,501.51773779934695,456517,1170,4475.94044303894,58.72697448730469,-59.1064453125,3.654879093170166,0.77
456,MetaDrive-Tut-1Env-v0,101,501.55118688638294,457062,1171,4481.300267696381,58.032920837402344,,5.41349983215332,0.77
457,MetaDrive-Tut-1Env-v0,101,501.61775035430105,458188,1173,4492.429067373276,59.626678466796875,,4.403428077697754,0.77
458,MetaDrive-Tut-1Env-v0,101,501.7543865734707,459290,1175,4503.647627830505,59.90574645996094,,4.105139255523682,0.78
459,MetaDrive-Tut-1Env-v0,101,501.8992388115551,460409,1177,4515.187712430954,59.65803527832031,-59.380313873291016,3.7042222023010254,0.79
460,MetaDrive-Tut-1Env-v0,101,501.7532845989337,461560,1179,4527.0384776592255,61.491451263427734,,19.66448211669922,0.78
461,MetaDrive-Tut-1Env-v0,101,501.73968943255386,462110,1180,4532.357028007507,61.41981887817383,,3.6485042572021484,0.78
462,MetaDrive-Tut-1Env-v0,101,501.7599881199843,463215,1182,4543.2209939956665,64.33556365966797,-64.37660217285156,4.052542686462402,0.78
463,MetaDrive-Tut-1Env-v0,101,501.73884884054127,464332,1184,4555.630456447601,59.410400390625,,4.217055320739746,0.78
464,MetaDrive-Tut-1Env-v0,101,501.5785259007513,465412,1186,4567.584286928177,61.8704948425293,,4.357966899871826,0.77
465,MetaDrive-Tut-1Env-v0,101,501.3781337676119,466588,1188,4579.4797694683075,62.92152404785156,,4.0984392166137695,0.76
466,MetaDrive-Tut-1Env-v0,101,501.20913287030123,467254,1189,4585.692849636078,62.72259521484375,,6.129312515258789,0.75
467,MetaDrive-Tut-1Env-v0,101,504.12997267685455,468541,1191,4598.456057071686,60.2491340637207,-60.860679626464844,5.796035289764404,0.75
468,MetaDrive-Tut-1Env-v0,101,504.1507969177703,469106,1192,4604.7179498672485,62.4200553894043,,3.3632287979125977,0.75
469,MetaDrive-Tut-1Env-v0,101,504.1588339695487,470206,1194,4616.079959154129,62.07036590576172,,3.788874626159668,0.75
470,MetaDrive-Tut-1Env-v0,101,501.15239500734145,471483,1197,4629.921494960785,61.112548828125,-61.11905288696289,3.982910633087158,0.76
471,MetaDrive-Tut-1Env-v0,101,501.1482042944408,472037,1198,4636.437362909317,60.533302307128906,-61.55609130859375,4.341009616851807,0.76
472,MetaDrive-Tut-1Env-v0,101,504.0490025216158,473167,1200,4648.49729681015,60.27385711669922,-60.76979064941406,3.3447508811950684,0.76
473,MetaDrive-Tut-1Env-v0,101,504.1809140839234,474275,1202,4661.065113544464,61.985355377197266,-62.39710235595703,5.810238838195801,0.77
474,MetaDrive-Tut-1Env-v0,101,504.3061222600699,475405,1204,4673.083268880844,60.908348083496094,-61.3568115234375,4.264141082763672,0.78
475,MetaDrive-Tut-1Env-v0,101,504.1499859562907,476176,1205,4680.868586301804,63.42938232421875,,5.809690952301025,0.77
476,MetaDrive-Tut-1Env-v0,101,504.27868513099105,477294,1207,4691.480584621429,61.93162155151367,,45.495975494384766,0.78
477,MetaDrive-Tut-1Env-v0,101,504.56379713510563,478406,1209,4702.462685108185,59.12300109863281,,3.8588199615478516,0.8
478,MetaDrive-Tut-1Env-v0,101,504.5510487176371,479534,1211,4713.875862836838,61.59846496582031,,9.913594245910645,0.8
479,MetaDrive-Tut-1Env-v0,101,504.53413936720347,480087,1212,4719.680211782455,59.907142639160156,-60.826759338378906,5.929083824157715,0.8
480,MetaDrive-Tut-1Env-v0,101,504.5390053109161,481196,1214,4730.910226345062,57.71860885620117,,9.87221622467041,0.8
481,MetaDrive-Tut-1Env-v0,101,504.6904173889624,482313,1216,4742.836044549942,60.064613342285156,-61.206138610839844,5.563222885131836,0.81
482,MetaDrive-Tut-1Env-v0,101,504.8370866681473,483440,1218,4755.92200422287,61.43274688720703,,58.134796142578125,0.82
483,MetaDrive-Tut-1Env-v0,101,504.98971372186554,484552,1220,4767.886921405792,60.351478576660156,,4.29615592956543,0.83
484,MetaDrive-Tut-1Env-v0,101,504.9918691947763,485128,1221,4773.622099637985,61.460105895996094,,4.618566513061523,0.83
485,MetaDrive-Tut-1Env-v0,101,504.94816948053375,486232,1223,4784.832644224167,57.22724533081055,,6.755604267120361,0.83
486,MetaDrive-Tut-1Env-v0,101,504.7958966426541,487023,1224,4791.481455087662,60.999107360839844,-61.596065521240234,5.605782508850098,0.82
487,MetaDrive-Tut-1Env-v0,101,504.76856046178256,488123,1226,4803.663906812668,58.966461181640625,-59.13945770263672,3.992866039276123,0.82
488,MetaDrive-Tut-1Env-v0,101,507.91278994484253,489236,1228,4815.487848043442,62.59393310546875,,4.463024616241455,0.83
489,MetaDrive-Tut-1Env-v0,101,507.9144355123963,490349,1230,4826.854853391647,60.96092987060547,-62.176239013671875,3.8775570392608643,0.83
490,MetaDrive-Tut-1Env-v0,101,507.90411620798477,491452,1232,4838.7569670677185,61.457096099853516,,4.47803258895874,0.83
491,MetaDrive-Tut-1Env-v0,101,507.91381507050784,492003,1233,4844.216016530991,61.97600555419922,-62.94650650024414,3.41519832611084,0.83
492,MetaDrive-Tut-1Env-v0,101,508.0071289337523,493121,1235,4856.602285385132,62.11030578613281,-62.154354095458984,5.18364143371582,0.84
493,MetaDrive-Tut-1Env-v0,101,508.3614995510369,494233,1237,4867.581852912903,59.85484313964844,-59.940773010253906,4.699624538421631,0.86
494,MetaDrive-Tut-1Env-v0,101,508.3762914994636,495330,1239,4878.992900848389,63.63922119140625,,5.094252586364746,0.86
495,MetaDrive-Tut-1Env-v0,101,508.5382925259882,496429,1241,4891.155341625214,57.22125244140625,-57.68821334838867,4.814939975738525,0.87
496,MetaDrive-Tut-1Env-v0,101,508.582520170916,497538,1243,4902.93887925148,58.820350646972656,,5.488458633422852,0.87
497,MetaDrive-Tut-1Env-v0,101,508.55598378550195,498093,1244,4909.097936868668,57.65040588378906,-57.55278778076172,3.4494919776916504,0.87
498,MetaDrive-Tut-1Env-v0,101,508.5355402277202,499211,1246,4920.474973678589,61.01251983642578,-61.662017822265625,60.29864501953125,0.87
