jacobyokehongsi/assignment-2022fall/assignment3/MetaDrive-Tut-50Env-v0/td3/progress.csv
,log_dir,frame_per_second,episode_reward,total_steps,total_episodes,total_time,target_q,actor_loss,critic_loss,success_rate
0,MetaDrive-Tut-50Env-v0,575,11.349502084174292,2001,2,3.4798364639282227,,,,0.0
1,MetaDrive-Tut-50Env-v0,577,11.72368417919643,3002,3,5.195826053619385,,,,0.0
2,MetaDrive-Tut-50Env-v0,539,7.77261201303002,5001,6,9.262921810150146,,,,0.0
3,MetaDrive-Tut-50Env-v0,533,8.275202522097254,6002,7,11.256911754608154,,,,0.0
4,MetaDrive-Tut-50Env-v0,512,8.965885406383611,7003,8,13.664573431015015,,,,0.0
5,MetaDrive-Tut-50Env-v0,504,8.947876887697442,8004,9,15.872461557388306,,,,0.0
6,MetaDrive-Tut-50Env-v0,513,9.118334740934335,9005,10,17.525019884109497,,,,0.0
7,MetaDrive-Tut-50Env-v0,509,9.235608720401958,10006,11,19.625924348831177,0.008935278281569481,,0.0015078107826411724,0.0
8,MetaDrive-Tut-50Env-v0,348,5.561150698413522,11027,42,31.608157634735107,0.16255557537078857,-0.1543225347995758,0.025742286816239357,0.0
9,MetaDrive-Tut-50Env-v0,282,6.549922342611308,12013,69,42.59932231903076,0.31786906719207764,-0.34806573390960693,0.03452754020690918,0.0
10,MetaDrive-Tut-50Env-v0,242,8.11698550501589,13009,93,53.632174491882324,0.5517071485519409,-0.6383485794067383,0.8175686597824097,0.0
11,MetaDrive-Tut-50Env-v0,214,10.81631548721947,14019,114,65.31024122238159,0.8309853076934814,-0.862591564655304,0.8711264729499817,0.0
12,MetaDrive-Tut-50Env-v0,200,13.853750345545022,15033,136,74.98281073570251,1.307856798171997,-1.4704428911209106,1.7880604267120361,0.0
13,MetaDrive-Tut-50Env-v0,191,18.673851436900904,16067,154,83.89916276931763,1.6972708702087402,-1.8398340940475464,3.3433215618133545,0.0
14,MetaDrive-Tut-50Env-v0,184,22.115691649391415,17012,170,92.32202124595642,2.3387787342071533,,0.9612917304039001,0.0
15,MetaDrive-Tut-50Env-v0,178,24.585278381877323,18049,189,101.03145122528076,3.254791736602783,-3.2825982570648193,0.8894962072372437,0.0
16,MetaDrive-Tut-50Env-v0,174,31.288661407226318,19105,202,109.7655553817749,3.817031145095825,-3.993922233581543,0.8269308805465698,0.0
17,MetaDrive-Tut-50Env-v0,170,34.88919261464686,20007,214,117.07126426696777,4.368642330169678,-4.360893249511719,5.853006839752197,0.0
18,MetaDrive-Tut-50Env-v0,167,41.57407309087932,21028,225,125.5606336593628,5.681825637817383,,3.3934805393218994,0.0
19,MetaDrive-Tut-50Env-v0,165,48.164092660495264,22011,237,132.74708795547485,6.547989845275879,-6.707657814025879,2.8296899795532227,0.0
20,MetaDrive-Tut-50Env-v0,163,53.75321426974742,23025,248,140.60784721374512,7.423015594482422,-8.047351837158203,2.1633260250091553,0.0
21,MetaDrive-Tut-50Env-v0,161,61.842089268938416,24044,257,148.7811427116394,8.336329460144043,,12.818617820739746,0.0
22,MetaDrive-Tut-50Env-v0,159,68.49653931060237,25084,268,157.49077486991882,9.618374824523926,,5.5160231590271,0.0
23,MetaDrive-Tut-50Env-v0,156,75.12052722911736,26098,279,166.56763815879822,9.810949325561523,,4.685993671417236,0.0
24,MetaDrive-Tut-50Env-v0,155,81.05417970006889,27034,289,174.37653708457947,11.710738182067871,,4.184394359588623,0.0
25,MetaDrive-Tut-50Env-v0,153,83.81758778956862,28037,300,182.63707423210144,12.47287368774414,-13.01990032196045,1.2790684700012207,0.0
26,MetaDrive-Tut-50Env-v0,152,86.41755387255286,29069,311,190.9758551120758,12.943510055541992,-13.668054580688477,13.288556098937988,0.0
27,MetaDrive-Tut-50Env-v0,150,90.2942609972388,30017,320,198.97227382659912,13.572494506835938,-14.106775283813477,7.229753494262695,0.0
28,MetaDrive-Tut-50Env-v0,149,93.86466947443363,31016,330,207.0766625404358,15.128064155578613,,14.147645950317383,0.0
29,MetaDrive-Tut-50Env-v0,148,96.4651770191748,32109,340,216.83202743530273,16.57630729675293,-16.838468551635742,15.01132869720459,0.0
30,MetaDrive-Tut-50Env-v0,147,98.80328325685048,33037,349,224.38924098014832,17.443082809448242,-17.7998104095459,11.626609802246094,0.0
31,MetaDrive-Tut-50Env-v0,146,100.14199310531947,34062,358,232.96905732154846,18.089801788330078,,8.627276420593262,0.0
32,MetaDrive-Tut-50Env-v0,145,99.8339959431846,35052,368,241.11828708648682,20.02430534362793,,3.787653684616089,0.0
33,MetaDrive-Tut-50Env-v0,144,100.49966606537758,36092,379,249.30920386314392,20.174560546875,,15.11617660522461,0.0
34,MetaDrive-Tut-50Env-v0,142,102.34021963450805,37141,389,260.3016834259033,20.375812530517578,-20.89302635192871,14.681812286376953,0.0
35,MetaDrive-Tut-50Env-v0,140,103.68091316660761,38048,398,271.34520053863525,21.874961853027344,,11.848451614379883,0.0
36,MetaDrive-Tut-50Env-v0,139,107.22764290980825,39087,407,281.11597871780396,22.309383392333984,-22.888587951660156,10.187061309814453,0.0
37,MetaDrive-Tut-50Env-v0,138,110.62713664501734,40086,416,289.3156547546387,24.292917251586914,,9.67384147644043,0.0
38,MetaDrive-Tut-50Env-v0,137,109.12518391423347,41086,425,297.9279294013977,22.414730072021484,,13.640076637268066,0.0
39,MetaDrive-Tut-50Env-v0,137,112.1421056923619,42141,434,307.088143825531,25.25480079650879,-25.325206756591797,10.851033210754395,0.0
40,MetaDrive-Tut-50Env-v0,136,113.15265224729477,43065,442,315.33353567123413,25.26101303100586,-25.42523956298828,28.311983108520508,0.0
41,MetaDrive-Tut-50Env-v0,136,114.28372345660871,44026,450,323.15472531318665,25.717914581298828,,14.34890079498291,0.0
42,MetaDrive-Tut-50Env-v0,135,114.7019882047679,45020,458,331.4114475250244,27.368335723876953,,9.150030136108398,0.0
43,MetaDrive-Tut-50Env-v0,135,117.62934530174114,46111,467,340.4551820755005,28.96414566040039,-28.82588768005371,3.7180347442626953,0.0
44,MetaDrive-Tut-50Env-v0,135,121.13504462131894,47084,475,348.08976697921753,29.44462013244629,,16.16582489013672,0.01
45,MetaDrive-Tut-50Env-v0,135,123.12960302087268,48067,484,355.52272725105286,28.69091796875,-29.054115295410156,5.380054473876953,0.01
46,MetaDrive-Tut-50Env-v0,134,122.33395530058408,49047,493,364.1184320449829,28.040267944335938,-28.102333068847656,7.009091377258301,0.01
47,MetaDrive-Tut-50Env-v0,134,121.25143460088977,50056,503,372.71934247016907,30.38228988647461,,18.993988037109375,0.01
48,MetaDrive-Tut-50Env-v0,134,122.55843901683184,51087,511,380.6895217895508,31.663009643554688,-31.849288940429688,11.87852668762207,0.01
49,MetaDrive-Tut-50Env-v0,134,122.78791817811282,52063,519,388.0578467845917,29.907846450805664,-30.388208389282227,34.53650665283203,0.01
50,MetaDrive-Tut-50Env-v0,134,123.3325390709735,53020,527,395.4115047454834,32.8829345703125,,6.462505340576172,0.01
51,MetaDrive-Tut-50Env-v0,134,121.85732769397215,54172,537,404.22854375839233,34.286033630371094,,14.279301643371582,0.01
52,MetaDrive-Tut-50Env-v0,133,119.80700327370431,55105,546,411.6763858795166,34.2905387878418,-34.821598052978516,8.584182739257812,0.01
53,MetaDrive-Tut-50Env-v0,133,115.79071789653057,56016,555,420.1482491493225,33.869300842285156,,15.38439655303955,0.01
54,MetaDrive-Tut-50Env-v0,132,115.21297858939757,57017,564,429.0552086830139,35.22827911376953,-35.75334930419922,6.79217529296875,0.01
55,MetaDrive-Tut-50Env-v0,132,116.66820903314816,58011,572,437.5687985420227,35.12940216064453,-35.69737243652344,13.832366943359375,0.01
56,MetaDrive-Tut-50Env-v0,132,115.09325790615146,59036,581,446.5399112701416,36.38365936279297,,10.336109161376953,0.0
57,MetaDrive-Tut-50Env-v0,132,116.91883458241598,60058,589,454.78896164894104,34.56140899658203,,13.965643882751465,0.0
58,MetaDrive-Tut-50Env-v0,131,115.01278316827018,61089,599,463.8112609386444,36.00820541381836,-36.23857116699219,7.642663478851318,0.0
59,MetaDrive-Tut-50Env-v0,131,116.87568354285037,62053,607,472.1047351360321,36.072723388671875,-36.35978698730469,21.354841232299805,0.0
60,MetaDrive-Tut-50Env-v0,131,113.36029130941253,63018,615,479.83073258399963,35.81742858886719,,10.690383911132812,0.0
61,MetaDrive-Tut-50Env-v0,131,115.93413602132458,64087,624,488.9636814594269,38.20232391357422,-38.85387420654297,10.779232025146484,0.0
62,MetaDrive-Tut-50Env-v0,130,115.4318377246359,65100,632,497.3998305797577,36.842655181884766,,18.566177368164062,0.0
63,MetaDrive-Tut-50Env-v0,130,118.56512346495049,66029,639,505.1483483314514,38.32810974121094,-38.15167236328125,10.971722602844238,0.0
64,MetaDrive-Tut-50Env-v0,130,119.73267610370904,67069,649,512.5980174541473,38.0435905456543,-38.87076950073242,16.340160369873047,0.0
65,MetaDrive-Tut-50Env-v0,130,124.37219257250267,68115,657,521.4577119350433,38.47102355957031,-38.040306091308594,9.530160903930664,0.0
66,MetaDrive-Tut-50Env-v0,130,122.85204507708013,69073,666,529.9911351203918,39.13645935058594,-38.831661224365234,18.857616424560547,0.0
67,MetaDrive-Tut-50Env-v0,130,122.83196040108488,70097,674,538.3145799636841,39.08094787597656,-39.371925354003906,6.995797157287598,0.0
68,MetaDrive-Tut-50Env-v0,130,120.5299668541322,71031,683,545.8639299869537,39.52003479003906,-40.3203125,16.009111404418945,0.0
69,MetaDrive-Tut-50Env-v0,130,120.93590764462847,72066,692,553.6777226924896,38.84008026123047,,8.40772819519043,0.0
70,MetaDrive-Tut-50Env-v0,130,123.37838017412074,73006,700,560.4069728851318,39.785308837890625,,7.191710472106934,0.0
71,MetaDrive-Tut-50Env-v0,130,118.6618998830135,74078,711,568.2876536846161,39.4002571105957,,10.271707534790039,0.0
72,MetaDrive-Tut-50Env-v0,130,117.76826130100967,75019,720,575.348094701767,40.503334045410156,-41.40597152709961,6.63002872467041,0.0
73,MetaDrive-Tut-50Env-v0,130,115.8661460108887,76111,729,585.0328755378723,41.09269714355469,-41.36582946777344,14.864969253540039,0.0
74,MetaDrive-Tut-50Env-v0,129,115.29724454789343,77013,736,593.6077303886414,41.1190299987793,-41.374755859375,22.583602905273438,0.0
75,MetaDrive-Tut-50Env-v0,129,116.88942571102872,78068,745,603.1083312034607,40.281742095947266,,13.887744903564453,0.0
76,MetaDrive-Tut-50Env-v0,129,116.07715061794221,79082,753,611.5594098567963,41.30692672729492,,5.320343017578125,0.0
77,MetaDrive-Tut-50Env-v0,129,117.06187719104268,80025,760,619.0637588500977,38.984195709228516,-40.10560989379883,6.584939002990723,0.0
78,MetaDrive-Tut-50Env-v0,129,116.71632104629256,81060,769,627.0901067256927,39.29877471923828,,21.53567123413086,0.0
79,MetaDrive-Tut-50Env-v0,129,116.61247733862278,82040,778,634.3656539916992,39.60087203979492,,13.382938385009766,0.0
80,MetaDrive-Tut-50Env-v0,129,120.94437923145414,83093,786,643.4542167186737,42.044471740722656,-42.29578399658203,6.467552185058594,0.0
81,MetaDrive-Tut-50Env-v0,128,119.31898432618341,84087,795,652.5186078548431,41.72073745727539,-42.3221549987793,10.251909255981445,0.0
82,MetaDrive-Tut-50Env-v0,128,118.73194227816164,85114,804,662.1958041191101,40.540557861328125,,6.89994478225708,0.0
83,MetaDrive-Tut-50Env-v0,128,119.26500930856795,86062,813,671.0222191810608,42.02212905883789,,5.604084014892578,0.0
84,MetaDrive-Tut-50Env-v0,128,121.3006982688788,87055,821,679.0382988452911,41.37693786621094,-40.85529327392578,16.44229507446289,0.0
85,MetaDrive-Tut-50Env-v0,127,122.78796465916429,88051,829,687.9000401496887,40.93558883666992,-40.93586730957031,24.778358459472656,0.0
86,MetaDrive-Tut-50Env-v0,127,121.37454654953055,89027,837,696.0370144844055,40.960655212402344,-40.196868896484375,12.589502334594727,0.0
87,MetaDrive-Tut-50Env-v0,127,118.95892530492979,90054,847,704.9766674041748,41.455963134765625,,9.480926513671875,0.0
88,MetaDrive-Tut-50Env-v0,127,118.48520862123002,91033,855,713.0640263557434,42.97667694091797,-43.40936279296875,6.166531085968018,0.0
89,MetaDrive-Tut-50Env-v0,127,117.16262237551891,92047,863,722.2721092700958,39.35769271850586,-40.11560821533203,12.502471923828125,0.0
90,MetaDrive-Tut-50Env-v0,127,119.99579887500822,93106,871,731.4271540641785,40.10975646972656,,19.330408096313477,0.0
91,MetaDrive-Tut-50Env-v0,127,118.2809274215696,94080,880,739.7221481800079,39.755859375,,10.891239166259766,0.0
92,MetaDrive-Tut-50Env-v0,127,117.11415430636315,95008,888,747.8265335559845,40.07898712158203,,24.653297424316406,0.0
93,MetaDrive-Tut-50Env-v0,126,117.47989221342635,96012,896,756.391223192215,39.831031799316406,,8.259378433227539,0.0
94,MetaDrive-Tut-50Env-v0,126,120.02302997174812,97022,904,764.7800033092499,42.068050384521484,,12.235858917236328,0.0
95,MetaDrive-Tut-50Env-v0,126,125.53574012866633,98199,912,775.4042644500732,41.90234375,-42.34318542480469,7.6609086990356445,0.0
96,MetaDrive-Tut-50Env-v0,126,125.02594702327742,99048,919,782.2577149868011,41.94647216796875,,7.922574996948242,0.0
97,MetaDrive-Tut-50Env-v0,126,127.34064713528777,100002,926,789.5394814014435,41.18638610839844,,12.314474105834961,0.0
98,MetaDrive-Tut-50Env-v0,126,127.72820721504566,101028,934,798.2747838497162,39.5816764831543,,21.558815002441406,0.0
99,MetaDrive-Tut-50Env-v0,126,130.2940195703702,102018,942,808.2851638793945,41.07966995239258,,25.971973419189453,0.0
100,MetaDrive-Tut-50Env-v0,126,135.68917289846848,103187,950,817.7520983219147,40.00820541381836,-40.78045654296875,17.736698150634766,0.02
101,MetaDrive-Tut-50Env-v0,126,136.2850282077803,104078,957,824.6115865707397,41.068756103515625,,11.89798641204834,0.02
102,MetaDrive-Tut-50Env-v0,126,136.14683824803234,105047,965,831.9977405071259,40.401161193847656,-40.903385162353516,25.43419647216797,0.02
103,MetaDrive-Tut-50Env-v0,126,134.83527205347994,106089,974,840.1649832725525,43.16005325317383,-43.57019805908203,10.126214027404785,0.02
104,MetaDrive-Tut-50Env-v0,126,137.3172269030176,107119,983,848.6638181209564,41.43000793457031,-41.74922180175781,11.656373977661133,0.03
105,MetaDrive-Tut-50Env-v0,126,138.24353502561118,108027,990,856.7365460395813,41.71986389160156,-41.49931335449219,21.47022247314453,0.03
106,MetaDrive-Tut-50Env-v0,125,136.2749706323231,109011,999,865.2739291191101,40.43315124511719,-40.953853607177734,14.497112274169922,0.03
107,MetaDrive-Tut-50Env-v0,125,135.9754821399185,110069,1008,874.3649604320526,39.83218765258789,-40.797119140625,8.163740158081055,0.03
108,MetaDrive-Tut-50Env-v0,125,129.9062467852131,111126,1018,884.1140425205231,41.493736267089844,,6.479527950286865,0.03
109,MetaDrive-Tut-50Env-v0,125,125.55789403175827,112065,1027,893.0285861492157,41.39661407470703,-41.04847717285156,9.303666114807129,0.03
110,MetaDrive-Tut-50Env-v0,125,127.11295501755936,113088,1034,902.5404076576233,39.689666748046875,,10.343381881713867,0.03
111,MetaDrive-Tut-50Env-v0,125,127.78229153598981,114074,1042,911.5859398841858,44.25037384033203,,7.542314052581787,0.03
112,MetaDrive-Tut-50Env-v0,124,121.45649807126465,115054,1051,921.0357389450073,40.933502197265625,,17.39885711669922,0.01
113,MetaDrive-Tut-50Env-v0,124,120.24146555707776,116006,1060,929.203663110733,42.24181365966797,,6.572356700897217,0.01
114,MetaDrive-Tut-50Env-v0,124,120.19868545877559,117069,1068,938.7433369159698,39.3366584777832,-39.750396728515625,6.0731706619262695,0.01
115,MetaDrive-Tut-50Env-v0,124,121.77098445011148,118074,1076,947.0467576980591,42.30300521850586,,15.703953742980957,0.01
116,MetaDrive-Tut-50Env-v0,124,116.38128154797388,119055,1086,955.5804445743561,40.731971740722656,-41.272682189941406,15.075918197631836,0.0
117,MetaDrive-Tut-50Env-v0,124,118.98929893547167,120026,1093,963.5958051681519,42.274818420410156,,7.731681823730469,0.01
118,MetaDrive-Tut-50Env-v0,124,118.90147222302447,121033,1102,971.2844653129578,41.34960174560547,-41.172611236572266,7.374190330505371,0.01
119,MetaDrive-Tut-50Env-v0,124,120.42704385379305,122010,1110,979.4152312278748,41.16603088378906,,7.903440952301025,0.02
120,MetaDrive-Tut-50Env-v0,124,122.4606966553684,123014,1118,988.3404777050018,41.10697937011719,,13.543493270874023,0.02
121,MetaDrive-Tut-50Env-v0,124,127.02750145133326,124063,1126,996.5045454502106,43.071861267089844,-43.40434265136719,8.46256160736084,0.03
122,MetaDrive-Tut-50Env-v0,124,122.6311256540343,125052,1135,1004.1314985752106,41.27037811279297,,18.96116065979004,0.04
123,MetaDrive-Tut-50Env-v0,124,125.8460629063832,126110,1143,1012.6128327846527,40.56925964355469,,14.334402084350586,0.04
124,MetaDrive-Tut-50Env-v0,124,129.95906052450857,127070,1150,1020.6537735462189,42.00902557373047,,25.064210891723633,0.05
125,MetaDrive-Tut-50Env-v0,124,130.48497328500562,128003,1158,1028.3699717521667,38.63723373413086,-39.485206604003906,22.734119415283203,0.05
126,MetaDrive-Tut-50Env-v0,124,131.98719162771138,129002,1165,1036.5333623886108,41.41844177246094,,14.980118751525879,0.05
127,MetaDrive-Tut-50Env-v0,124,132.51261577873638,130049,1174,1046.1275441646576,40.713157653808594,-41.26976776123047,8.031583786010742,0.06
128,MetaDrive-Tut-50Env-v0,124,134.5783129298282,131100,1183,1055.8896172046661,39.95595932006836,,7.282813549041748,0.06
129,MetaDrive-Tut-50Env-v0,124,129.98182119281202,132113,1193,1064.3831403255463,41.919586181640625,-42.58800506591797,12.552369117736816,0.05
130,MetaDrive-Tut-50Env-v0,124,131.93399599419078,133048,1201,1072.8321952819824,40.3779411315918,,16.174165725708008,0.05
131,MetaDrive-Tut-50Env-v0,123,132.57057589003477,134092,1209,1082.0174226760864,41.04815673828125,,23.649333953857422,0.05
132,MetaDrive-Tut-50Env-v0,123,132.58352473052528,135055,1216,1089.8789451122284,42.77320098876953,-43.55329895019531,7.65850830078125,0.06
133,MetaDrive-Tut-50Env-v0,123,135.02829628030335,136092,1224,1098.8633008003235,42.1938591003418,,7.830002784729004,0.06
134,MetaDrive-Tut-50Env-v0,123,133.0930022600333,137095,1232,1106.9076342582703,41.53364562988281,-42.653526306152344,8.57408332824707,0.05
135,MetaDrive-Tut-50Env-v0,123,134.37991713905984,138081,1240,1114.8887333869934,40.31595230102539,-41.66071701049805,14.20421028137207,0.06
136,MetaDrive-Tut-50Env-v0,123,127.52441405718233,139027,1249,1122.6785733699799,40.71650695800781,-41.246620178222656,8.418701171875,0.05
137,MetaDrive-Tut-50Env-v0,123,125.5535850900071,140063,1259,1131.8577063083649,43.03997039794922,-43.345314025878906,12.611818313598633,0.05
138,MetaDrive-Tut-50Env-v0,123,122.04599754515489,141075,1268,1140.0047955513,42.26089096069336,-43.12330627441406,9.275592803955078,0.05
139,MetaDrive-Tut-50Env-v0,123,121.6343741938552,142005,1276,1148.0577068328857,43.74996566772461,-44.68689727783203,6.213082790374756,0.04
140,MetaDrive-Tut-50Env-v0,123,125.33567817446321,143042,1283,1157.6705043315887,44.390159606933594,,11.197429656982422,0.04
141,MetaDrive-Tut-50Env-v0,123,127.87988080371782,144019,1291,1164.876452445984,39.790016174316406,-39.97212219238281,19.43792724609375,0.04
142,MetaDrive-Tut-50Env-v0,123,128.11774559712885,145116,1300,1173.623437166214,41.724815368652344,,12.669681549072266,0.04
143,MetaDrive-Tut-50Env-v0,123,121.5075506779401,146061,1310,1181.6005535125732,39.47554016113281,-39.52524185180664,18.589590072631836,0.03
144,MetaDrive-Tut-50Env-v0,123,120.06286078825786,147009,1318,1190.2414696216583,41.65682601928711,-41.724754333496094,11.272001266479492,0.03
145,MetaDrive-Tut-50Env-v0,123,119.95232503194384,148117,1327,1199.9896671772003,41.53961181640625,-41.73823547363281,12.837217330932617,0.03
146,MetaDrive-Tut-50Env-v0,123,118.270892542299,149039,1335,1208.176330089569,40.553653717041016,-40.31956481933594,11.870426177978516,0.02
147,MetaDrive-Tut-50Env-v0,123,117.48021275187364,150074,1344,1217.0949404239655,41.76233673095703,,10.666431427001953,0.01
148,MetaDrive-Tut-50Env-v0,123,119.73395567687463,151005,1352,1224.5689852237701,44.75447082519531,-45.36591339111328,8.951508522033691,0.01
149,MetaDrive-Tut-50Env-v0,123,119.99521702712963,152057,1362,1232.5468952655792,39.74025344848633,-40.04317092895508,10.232141494750977,0.01
150,MetaDrive-Tut-50Env-v0,123,120.6130903100073,153024,1370,1239.938199520111,41.87364196777344,,9.163938522338867,0.01
151,MetaDrive-Tut-50Env-v0,123,121.52044523896711,154018,1378,1247.9067296981812,40.89458465576172,,9.996027946472168,0.01
152,MetaDrive-Tut-50Env-v0,123,118.82169546440173,155056,1386,1256.897709608078,42.25267028808594,,9.11678695678711,0.01
153,MetaDrive-Tut-50Env-v0,123,120.76081753770046,156063,1394,1266.2784469127655,40.58260726928711,-40.977439880371094,12.74244499206543,0.01
154,MetaDrive-Tut-50Env-v0,123,123.70745627736564,157105,1401,1274.7249228954315,41.513092041015625,-40.81978225708008,8.838235855102539,0.02
155,MetaDrive-Tut-50Env-v0,123,129.09768341448304,158103,1408,1283.4755311012268,42.4132080078125,-42.807212829589844,14.137630462646484,0.02
156,MetaDrive-Tut-50Env-v0,123,128.26389554628884,159010,1416,1291.2764325141907,42.79144287109375,,26.59937286376953,0.01
157,MetaDrive-Tut-50Env-v0,123,128.31807456604022,160012,1425,1299.8658065795898,42.29232406616211,,7.571865081787109,0.01
158,MetaDrive-Tut-50Env-v0,123,127.48643536395977,161159,1435,1308.6815207004547,41.76958084106445,-42.72673797607422,15.815423965454102,0.01
159,MetaDrive-Tut-50Env-v0,123,127.9486645206917,162130,1443,1316.0591888427734,39.512794494628906,,6.998554229736328,0.01
160,MetaDrive-Tut-50Env-v0,123,129.1406072155309,163060,1450,1322.9780492782593,42.04646682739258,,13.2809476852417,0.01
161,MetaDrive-Tut-50Env-v0,123,130.18238697476784,164041,1458,1330.8538858890533,40.6708984375,-40.56227111816406,10.07392692565918,0.01
162,MetaDrive-Tut-50Env-v0,123,132.02958580520377,165025,1465,1339.1217379570007,41.032569885253906,-41.64814758300781,22.69308090209961,0.02
163,MetaDrive-Tut-50Env-v0,123,133.88043512132109,166131,1474,1349.5202794075012,39.101402282714844,-39.09362030029297,9.453153610229492,0.03
164,MetaDrive-Tut-50Env-v0,123,133.4379824283467,167150,1482,1357.4596314430237,40.26314163208008,,16.79713249206543,0.04
165,MetaDrive-Tut-50Env-v0,123,131.58800332057422,168006,1490,1364.844174861908,43.36610412597656,,16.70630645751953,0.04
166,MetaDrive-Tut-50Env-v0,123,129.66367006669364,169125,1499,1374.7161705493927,42.626564025878906,-43.45097732543945,8.416786193847656,0.04
167,MetaDrive-Tut-50Env-v0,122,126.10377831190797,170046,1507,1382.600121974945,42.17020797729492,,10.590394973754883,0.03
168,MetaDrive-Tut-50Env-v0,123,126.1381224810694,171040,1515,1390.3904469013214,40.231964111328125,,7.8357367515563965,0.04
169,MetaDrive-Tut-50Env-v0,123,124.53896320660157,172077,1526,1398.6819422245026,41.347938537597656,-41.568519592285156,10.258151054382324,0.04
170,MetaDrive-Tut-50Env-v0,122,127.42572004641282,173021,1533,1407.509783744812,39.85101318359375,-40.50079345703125,19.70250129699707,0.04
171,MetaDrive-Tut-50Env-v0,122,127.41438592836677,174062,1541,1417.3359467983246,42.03581237792969,,9.927268981933594,0.04
172,MetaDrive-Tut-50Env-v0,122,129.7675330513167,175106,1548,1426.8432290554047,42.891876220703125,,8.02086353302002,0.04
173,MetaDrive-Tut-50Env-v0,122,129.77500587279917,176059,1556,1434.5084698200226,41.73455047607422,-42.30754470825195,31.49270248413086,0.05
174,MetaDrive-Tut-50Env-v0,122,129.3792755472552,177068,1564,1443.3152921199799,41.36972427368164,,8.255233764648438,0.04
175,MetaDrive-Tut-50Env-v0,122,133.22632388343692,178143,1570,1452.503362417221,40.129180908203125,-40.450218200683594,9.8042573928833,0.03
176,MetaDrive-Tut-50Env-v0,122,135.23768543601437,179136,1577,1459.9836733341217,40.820037841796875,,9.46929931640625,0.03
177,MetaDrive-Tut-50Env-v0,122,140.190334238221,180207,1584,1468.1622831821442,41.466888427734375,-42.182220458984375,9.192785263061523,0.03
178,MetaDrive-Tut-50Env-v0,122,142.08538700785405,181083,1591,1475.5764362812042,40.19933319091797,-40.53538513183594,15.406156539916992,0.04
179,MetaDrive-Tut-50Env-v0,122,145.140972448765,182140,1598,1484.9920690059662,42.45410919189453,,14.095160484313965,0.04
180,MetaDrive-Tut-50Env-v0,122,147.96077915442183,183026,1604,1492.6401553153992,40.95849609375,,14.694001197814941,0.05
181,MetaDrive-Tut-50Env-v0,122,149.60911007504401,184104,1612,1501.9422397613525,39.717071533203125,,10.747961044311523,0.05
182,MetaDrive-Tut-50Env-v0,122,152.7632464933563,185012,1619,1508.9269461631775,39.72456359863281,,8.643516540527344,0.05
183,MetaDrive-Tut-50Env-v0,122,156.17504845863562,186144,1628,1517.183754682541,42.36743927001953,,30.43699836730957,0.07
184,MetaDrive-Tut-50Env-v0,122,154.95700061609676,187026,1635,1523.734834432602,41.73105239868164,,8.49871826171875,0.07
185,MetaDrive-Tut-50Env-v0,122,156.29422194856687,188147,1642,1532.5929501056671,40.941566467285156,-40.64234161376953,12.636641502380371,0.07
186,MetaDrive-Tut-50Env-v0,122,152.42139338273083,189072,1650,1540.4810709953308,40.202537536621094,,18.44843101501465,0.06
187,MetaDrive-Tut-50Env-v0,122,156.41541118395074,190004,1656,1549.4960589408875,42.05779266357422,,12.169058799743652,0.07
188,MetaDrive-Tut-50Env-v0,122,162.20076594225236,191025,1662,1559.8425092697144,41.35517120361328,-41.701507568359375,8.769336700439453,0.08
189,MetaDrive-Tut-50Env-v0,122,156.6183756117747,192014,1670,1567.7041022777557,40.219844818115234,,34.41809844970703,0.09
190,MetaDrive-Tut-50Env-v0,122,153.22029976376314,193091,1679,1577.5618045330048,43.26498794555664,-43.5943717956543,12.426019668579102,0.08
191,MetaDrive-Tut-50Env-v0,122,151.53561204400347,194100,1687,1586.4044268131256,42.52305221557617,,13.440292358398438,0.08
192,MetaDrive-Tut-50Env-v0,122,148.8802111849035,195022,1694,1594.5449571609497,42.357818603515625,,15.487234115600586,0.07
193,MetaDrive-Tut-50Env-v0,122,147.03815443235578,196135,1702,1603.9947593212128,42.313804626464844,-42.111385345458984,15.52679443359375,0.06
194,MetaDrive-Tut-50Env-v0,122,145.23447883223514,197088,1710,1611.549042224884,40.91557312011719,,15.728311538696289,0.06
195,MetaDrive-Tut-50Env-v0,122,145.06363193960834,198014,1716,1619.453239440918,42.29266357421875,,7.825243949890137,0.06
196,MetaDrive-Tut-50Env-v0,122,147.39377046869456,199107,1724,1628.5374310016632,40.008766174316406,-40.17842102050781,8.534849166870117,0.06
197,MetaDrive-Tut-50Env-v0,122,149.3415289011808,200140,1731,1637.9366035461426,41.46409225463867,,8.251797676086426,0.05
198,MetaDrive-Tut-50Env-v0,122,146.56779338525462,201061,1739,1646.6296517848969,41.59352111816406,-42.26050567626953,11.154499053955078,0.05
199,MetaDrive-Tut-50Env-v0,121,148.64801918101745,202026,1746,1655.9679579734802,39.89065933227539,,23.518394470214844,0.05
200,MetaDrive-Tut-50Env-v0,121,145.17199952831325,203020,1754,1664.633628129959,42.56882858276367,,9.929128646850586,0.04
201,MetaDrive-Tut-50Env-v0,121,141.46473562858097,204083,1762,1673.8850345611572,42.39849853515625,-42.66392517089844,11.422880172729492,0.03
202,MetaDrive-Tut-50Env-v0,121,139.6847581528616,205017,1770,1681.989979982376,42.28904724121094,-42.213253021240234,14.527057647705078,0.02
203,MetaDrive-Tut-50Env-v0,121,140.16048869965078,206120,1779,1691.3834037780762,42.705379486083984,,13.531383514404297,0.02
204,MetaDrive-Tut-50Env-v0,121,140.53786154498746,207130,1787,1700.042620420456,43.17221450805664,,8.042585372924805,0.02
205,MetaDrive-Tut-50Env-v0,121,141.9748617112755,208032,1793,1707.6440207958221,40.8581657409668,,7.825416088104248,0.02
206,MetaDrive-Tut-50Env-v0,121,146.28940189064636,209071,1799,1716.7249312400818,41.43741226196289,-42.088294982910156,17.692955017089844,0.03
207,MetaDrive-Tut-50Env-v0,121,145.512940837102,210057,1807,1725.2498545646667,42.655277252197266,-42.81389617919922,27.419132232666016,0.03
208,MetaDrive-Tut-50Env-v0,121,141.2122613125833,211067,1816,1734.226553440094,43.02765655517578,-43.46296310424805,10.444412231445312,0.02
209,MetaDrive-Tut-50Env-v0,121,144.29039889150883,212015,1822,1742.612239599228,40.520179748535156,-40.144927978515625,10.875304222106934,0.03
210,MetaDrive-Tut-50Env-v0,121,136.4604133622849,213036,1832,1750.7232439517975,41.647743225097656,,7.089064598083496,0.02
211,MetaDrive-Tut-50Env-v0,121,137.79609506857776,214126,1840,1759.970448255539,41.34130859375,,10.018838882446289,0.02
212,MetaDrive-Tut-50Env-v0,121,137.69096723091894,215038,1847,1767.0363347530365,41.52025604248047,,7.893914699554443,0.02
213,MetaDrive-Tut-50Env-v0,121,137.5893977617211,216019,1855,1774.7439427375793,40.30113983154297,-41.04106903076172,9.167019844055176,0.02
214,MetaDrive-Tut-50Env-v0,121,137.7426972497619,217014,1862,1782.9242808818817,40.50379943847656,,13.791963577270508,0.02
215,MetaDrive-Tut-50Env-v0,121,141.11997663980253,218051,1869,1792.8424372673035,40.310001373291016,-40.632266998291016,8.202585220336914,0.03
216,MetaDrive-Tut-50Env-v0,121,139.8827123023289,219056,1878,1801.6592955589294,42.84696960449219,,9.215757369995117,0.03
217,MetaDrive-Tut-50Env-v0,121,139.05625726685994,220025,1886,1811.0968234539032,40.4515266418457,-40.11073303222656,19.740318298339844,0.03
218,MetaDrive-Tut-50Env-v0,121,139.8004030872462,221076,1893,1821.072158575058,40.043792724609375,,14.905267715454102,0.05
219,MetaDrive-Tut-50Env-v0,121,138.8022730308059,222186,1901,1831.158435344696,41.77947998046875,,9.6603364944458,0.05
220,MetaDrive-Tut-50Env-v0,121,142.3552429291383,223142,1907,1839.6829600334167,41.229278564453125,,13.826109886169434,0.07
221,MetaDrive-Tut-50Env-v0,121,141.39440735406083,224089,1916,1846.8234317302704,41.15968322753906,-41.00981140136719,19.664085388183594,0.07
222,MetaDrive-Tut-50Env-v0,121,138.42720518739102,225123,1925,1855.188270330429,41.76173400878906,-42.15669250488281,11.156203269958496,0.06
223,MetaDrive-Tut-50Env-v0,121,140.1199864878561,226074,1933,1863.898329257965,40.676002502441406,,9.661800384521484,0.06
224,MetaDrive-Tut-50Env-v0,121,142.7021953031366,227016,1939,1872.4985246658325,38.59419631958008,,9.2191162109375,0.06
225,MetaDrive-Tut-50Env-v0,121,144.6565893445759,228049,1946,1882.3239846229553,43.19818878173828,-43.614044189453125,10.714373588562012,0.06
226,MetaDrive-Tut-50Env-v0,121,149.27431449506238,229098,1952,1891.339331150055,40.77104949951172,,23.845470428466797,0.06
227,MetaDrive-Tut-50Env-v0,121,145.82265309931512,230108,1961,1899.7358915805817,43.00815963745117,,7.536017894744873,0.06
228,MetaDrive-Tut-50Env-v0,121,143.619515304552,231087,1968,1907.7971839904785,41.29052734375,-41.385765075683594,15.315691947937012,0.06
229,MetaDrive-Tut-50Env-v0,121,145.0977020496178,232076,1976,1915.3983826637268,41.453392028808594,,9.432587623596191,0.06
230,MetaDrive-Tut-50Env-v0,121,145.653707683221,233074,1983,1924.832689523697,42.77903747558594,,7.969834804534912,0.06
231,MetaDrive-Tut-50Env-v0,121,144.33059714799384,234050,1991,1933.338016986847,42.44496154785156,,11.366033554077148,0.04
232,MetaDrive-Tut-50Env-v0,121,144.72249664167913,235036,1998,1941.0835983753204,41.26530456542969,,11.932027816772461,0.04
233,MetaDrive-Tut-50Env-v0,121,137.22373744494834,236124,2007,1950.096521615982,38.35716247558594,,9.94239330291748,0.01
234,MetaDrive-Tut-50Env-v0,121,139.22027736371373,237031,2014,1957.8748359680176,42.13970947265625,-42.17717742919922,11.138153076171875,0.01
235,MetaDrive-Tut-50Env-v0,121,143.6239552293244,238058,2021,1966.8605425357819,40.88425064086914,,10.551526069641113,0.01
236,MetaDrive-Tut-50Env-v0,120,142.6742350225978,239039,2029,1976.0202767848969,40.220027923583984,-41.311317443847656,14.942384719848633,0.01
237,MetaDrive-Tut-50Env-v0,120,140.43404767326174,240091,2038,1984.8179252147675,42.66249084472656,-43.019195556640625,10.059118270874023,0.01
238,MetaDrive-Tut-50Env-v0,120,139.45474035889424,241076,2045,1994.698194026947,41.10614776611328,,38.21929931640625,0.01
239,MetaDrive-Tut-50Env-v0,120,137.04302363589844,242103,2052,2004.3962440490723,41.06547927856445,-41.09101104736328,18.05525779724121,0.02
240,MetaDrive-Tut-50Env-v0,120,139.8583627273352,243028,2059,2012.3243939876556,41.062400817871094,,14.15900707244873,0.03
241,MetaDrive-Tut-50Env-v0,120,141.18836988966518,244085,2067,2021.7360501289368,42.021018981933594,-42.063053131103516,13.471854209899902,0.03
242,MetaDrive-Tut-50Env-v0,120,143.96834706428106,245102,2074,2030.0094003677368,40.11863708496094,,16.211956024169922,0.02
243,MetaDrive-Tut-50Env-v0,120,144.79348469547753,246187,2081,2040.3007369041443,42.27244186401367,-41.701717376708984,13.341538429260254,0.03
244,MetaDrive-Tut-50Env-v0,120,144.93010928035505,247087,2088,2047.9442780017853,41.683067321777344,-41.72206115722656,13.06478500366211,0.03
245,MetaDrive-Tut-50Env-v0,120,144.3321047603102,248172,2097,2057.0178005695343,39.102535247802734,,8.544830322265625,0.03
246,MetaDrive-Tut-50Env-v0,120,147.87996011207767,249044,2103,2064.2681756019592,39.39781188964844,,8.414913177490234,0.03
247,MetaDrive-Tut-50Env-v0,120,149.69195021088774,250111,2111,2073.41188788414,41.01885223388672,-41.443214416503906,14.386567115783691,0.04
248,MetaDrive-Tut-50Env-v0,120,152.19854553243403,251104,2117,2082.802731990814,41.99327850341797,,8.34675407409668,0.06
249,MetaDrive-Tut-50Env-v0,120,148.5646189956959,252027,2125,2091.2433457374573,40.852684020996094,-40.80288314819336,12.026308059692383,0.06
250,MetaDrive-Tut-50Env-v0,120,152.2652086841015,253027,2132,2101.026297569275,42.568817138671875,-43.26085662841797,8.550930976867676,0.07
251,MetaDrive-Tut-50Env-v0,120,150.16618967842464,254081,2141,2110.888394832611,42.00471496582031,-42.64277648925781,9.415217399597168,0.07
252,MetaDrive-Tut-50Env-v0,120,148.81156481146343,255021,2148,2118.84516620636,40.088035583496094,-40.37328338623047,23.014179229736328,0.07
253,MetaDrive-Tut-50Env-v0,120,146.7594312500477,256118,2157,2128.9836869239807,41.04296112060547,,8.047090530395508,0.05
254,MetaDrive-Tut-50Env-v0,120,146.9568727231413,257089,2164,2137.5444939136505,42.43465805053711,-43.239288330078125,8.324811935424805,0.06
255,MetaDrive-Tut-50Env-v0,120,150.4124840121166,258016,2170,2144.995053768158,40.53062438964844,,12.98986530303955,0.07
256,MetaDrive-Tut-50Env-v0,120,155.38916137455547,259149,2176,2155.7598123550415,41.132911682128906,-41.657318115234375,15.372179985046387,0.08
257,MetaDrive-Tut-50Env-v0,120,152.79261964351997,260140,2183,2164.7365300655365,41.44928741455078,,28.007770538330078,0.07
258,MetaDrive-Tut-50Env-v0,120,152.50389697834714,261008,2190,2171.808912754059,43.5849723815918,,13.57217788696289,0.07
259,MetaDrive-Tut-50Env-v0,120,154.50775580106202,262076,2197,2180.7017107009888,44.45355987548828,,17.102375030517578,0.07
260,MetaDrive-Tut-50Env-v0,120,153.92447835776002,263135,2205,2189.1724128723145,40.273780822753906,-39.782073974609375,11.047391891479492,0.07
261,MetaDrive-Tut-50Env-v0,120,149.34871885533641,264067,2213,2195.951596021652,41.58761978149414,-42.495521545410156,13.625663757324219,0.05
262,MetaDrive-Tut-50Env-v0,120,147.17548195090802,265074,2222,2204.179447412491,43.48604965209961,,12.281179428100586,0.04
263,MetaDrive-Tut-50Env-v0,120,145.25486016271367,266040,2229,2212.9120326042175,40.55998992919922,,8.66748046875,0.03
264,MetaDrive-Tut-50Env-v0,120,147.75236910282874,267139,2237,2222.100923538208,38.937591552734375,-40.031402587890625,11.13956069946289,0.04
265,MetaDrive-Tut-50Env-v0,120,146.7027334903045,268029,2245,2230.385807991028,42.544883728027344,-43.405311584472656,16.296714782714844,0.04
266,MetaDrive-Tut-50Env-v0,120,147.51712493141,269021,2252,2240.014364004135,42.931297302246094,-43.50883483886719,14.060477256774902,0.04
267,MetaDrive-Tut-50Env-v0,120,149.10148931153438,270022,2259,2249.735124349594,41.78423309326172,,10.070846557617188,0.04
268,MetaDrive-Tut-50Env-v0,120,141.50395356774166,271097,2269,2258.6686487197876,40.94057846069336,-41.27980041503906,8.478803634643555,0.02
269,MetaDrive-Tut-50Env-v0,120,135.92861819264573,272029,2276,2266.657778263092,39.952537536621094,-40.24669647216797,24.79209327697754,0.01
270,MetaDrive-Tut-50Env-v0,119,134.9301594209138,273033,2284,2276.571834087372,41.741790771484375,-41.29083251953125,11.607826232910156,0.01
271,MetaDrive-Tut-50Env-v0,119,134.30149252494945,274074,2293,2287.0290987491608,42.24590301513672,,9.553263664245605,0.02
272,MetaDrive-Tut-50Env-v0,119,131.6911907415,275009,2300,2294.634217262268,41.11793518066406,-40.68852233886719,16.04753875732422,0.03
273,MetaDrive-Tut-50Env-v0,119,134.4977463214032,276075,2307,2303.34912443161,41.9398193359375,-42.393592834472656,8.334024429321289,0.03
274,MetaDrive-Tut-50Env-v0,119,134.7525475200508,277060,2315,2311.8141009807587,41.988426208496094,,16.467676162719727,0.04
275,MetaDrive-Tut-50Env-v0,119,142.32942010841637,278133,2321,2321.177541732788,43.127174377441406,-43.90221405029297,21.921688079833984,0.05
276,MetaDrive-Tut-50Env-v0,119,141.0589056576105,279070,2328,2328.373289823532,40.7686882019043,,11.020471572875977,0.05
277,MetaDrive-Tut-50Env-v0,119,144.81397283626924,280161,2335,2336.892832994461,41.33583068847656,-42.35886764526367,14.763296127319336,0.05
278,MetaDrive-Tut-50Env-v0,119,148.69566322871384,281120,2341,2345.886789560318,42.32259750366211,,7.901400566101074,0.05
279,MetaDrive-Tut-50Env-v0,119,148.628654935705,282031,2348,2353.2872574329376,41.72653579711914,-41.96314239501953,15.093040466308594,0.05
280,MetaDrive-Tut-50Env-v0,119,152.61428292059196,283044,2354,2361.5162580013275,41.152442932128906,,22.895450592041016,0.06
281,MetaDrive-Tut-50Env-v0,119,152.79333152063307,284038,2361,2370.559680700302,41.88481903076172,,9.898422241210938,0.06
282,MetaDrive-Tut-50Env-v0,119,155.1818689802557,285117,2369,2379.7649009227753,42.28155517578125,-42.30500793457031,15.304428100585938,0.06
283,MetaDrive-Tut-50Env-v0,119,152.16745715135016,286029,2377,2388.055144548416,42.73829650878906,-43.03532409667969,17.963159561157227,0.06
284,MetaDrive-Tut-50Env-v0,119,152.4684326311496,287064,2386,2396.2671213150024,44.07929229736328,,15.33802604675293,0.06
285,MetaDrive-Tut-50Env-v0,119,154.47459509501763,288074,2393,2404.6484818458557,42.31861114501953,,23.246009826660156,0.05
286,MetaDrive-Tut-50Env-v0,119,150.13584255299537,289123,2402,2414.0444231033325,42.60771179199219,-42.59016418457031,11.47325611114502,0.05
287,MetaDrive-Tut-50Env-v0,119,152.96628888259357,290158,2409,2422.8643023967743,41.36717224121094,,21.55976104736328,0.06
288,MetaDrive-Tut-50Env-v0,119,156.59138805786245,291060,2414,2430.626058578491,41.85752868652344,,33.021881103515625,0.05
289,MetaDrive-Tut-50Env-v0,119,154.1946404655245,292019,2421,2438.1234364509583,42.18389129638672,-43.190284729003906,8.944944381713867,0.05
290,MetaDrive-Tut-50Env-v0,119,157.37421667799535,293002,2427,2446.1212916374207,42.3812255859375,,8.458999633789062,0.06
291,MetaDrive-Tut-50Env-v0,119,154.41788400268737,294086,2435,2456.467341899872,43.051883697509766,,9.406209945678711,0.05
292,MetaDrive-Tut-50Env-v0,119,151.66637077684456,295054,2443,2464.8957188129425,42.43492889404297,,10.549827575683594,0.05
293,MetaDrive-Tut-50Env-v0,119,152.08313013786895,296005,2449,2473.4703080654144,43.23738479614258,-43.467529296875,8.829374313354492,0.05
294,MetaDrive-Tut-50Env-v0,119,147.65824125316266,297034,2457,2482.925401687622,41.594722747802734,,12.127897262573242,0.04
295,MetaDrive-Tut-50Env-v0,119,150.78186020725954,298125,2465,2491.319577217102,43.5434684753418,-44.67420196533203,8.586363792419434,0.05
296,MetaDrive-Tut-50Env-v0,119,155.56195553396765,299040,2470,2499.0083751678467,42.54746627807617,,15.399595260620117,0.07
297,MetaDrive-Tut-50Env-v0,119,157.05071457184633,300018,2477,2507.2146480083466,43.5899658203125,,12.366874694824219,0.07
298,MetaDrive-Tut-50Env-v0,119,161.54605076997578,301058,2484,2516.420474052429,44.02914810180664,,10.559699058532715,0.07
299,MetaDrive-Tut-50Env-v0,119,162.55541716038672,302103,2491,2524.9316370487213,41.6262321472168,-41.89601135253906,21.146190643310547,0.07
300,MetaDrive-Tut-50Env-v0,119,166.61605885489465,303217,2499,2534.8493876457214,42.59471130371094,-42.904632568359375,11.595035552978516,0.08
301,MetaDrive-Tut-50Env-v0,119,166.45573666504382,304051,2505,2541.7936577796936,45.29412078857422,-45.69059371948242,23.245655059814453,0.07
302,MetaDrive-Tut-50Env-v0,119,163.50403799541945,305110,2512,2550.830304145813,44.0848503112793,,7.788744926452637,0.07
303,MetaDrive-Tut-50Env-v0,119,160.4563512946471,306061,2518,2558.9811596870422,41.814842224121094,-42.444557189941406,8.029766082763672,0.08
304,MetaDrive-Tut-50Env-v0,119,160.62418238839228,307133,2525,2568.342057466507,42.728248596191406,-42.739173889160156,17.843109130859375,0.06
305,MetaDrive-Tut-50Env-v0,119,156.37691662339955,308093,2533,2576.868888616562,43.34315490722656,-44.24509811401367,8.485644340515137,0.06
306,MetaDrive-Tut-50Env-v0,119,160.98500993646812,309038,2538,2585.6882359981537,43.277915954589844,,21.375099182128906,0.06
307,MetaDrive-Tut-50Env-v0,119,163.24271409406944,310059,2545,2594.0345866680145,42.55848693847656,-42.21864700317383,8.618490219116211,0.07
308,MetaDrive-Tut-50Env-v0,119,159.77756562745384,311021,2553,2602.1547446250916,42.69517517089844,-42.70139694213867,12.328126907348633,0.07
309,MetaDrive-Tut-50Env-v0,119,163.12570400951202,312068,2559,2611.483900785446,43.417022705078125,,9.651748657226562,0.07
310,MetaDrive-Tut-50Env-v0,119,164.27890585292351,313013,2565,2619.4194536209106,43.70531463623047,-44.16963577270508,10.491098403930664,0.06
311,MetaDrive-Tut-50Env-v0,119,160.26600057864644,314265,2573,2629.4673240184784,43.0167350769043,-44.10346221923828,12.25399398803711,0.07
312,MetaDrive-Tut-50Env-v0,119,167.4604135160575,315036,2577,2635.898792743683,42.844078063964844,,26.266756057739258,0.08
313,MetaDrive-Tut-50Env-v0,119,166.63001583138322,316102,2584,2644.1094255447388,43.23131561279297,,17.317142486572266,0.08
314,MetaDrive-Tut-50Env-v0,119,165.77821838932712,317057,2591,2653.8874773979187,43.93760681152344,-44.224796295166016,13.015396118164062,0.09
315,MetaDrive-Tut-50Env-v0,119,170.06837678654355,318022,2597,2663.5146696567535,39.948020935058594,,12.059013366699219,0.09
316,MetaDrive-Tut-50Env-v0,119,170.37417575367647,319076,2604,2672.9388403892517,44.062103271484375,,11.775413513183594,0.08
317,MetaDrive-Tut-50Env-v0,119,169.33776236501853,320063,2610,2681.8292899131775,41.9919319152832,-42.19963073730469,20.160696029663086,0.08
318,MetaDrive-Tut-50Env-v0,119,168.64678597590452,321083,2617,2690.099260568619,44.875125885009766,-45.69724655151367,10.70217514038086,0.06
319,MetaDrive-Tut-50Env-v0,119,167.53781580433622,322019,2624,2697.9129865169525,43.18828582763672,-43.73845672607422,11.271343231201172,0.06
320,MetaDrive-Tut-50Env-v0,119,169.66831598965132,323060,2631,2707.0431094169617,43.07604217529297,,14.399837493896484,0.06
321,MetaDrive-Tut-50Env-v0,119,170.71501227208563,324036,2637,2714.895545244217,45.59429168701172,,14.10529899597168,0.07
322,MetaDrive-Tut-50Env-v0,119,166.45898313409162,325059,2645,2723.177165031433,42.32392883300781,-43.22120666503906,11.706914901733398,0.06
323,MetaDrive-Tut-50Env-v0,119,166.21597376009709,326029,2653,2730.7485263347626,44.73740005493164,-44.99834060668945,12.9266996383667,0.06
324,MetaDrive-Tut-50Env-v0,119,165.85632578092304,327076,2660,2740.550401687622,41.69230651855469,,9.804330825805664,0.07
325,MetaDrive-Tut-50Env-v0,119,168.56425355100492,328035,2666,2748.370434999466,44.168113708496094,-44.1473388671875,17.655378341674805,0.08
326,MetaDrive-Tut-50Env-v0,119,165.51394660008305,329092,2673,2757.544186592102,41.866336822509766,,28.088905334472656,0.05
327,MetaDrive-Tut-50Env-v0,119,160.69176669157193,330076,2680,2765.2996151447296,44.15513610839844,,20.929302215576172,0.04
328,MetaDrive-Tut-50Env-v0,119,164.1725807386356,331031,2686,2772.5901947021484,42.545467376708984,-43.41321563720703,9.129243850708008,0.05
329,MetaDrive-Tut-50Env-v0,119,160.7706299065525,332045,2694,2781.1050679683685,42.595252990722656,-43.73957061767578,38.97044372558594,0.04
330,MetaDrive-Tut-50Env-v0,119,161.12752690989663,333098,2700,2790.087826490402,43.14200210571289,,14.497751235961914,0.05
331,MetaDrive-Tut-50Env-v0,119,161.06012659951762,334105,2706,2798.388965368271,44.37579345703125,-44.725372314453125,11.338231086730957,0.05
332,MetaDrive-Tut-50Env-v0,119,161.46512530529097,335048,2714,2807.04261636734,43.339046478271484,,13.274162292480469,0.05
333,MetaDrive-Tut-50Env-v0,119,159.80623242042486,336020,2720,2816.647075176239,42.66026306152344,,9.918830871582031,0.05
334,MetaDrive-Tut-50Env-v0,119,163.62495606724022,337005,2726,2825.3923411369324,44.098167419433594,-43.541725158691406,15.80996322631836,0.05
335,MetaDrive-Tut-50Env-v0,119,154.8989397352968,338097,2736,2835.812856912613,42.305362701416016,-41.87627410888672,10.619308471679688,0.04
336,MetaDrive-Tut-50Env-v0,119,155.278647516662,339077,2743,2844.084931373596,43.25486755371094,-43.69410705566406,12.236519813537598,0.04
337,MetaDrive-Tut-50Env-v0,119,163.0339110796151,340159,2749,2854.852105617523,42.555580139160156,-41.83995819091797,15.478376388549805,0.06
338,MetaDrive-Tut-50Env-v0,119,165.33650454984638,341100,2755,2862.0104904174805,42.19342803955078,,33.926856994628906,0.07
339,MetaDrive-Tut-50Env-v0,119,164.24033066282183,342067,2761,2870.1874272823334,41.128990173339844,-40.47034454345703,10.171213150024414,0.06
340,MetaDrive-Tut-50Env-v0,119,164.54188908747375,343116,2768,2878.987575531006,45.40614318847656,,16.661094665527344,0.06
341,MetaDrive-Tut-50Env-v0,119,163.7440223808261,344203,2776,2887.647258043289,41.07780456542969,-41.293243408203125,33.56535720825195,0.06
342,MetaDrive-Tut-50Env-v0,119,163.52376471078875,345058,2782,2894.7712314128876,41.23158264160156,,12.974985122680664,0.06
343,MetaDrive-Tut-50Env-v0,119,162.22600275336265,346076,2789,2902.6074290275574,44.71942901611328,,12.205798149108887,0.07
344,MetaDrive-Tut-50Env-v0,119,166.00629736865136,347049,2795,2910.742838859558,44.77764892578125,-44.64794158935547,14.446477890014648,0.07
345,MetaDrive-Tut-50Env-v0,119,169.04993129082658,348063,2799,2920.0692191123962,41.971824645996094,-42.431495666503906,11.88197135925293,0.07
346,MetaDrive-Tut-50Env-v0,119,167.6888120540917,349042,2806,2928.1997208595276,45.05896759033203,,20.532100677490234,0.07
347,MetaDrive-Tut-50Env-v0,119,171.18273315821313,350139,2814,2937.6902792453766,43.44288635253906,-43.355125427246094,16.121379852294922,0.09
348,MetaDrive-Tut-50Env-v0,119,166.72468112460345,351001,2821,2944.776554107666,43.17206573486328,-43.80516815185547,26.344566345214844,0.1
349,MetaDrive-Tut-50Env-v0,119,170.4049034693749,352036,2827,2953.7682876586914,42.299888610839844,,10.60704231262207,0.11
350,MetaDrive-Tut-50Env-v0,119,172.01165819491854,353028,2834,2962.337626695633,43.54209899902344,,13.074840545654297,0.11
351,MetaDrive-Tut-50Env-v0,119,175.54239791884137,354142,2841,2972.530713558197,44.78031921386719,,7.10225248336792,0.12
352,MetaDrive-Tut-50Env-v0,119,177.40193492819827,355016,2846,2980.684155702591,43.03889083862305,,16.508899688720703,0.13
353,MetaDrive-Tut-50Env-v0,119,173.73240786436818,356081,2854,2989.4924681186676,43.746192932128906,-44.1332893371582,13.805803298950195,0.1
354,MetaDrive-Tut-50Env-v0,119,169.40548388125433,357023,2861,2997.8016452789307,43.46002197265625,-43.620182037353516,10.36284065246582,0.09
355,MetaDrive-Tut-50Env-v0,118,174.5864602867779,358125,2866,3009.612910270691,42.42472839355469,-42.21853256225586,19.604427337646484,0.1
356,MetaDrive-Tut-50Env-v0,118,177.74488647053394,359032,2871,3018.4078912734985,44.133819580078125,,10.43771743774414,0.1
357,MetaDrive-Tut-50Env-v0,118,177.87333055995035,360079,2878,3028.419923067093,43.68201446533203,-43.91791534423828,8.897749900817871,0.11
358,MetaDrive-Tut-50Env-v0,118,181.1141640787522,361189,2885,3039.377021789551,45.22785949707031,-45.35413360595703,7.737783908843994,0.11
359,MetaDrive-Tut-50Env-v0,118,182.1661933337362,362024,2890,3048.511912584305,43.665069580078125,,12.668373107910156,0.1
360,MetaDrive-Tut-50Env-v0,118,178.11031199835656,363227,2897,3059.0649650096893,43.05543518066406,-43.70484161376953,9.983976364135742,0.1
361,MetaDrive-Tut-50Env-v0,118,178.27685006887194,364014,2902,3066.3707292079926,45.408790588378906,,23.12006378173828,0.09
362,MetaDrive-Tut-50Env-v0,118,176.7552931077303,365038,2909,3075.190123319626,41.9254264831543,,17.195646286010742,0.08
363,MetaDrive-Tut-50Env-v0,118,178.22354990320227,366046,2915,3083.253033399582,41.87752914428711,,21.16461944580078,0.09
364,MetaDrive-Tut-50Env-v0,118,172.99879480416945,367073,2924,3091.4832174777985,43.44383239746094,-43.89457702636719,21.0239315032959,0.08
365,MetaDrive-Tut-50Env-v0,118,173.6092581737069,368100,2932,3099.447279691696,43.862281799316406,,27.671039581298828,0.08
366,MetaDrive-Tut-50Env-v0,118,171.5590977744587,369141,2939,3107.502785205841,45.56590270996094,-45.46599578857422,9.979877471923828,0.08
367,MetaDrive-Tut-50Env-v0,118,170.53174657056195,370068,2945,3115.4234352111816,42.51134490966797,,21.55105209350586,0.09
368,MetaDrive-Tut-50Env-v0,118,170.44034253534653,371032,2951,3123.426621198654,43.168025970458984,,9.628646850585938,0.08
369,MetaDrive-Tut-50Env-v0,118,172.4969388822282,372076,2957,3131.6944382190704,41.9324951171875,,16.800960540771484,0.09
370,MetaDrive-Tut-50Env-v0,118,168.91309692571548,373096,2965,3140.493119239807,43.987205505371094,,9.053064346313477,0.09
371,MetaDrive-Tut-50Env-v0,118,167.9946573420982,374092,2970,3149.271895647049,44.54105758666992,,10.15554428100586,0.08
372,MetaDrive-Tut-50Env-v0,118,166.68245173785286,375121,2976,3158.3956401348114,44.19779968261719,-44.55298614501953,16.434478759765625,0.06
373,MetaDrive-Tut-50Env-v0,118,169.4149966315108,376022,2981,3166.236501932144,42.303077697753906,,8.620563507080078,0.06
374,MetaDrive-Tut-50Env-v0,118,171.75075708153292,377036,2986,3175.2968504428864,44.34365463256836,,13.205366134643555,0.06
375,MetaDrive-Tut-50Env-v0,118,172.1305547477685,378102,2993,3184.311193227768,43.99755859375,,10.695036888122559,0.06
376,MetaDrive-Tut-50Env-v0,118,167.59207634783542,379016,2999,3192.2240743637085,45.85938262939453,,28.951271057128906,0.06
377,MetaDrive-Tut-50Env-v0,118,176.53410742783086,380007,3002,3202.1560685634613,43.37774658203125,-43.70445251464844,12.583208084106445,0.08
378,MetaDrive-Tut-50Env-v0,118,177.5879337899126,381111,3009,3213.2454340457916,43.76573944091797,-44.03289794921875,9.886579513549805,0.08
379,MetaDrive-Tut-50Env-v0,118,177.2388366676182,382044,3015,3220.540248632431,42.31882095336914,,12.399730682373047,0.07
380,MetaDrive-Tut-50Env-v0,118,181.23965847343905,383038,3022,3228.5838005542755,43.17540740966797,,10.895259857177734,0.07
381,MetaDrive-Tut-50Env-v0,118,185.02441286637085,384088,3027,3237.7682642936707,42.86616134643555,,12.543451309204102,0.08
382,MetaDrive-Tut-50Env-v0,118,187.61700130868957,385041,3033,3245.8281786441803,41.31929016113281,-41.331298828125,22.237022399902344,0.07
383,MetaDrive-Tut-50Env-v0,118,183.71659026509576,386097,3040,3255.4936463832855,43.15854263305664,-43.77711868286133,16.346078872680664,0.06
384,MetaDrive-Tut-50Env-v0,118,184.30694956738807,387006,3046,3264.410195350647,42.8979377746582,,17.203723907470703,0.06
385,MetaDrive-Tut-50Env-v0,118,184.91154801331362,388009,3052,3272.1176297664642,43.90912628173828,-43.96052551269531,22.72323226928711,0.05
386,MetaDrive-Tut-50Env-v0,118,187.27924550864503,389147,3059,3280.7280082702637,43.56951141357422,-44.20092010498047,12.6674222946167,0.06
387,MetaDrive-Tut-50Env-v0,118,188.0173153770353,390036,3065,3287.600203514099,44.22216796875,,43.76872253417969,0.07
388,MetaDrive-Tut-50Env-v0,118,189.2788519899781,391035,3070,3296.618707895279,43.376792907714844,-44.78601837158203,10.576534271240234,0.08
389,MetaDrive-Tut-50Env-v0,118,189.59876157214447,392126,3077,3306.2536919116974,43.654052734375,,19.439123153686523,0.09
390,MetaDrive-Tut-50Env-v0,118,185.53514474726504,393059,3083,3313.6554296016693,44.12882995605469,-44.692649841308594,11.525907516479492,0.1
391,MetaDrive-Tut-50Env-v0,118,184.76863764016633,394055,3089,3322.2295291423798,43.942630767822266,-44.37683868408203,14.755586624145508,0.11
392,MetaDrive-Tut-50Env-v0,118,187.1206078021507,395067,3094,3330.401335000992,46.152008056640625,-46.83930587768555,11.427921295166016,0.12
393,MetaDrive-Tut-50Env-v0,118,185.4231559042489,396166,3100,3340.183929681778,44.72787094116211,,19.432170867919922,0.11
394,MetaDrive-Tut-50Env-v0,118,177.15591696645555,397085,3108,3346.82657790184,43.87286376953125,-44.29340362548828,21.865760803222656,0.11
395,MetaDrive-Tut-50Env-v0,118,173.76208050101036,398181,3116,3354.997931957245,43.25276184082031,-43.449920654296875,29.134048461914062,0.1
396,MetaDrive-Tut-50Env-v0,118,175.36190331162874,399073,3121,3362.600898504257,46.43427276611328,-46.14673614501953,17.972030639648438,0.1
397,MetaDrive-Tut-50Env-v0,118,176.76638107511542,400006,3126,3369.890565633774,44.15216064453125,,15.402947425842285,0.1
398,MetaDrive-Tut-50Env-v0,118,177.1940936895123,401154,3131,3380.4382724761963,42.517822265625,,21.679798126220703,0.11
399,MetaDrive-Tut-50Env-v0,118,178.88685585193616,402080,3136,3388.330727338791,44.98248291015625,,16.469097137451172,0.11
400,MetaDrive-Tut-50Env-v0,118,179.56487280606277,403091,3143,3397.7048597335815,42.54118347167969,-43.4337158203125,14.13232707977295,0.1
401,MetaDrive-Tut-50Env-v0,118,178.29766536923916,404069,3150,3406.2623500823975,45.53826141357422,-45.35684585571289,19.454448699951172,0.11
402,MetaDrive-Tut-50Env-v0,118,175.36533637776094,405071,3157,3416.209980249405,43.91704177856445,-43.738670349121094,15.966909408569336,0.11
403,MetaDrive-Tut-50Env-v0,118,176.71899612204635,406083,3163,3425.406527042389,44.70415115356445,-45.71201705932617,9.894186019897461,0.09
404,MetaDrive-Tut-50Env-v0,118,177.78502105198118,407034,3168,3434.165230035782,43.91200637817383,,15.020214080810547,0.1
405,MetaDrive-Tut-50Env-v0,118,178.36294294033775,408072,3172,3444.1299724578857,41.01321029663086,,16.85662841796875,0.1
406,MetaDrive-Tut-50Env-v0,118,180.54979323414503,409058,3175,3452.0144262313843,44.82128143310547,,18.245086669921875,0.11
407,MetaDrive-Tut-50Env-v0,118,185.85619333733675,410040,3178,3461.178393602371,44.556396484375,,10.428183555603027,0.12
408,MetaDrive-Tut-50Env-v0,118,188.46510633103134,411345,3182,3474.0140318870544,43.627838134765625,-43.45071792602539,13.54482650756836,0.13
409,MetaDrive-Tut-50Env-v0,118,189.10034384370533,412048,3185,3480.9947426319122,44.479759216308594,,21.687868118286133,0.13
410,MetaDrive-Tut-50Env-v0,118,186.6455461136177,413059,3191,3489.071444749832,44.725730895996094,-44.984928131103516,16.785999298095703,0.14
411,MetaDrive-Tut-50Env-v0,118,183.25522750828657,414052,3197,3497.7601857185364,44.563087463378906,,12.620325088500977,0.13
412,MetaDrive-Tut-50Env-v0,118,187.8528285380876,415037,3200,3506.0056641101837,41.006778717041016,-40.73094940185547,17.306251525878906,0.15
413,MetaDrive-Tut-50Env-v0,118,191.97500536353368,416346,3205,3517.226996898651,42.99464797973633,,17.26193618774414,0.16
414,MetaDrive-Tut-50Env-v0,118,195.167348803128,417005,3209,3522.625542640686,41.02058792114258,-41.23316955566406,8.33388614654541,0.16
415,MetaDrive-Tut-50Env-v0,118,201.05991371422883,418175,3212,3533.4068324565887,44.439109802246094,-44.97063446044922,14.181068420410156,0.19
416,MetaDrive-Tut-50Env-v0,118,205.97520233537983,419026,3215,3541.231416463852,45.30747985839844,,9.356910705566406,0.21
417,MetaDrive-Tut-50Env-v0,118,203.94370103547357,420025,3220,3550.0885758399963,42.466468811035156,-42.99728775024414,8.725774765014648,0.22
418,MetaDrive-Tut-50Env-v0,118,206.2984823564322,421028,3223,3559.3126935958862,44.4212532043457,,10.108596801757812,0.22
419,MetaDrive-Tut-50Env-v0,118,210.53575457334748,422425,3228,3572.229378938675,44.225257873535156,-44.71235275268555,10.140803337097168,0.22
420,MetaDrive-Tut-50Env-v0,118,213.75093699951645,423236,3230,3579.780232191086,45.050758361816406,,10.548505783081055,0.24
421,MetaDrive-Tut-50Env-v0,118,215.66296023670856,424124,3233,3588.5488946437836,42.88349151611328,,8.147154808044434,0.25
422,MetaDrive-Tut-50Env-v0,118,218.89447195475373,425371,3237,3599.0378770828247,42.276344299316406,-43.75183868408203,19.19459342956543,0.27
423,MetaDrive-Tut-50Env-v0,118,219.53377449165845,426123,3240,3605.4126691818237,41.50324630737305,-42.002811431884766,28.677446365356445,0.28
424,MetaDrive-Tut-50Env-v0,118,221.53224163377533,427056,3244,3613.663015127182,41.83989715576172,,17.701507568359375,0.29
425,MetaDrive-Tut-50Env-v0,118,228.10930914316847,428168,3249,3623.5198612213135,42.539241790771484,,13.504671096801758,0.3
426,MetaDrive-Tut-50Env-v0,118,230.1012908973706,429298,3252,3634.2995550632477,43.45832061767578,,20.241104125976562,0.3
427,MetaDrive-Tut-50Env-v0,118,232.4345582798258,430008,3255,3640.6719963550568,43.614715576171875,,11.660486221313477,0.3
428,MetaDrive-Tut-50Env-v0,118,230.37047318248054,431027,3261,3649.3927750587463,43.867069244384766,-43.984554290771484,14.0845308303833,0.31
429,MetaDrive-Tut-50Env-v0,118,236.36633470663864,432402,3266,3663.2854363918304,43.48276138305664,,16.991119384765625,0.33
430,MetaDrive-Tut-50Env-v0,118,232.326619052034,433066,3271,3669.280632019043,39.4705696105957,,24.538911819458008,0.32
431,MetaDrive-Tut-50Env-v0,118,228.40736377719352,434062,3276,3677.914261817932,43.743289947509766,,22.31279945373535,0.3
432,MetaDrive-Tut-50Env-v0,117,227.27764704344474,435324,3281,3690.2415623664856,41.98511505126953,,12.105942726135254,0.31
433,MetaDrive-Tut-50Env-v0,117,224.6899585392996,436074,3285,3697.340562105179,42.78333282470703,,10.142245292663574,0.29
434,MetaDrive-Tut-50Env-v0,117,228.11614196838275,437049,3288,3706.4385352134705,41.37559509277344,-41.77797317504883,15.520933151245117,0.3
435,MetaDrive-Tut-50Env-v0,117,230.3909593959602,438174,3296,3716.037242412567,42.648460388183594,,9.368219375610352,0.3
436,MetaDrive-Tut-50Env-v0,117,225.84793186285225,439061,3301,3724.0369431972504,42.971641540527344,-43.768550872802734,21.133426666259766,0.28
437,MetaDrive-Tut-50Env-v0,117,226.58148251525702,440262,3306,3733.920500278473,43.245361328125,,14.612258911132812,0.28
438,MetaDrive-Tut-50Env-v0,117,231.5166102981443,441206,3309,3742.8422605991364,41.55625915527344,,16.961441040039062,0.3
439,MetaDrive-Tut-50Env-v0,117,226.15828827622397,442192,3313,3752.4150474071503,40.19228744506836,,35.569297790527344,0.26
440,MetaDrive-Tut-50Env-v0,117,223.2374735698274,443134,3319,3761.30348944664,43.164703369140625,,23.520435333251953,0.24
441,MetaDrive-Tut-50Env-v0,117,221.45465605568205,444142,3324,3770.7721240520477,43.38709259033203,,10.36165714263916,0.25
442,MetaDrive-Tut-50Env-v0,117,217.53846918542172,445256,3329,3780.215614080429,40.92741775512695,,13.82951545715332,0.23
443,MetaDrive-Tut-50Env-v0,117,213.85711005105506,446025,3333,3786.4211242198944,39.970882415771484,-41.28202819824219,19.01421356201172,0.22
444,MetaDrive-Tut-50Env-v0,117,208.73008619433503,447003,3338,3794.469958305359,42.38220977783203,-42.53504180908203,15.347167015075684,0.19
445,MetaDrive-Tut-50Env-v0,117,210.83406506979532,448127,3342,3804.359540462494,44.1265754699707,-44.22709655761719,9.58997917175293,0.2
446,MetaDrive-Tut-50Env-v0,117,212.38934290826765,449097,3347,3812.541938304901,41.888092041015625,-42.54371643066406,14.233402252197266,0.19
447,MetaDrive-Tut-50Env-v0,117,207.35424667751224,450070,3352,3821.487218141556,41.93803405761719,,11.20985221862793,0.19
448,MetaDrive-Tut-50Env-v0,117,204.59048126319573,451121,3358,3830.1641569137573,43.37214660644531,-42.92869567871094,8.686760902404785,0.19
449,MetaDrive-Tut-50Env-v0,117,200.45633297100034,452189,3365,3840.6320190429688,40.419498443603516,-40.9654426574707,17.181564331054688,0.19
450,MetaDrive-Tut-50Env-v0,117,200.18347215324204,453002,3370,3847.6535217761993,42.1141242980957,,14.885885238647461,0.18
451,MetaDrive-Tut-50Env-v0,117,201.0796033271484,454085,3375,3859.0499773025513,42.16636276245117,-42.5782470703125,24.28276252746582,0.18
452,MetaDrive-Tut-50Env-v0,117,202.94159122113325,455159,3380,3869.2116861343384,41.85850524902344,-41.70246124267578,20.656635284423828,0.18
453,MetaDrive-Tut-50Env-v0,117,205.21169202471447,456187,3383,3879.60506272316,41.51018524169922,-42.46876907348633,11.000612258911133,0.19
454,MetaDrive-Tut-50Env-v0,117,202.9791975482153,457058,3387,3888.348329305649,43.525535583496094,,14.49941349029541,0.18
455,MetaDrive-Tut-50Env-v0,117,205.30481819553287,458204,3393,3899.084342479706,42.4208984375,,8.696697235107422,0.18
456,MetaDrive-Tut-50Env-v0,117,208.27108996835963,459051,3397,3907.424856185913,41.305328369140625,-40.81138610839844,13.736821174621582,0.2
457,MetaDrive-Tut-50Env-v0,117,208.12582644712427,460069,3403,3915.828471183777,43.475643157958984,-44.083740234375,9.919393539428711,0.19
458,MetaDrive-Tut-50Env-v0,117,201.07863194149022,461052,3409,3925.334437608719,39.96897888183594,,8.453776359558105,0.17
459,MetaDrive-Tut-50Env-v0,117,199.20879637917835,462294,3417,3936.543164253235,40.059547424316406,,19.504121780395508,0.18
460,MetaDrive-Tut-50Env-v0,117,195.38500262991008,463075,3423,3942.92915725708,42.07559585571289,-42.61893081665039,18.798748016357422,0.17
461,MetaDrive-Tut-50Env-v0,117,197.36408692760847,464069,3427,3951.696793794632,42.96498489379883,-42.48701477050781,13.403003692626953,0.18
462,MetaDrive-Tut-50Env-v0,117,196.99946266382656,465243,3432,3962.166464805603,41.22422409057617,-41.842628479003906,12.271472930908203,0.18
463,MetaDrive-Tut-50Env-v0,117,200.7684073674367,466121,3435,3969.910989046097,45.17930603027344,-45.74607849121094,16.541004180908203,0.19
464,MetaDrive-Tut-50Env-v0,117,202.30945011837036,467436,3439,3982.5476331710815,41.79553985595703,,14.178932189941406,0.2
465,MetaDrive-Tut-50Env-v0,117,203.25049746798223,468163,3441,3989.709805727005,44.57503128051758,-44.05206298828125,8.305498123168945,0.19
466,MetaDrive-Tut-50Env-v0,117,203.84626071103662,469155,3446,3998.732554912567,42.64311981201172,-42.512168884277344,8.741643905639648,0.21
467,MetaDrive-Tut-50Env-v0,117,204.93110277997042,470157,3451,4007.97763133049,41.752384185791016,-43.02168655395508,14.910192489624023,0.21
468,MetaDrive-Tut-50Env-v0,117,208.06254514593968,471007,3456,4015.249627828598,44.197174072265625,-44.34184646606445,14.749065399169922,0.22
469,MetaDrive-Tut-50Env-v0,117,209.94826790276443,472027,3462,4024.0639655590057,42.18144226074219,-43.110939025878906,15.788795471191406,0.21
470,MetaDrive-Tut-50Env-v0,117,214.56378876103892,473152,3467,4033.161340236664,43.455848693847656,,11.870802879333496,0.21
471,MetaDrive-Tut-50Env-v0,117,216.64819730450066,474090,3471,4041.227559566498,43.551048278808594,,15.738557815551758,0.22
472,MetaDrive-Tut-50Env-v0,117,212.60338721643086,475101,3477,4050.3303728103638,45.240386962890625,-45.089515686035156,29.39505386352539,0.21
473,MetaDrive-Tut-50Env-v0,117,209.4941590323041,476063,3482,4059.1608600616455,44.89955139160156,-44.2588005065918,10.003622055053711,0.2
474,MetaDrive-Tut-50Env-v0,117,205.93129867788076,477016,3487,4067.886125802994,43.906578063964844,,10.413640975952148,0.2
475,MetaDrive-Tut-50Env-v0,117,212.66195496366615,478325,3492,4080.4342696666718,44.31889343261719,-44.037750244140625,19.880603790283203,0.22
476,MetaDrive-Tut-50Env-v0,117,212.82408125265002,479036,3495,4086.4219522476196,43.53171920776367,,14.078274726867676,0.22
477,MetaDrive-Tut-50Env-v0,117,210.71440501157718,480096,3501,4095.9638607501984,45.929283142089844,,11.831632614135742,0.22
478,MetaDrive-Tut-50Env-v0,117,218.4476180425424,481347,3507,4108.877127408981,44.2738037109375,-44.2891960144043,8.027503967285156,0.24
479,MetaDrive-Tut-50Env-v0,117,219.523791941096,482118,3511,4115.13858795166,44.73358154296875,,17.18212890625,0.24
480,MetaDrive-Tut-50Env-v0,117,219.69754277415095,483093,3517,4122.902226686478,42.037078857421875,-42.171871185302734,12.102096557617188,0.23
481,MetaDrive-Tut-50Env-v0,117,227.6331469374717,484005,3520,4131.065853595734,41.33945083618164,-41.578392028808594,15.84593391418457,0.25
482,MetaDrive-Tut-50Env-v0,117,225.3797564050663,485098,3526,4139.622931957245,43.46205139160156,,19.23348045349121,0.23
483,MetaDrive-Tut-50Env-v0,117,225.3545688581133,486173,3532,4150.2589564323425,44.16718292236328,-44.92341232299805,11.719039916992188,0.22
484,MetaDrive-Tut-50Env-v0,117,220.57663064282394,487084,3537,4158.104537963867,44.65126037597656,,15.565777778625488,0.21
485,MetaDrive-Tut-50Env-v0,117,216.08181530809352,488256,3542,4168.757251024246,43.11909484863281,,10.65385627746582,0.21
486,MetaDrive-Tut-50Env-v0,117,220.95253846298655,489148,3545,4176.359847068787,44.939842224121094,,21.478044509887695,0.22
487,MetaDrive-Tut-50Env-v0,117,219.83729456892343,490045,3550,4184.768885135651,42.825775146484375,-43.04774475097656,17.43585968017578,0.2
488,MetaDrive-Tut-50Env-v0,117,224.21764434996302,491053,3553,4194.044758081436,41.53997039794922,-42.091827392578125,13.266128540039062,0.21
489,MetaDrive-Tut-50Env-v0,117,224.00347813905267,492035,3559,4203.338913202286,42.94356918334961,-42.36567306518555,20.30459976196289,0.21
490,MetaDrive-Tut-50Env-v0,117,224.56969106689823,493008,3565,4212.413459300995,42.311431884765625,,11.18082046508789,0.21
491,MetaDrive-Tut-50Env-v0,116,220.82918306573495,494066,3570,4223.103522777557,40.87785339355469,,11.865167617797852,0.2
492,MetaDrive-Tut-50Env-v0,116,220.60559242843067,495167,3577,4232.411878108978,40.75490188598633,-41.236305236816406,24.29837417602539,0.2
493,MetaDrive-Tut-50Env-v0,117,216.21718071738852,496023,3583,4239.287283658981,44.96095275878906,-45.180233001708984,15.188915252685547,0.19
494,MetaDrive-Tut-50Env-v0,117,212.08663389673637,497049,3590,4247.899196863174,41.23537826538086,-41.72514724731445,18.971054077148438,0.17
495,MetaDrive-Tut-50Env-v0,116,204.13465127991032,498337,3598,4259.6725034713745,44.16600799560547,-43.966835021972656,11.209190368652344,0.15
496,MetaDrive-Tut-50Env-v0,116,198.98916528486785,499043,3603,4265.904601573944,43.32645034790039,-43.81998825073242,8.774349212646484,0.14
