jacobyokehongsi/assignment-2022fall/assignment3/MetaDrive-Tut-20Env-v0/td3/progress.csv
,log_dir,frame_per_second,episode_reward,total_steps,total_episodes,total_time,target_q,actor_loss,critic_loss,success_rate
0,MetaDrive-Tut-20Env-v0,487,11.065195555587879,2001,2,4.107439279556274,,,,0.0
1,MetaDrive-Tut-20Env-v0,535,11.208785117153612,3002,3,5.606682538986206,,,,0.0
2,MetaDrive-Tut-20Env-v0,546,10.745705350878726,4003,4,7.329575300216675,,,,0.0
3,MetaDrive-Tut-20Env-v0,531,11.082682749383327,5004,5,9.413541316986084,,,,0.0
4,MetaDrive-Tut-20Env-v0,544,11.20792155879178,6005,6,11.032368659973145,,,,0.0
5,MetaDrive-Tut-20Env-v0,533,9.354560393311422,7361,8,13.802880764007568,,,,0.0
6,MetaDrive-Tut-20Env-v0,511,9.378477188761451,8362,9,16.354197025299072,,,,0.0
7,MetaDrive-Tut-20Env-v0,528,9.537418933070068,9363,10,17.709917783737183,,,,0.0
8,MetaDrive-Tut-20Env-v0,522,9.640825027225985,10055,11,19.232730388641357,0.011582063511013985,-0.019330615177750587,0.001230963272973895,0.0
9,MetaDrive-Tut-20Env-v0,384,1.0035325105738686,11025,47,28.660314559936523,0.015714198350906372,-0.04915104806423187,0.39949434995651245,0.0
10,MetaDrive-Tut-20Env-v0,337,0.38229929567242354,12033,58,35.70529794692993,0.039306215941905975,0.006226847413927317,0.20625650882720947,0.0
11,MetaDrive-Tut-20Env-v0,304,0.5461947095368553,13010,73,42.67940306663513,0.07436871528625488,,0.007103228010237217,0.0
12,MetaDrive-Tut-20Env-v0,275,1.9135251301821228,14018,96,50.82190155982971,0.09660352021455765,,0.34520161151885986,0.0
13,MetaDrive-Tut-20Env-v0,253,2.3207985381215566,15011,120,59.20387816429138,0.23376750946044922,-0.2733779847621918,0.033615320920944214,0.0
14,MetaDrive-Tut-20Env-v0,234,4.4769202173311875,16013,145,68.2643895149231,0.4142826199531555,-0.4380895495414734,0.06946277618408203,0.0
15,MetaDrive-Tut-20Env-v0,220,9.148249758989676,17071,163,77.32139992713928,0.5525795221328735,-0.5188801884651184,0.31177499890327454,0.0
16,MetaDrive-Tut-20Env-v0,210,11.647909385537298,18037,181,85.51689291000366,0.7766408324241638,-0.8867800831794739,0.885674238204956,0.0
17,MetaDrive-Tut-20Env-v0,202,13.218596491536582,19003,198,93.82095742225647,1.1859643459320068,-1.3654139041900635,0.7068850994110107,0.0
18,MetaDrive-Tut-20Env-v0,194,16.09070731175327,20021,214,103.03687596321106,1.6008464097976685,-1.7787837982177734,1.23968505859375,0.0
19,MetaDrive-Tut-20Env-v0,188,24.124584907680934,21370,221,113.38457131385803,2.173896074295044,,1.4433174133300781,0.01
20,MetaDrive-Tut-20Env-v0,185,29.40063641050774,22218,224,119.90961265563965,2.6799726486206055,,1.6752102375030518,0.02
21,MetaDrive-Tut-20Env-v0,182,34.87992329435472,23046,228,126.19679641723633,3.3264687061309814,,0.6327472925186157,0.03
22,MetaDrive-Tut-20Env-v0,178,42.50329294036702,24169,233,135.46317529678345,4.136682987213135,-4.286917686462402,1.5261813402175903,0.03
23,MetaDrive-Tut-20Env-v0,175,47.97945719066202,25027,236,142.43558931350708,4.688467979431152,-4.818201065063477,2.0463743209838867,0.03
24,MetaDrive-Tut-20Env-v0,172,54.63277710938482,26055,239,151.05544710159302,5.461432933807373,-5.770390510559082,2.142805576324463,0.04
25,MetaDrive-Tut-20Env-v0,168,63.0599216298169,27328,242,161.70550894737244,6.7133612632751465,,1.2479465007781982,0.06
26,MetaDrive-Tut-20Env-v0,167,67.3977303620725,28090,245,167.55314421653748,7.746244430541992,,0.7596317529678345,0.07
27,MetaDrive-Tut-20Env-v0,165,74.08625005653029,29093,247,175.70479154586792,7.875601768493652,-8.206489562988281,2.678602933883667,0.09
28,MetaDrive-Tut-20Env-v0,163,80.60086832141576,30072,249,184.2499794960022,8.926834106445312,,2.0689496994018555,0.11
29,MetaDrive-Tut-20Env-v0,162,87.24932014263803,31069,253,191.5816969871521,9.556478500366211,-9.841642379760742,1.101918339729309,0.13
30,MetaDrive-Tut-20Env-v0,160,93.05497763967965,32042,257,199.8979732990265,10.285011291503906,,3.123241901397705,0.14
31,MetaDrive-Tut-20Env-v0,158,100.8549329024163,33158,260,209.42680668830872,11.514890670776367,,4.34916353225708,0.16
32,MetaDrive-Tut-20Env-v0,157,108.8483530379009,34169,263,217.32822489738464,12.991802215576172,-13.159708976745605,0.8453594446182251,0.18
33,MetaDrive-Tut-20Env-v0,155,115.17230463937865,35050,266,224.75169348716736,13.807528495788574,,1.5865466594696045,0.19
34,MetaDrive-Tut-20Env-v0,154,120.71105575207459,36576,270,237.12362694740295,13.529207229614258,,1.2774524688720703,0.19
35,MetaDrive-Tut-20Env-v0,153,124.14928833749347,37072,273,241.62908840179443,14.574363708496094,,0.9752293229103088,0.19
36,MetaDrive-Tut-20Env-v0,151,132.10292937855218,38095,279,250.76356554031372,15.351140975952148,-15.590694427490234,5.372432708740234,0.2
37,MetaDrive-Tut-20Env-v0,150,141.8811345113101,39341,285,262.15900707244873,16.014835357666016,-16.321495056152344,3.1853508949279785,0.22
38,MetaDrive-Tut-20Env-v0,149,147.3386917852336,40096,290,268.3021538257599,17.171785354614258,,4.798766136169434,0.22
39,MetaDrive-Tut-20Env-v0,148,154.32931969848184,41039,296,276.96585750579834,17.04201889038086,-17.471111297607422,6.720332145690918,0.22
40,MetaDrive-Tut-20Env-v0,147,162.36432889916355,42060,299,285.6040940284729,18.787153244018555,,4.546731948852539,0.24
41,MetaDrive-Tut-20Env-v0,146,171.70569230089487,43306,303,296.6116075515747,18.116191864013672,,8.77333927154541,0.26
42,MetaDrive-Tut-20Env-v0,145,178.47625671602955,44155,307,303.043621301651,19.875268936157227,-20.628612518310547,4.1243133544921875,0.28
43,MetaDrive-Tut-20Env-v0,145,184.56876780686972,45048,311,309.63094449043274,21.252357482910156,,2.224318027496338,0.29
44,MetaDrive-Tut-20Env-v0,144,189.47020051933458,46137,317,318.6702961921692,22.34329605102539,-22.64975357055664,3.0926003456115723,0.29
45,MetaDrive-Tut-20Env-v0,144,188.32049144336597,47066,322,325.15078926086426,22.219345092773438,,2.1209990978240967,0.29
46,MetaDrive-Tut-20Env-v0,144,189.50665439045895,48093,327,333.045170545578,24.482465744018555,-24.883426666259766,1.9972373247146606,0.29
47,MetaDrive-Tut-20Env-v0,143,188.00542665364785,49042,333,340.76350712776184,23.743919372558594,,4.920717239379883,0.29
48,MetaDrive-Tut-20Env-v0,143,192.89427519405243,50243,336,350.6059744358063,25.275501251220703,-25.846088409423828,4.174141883850098,0.32
49,MetaDrive-Tut-20Env-v0,142,193.60881929528844,51160,339,359.25723004341125,25.49272918701172,,14.279081344604492,0.32
50,MetaDrive-Tut-20Env-v0,141,196.99489547947607,52231,341,369.1435225009918,25.548931121826172,-26.31094741821289,10.692684173583984,0.33
51,MetaDrive-Tut-20Env-v0,141,201.43792328949274,53304,344,377.6998167037964,27.960525512695312,,6.658772945404053,0.35
52,MetaDrive-Tut-20Env-v0,140,194.4434267567027,54113,348,383.8423545360565,28.642797470092773,-29.42409896850586,9.819931030273438,0.32
53,MetaDrive-Tut-20Env-v0,140,195.1350421713795,55127,351,392.6420154571533,29.762012481689453,-30.358482360839844,7.21664571762085,0.32
54,MetaDrive-Tut-20Env-v0,139,196.279908965446,56414,355,403.154415845871,30.604759216308594,,2.794738531112671,0.33
55,MetaDrive-Tut-20Env-v0,139,200.68581365016274,57050,357,408.22858023643494,29.81623077392578,,3.0933480262756348,0.34
56,MetaDrive-Tut-20Env-v0,139,201.86324640262578,58365,360,419.2835147380829,32.61796951293945,-32.61405944824219,4.365512847900391,0.34
57,MetaDrive-Tut-20Env-v0,139,200.13604794361225,59172,363,425.4754865169525,31.54218292236328,,7.745546340942383,0.34
58,MetaDrive-Tut-20Env-v0,138,201.48731583213817,60222,366,433.50503492355347,30.739505767822266,,20.56551742553711,0.35
59,MetaDrive-Tut-20Env-v0,138,204.70568369257944,61062,368,440.31356954574585,33.24817657470703,,14.320455551147461,0.37
60,MetaDrive-Tut-20Env-v0,138,209.6148972770782,62266,371,449.22786688804626,34.985755920410156,,10.123106956481934,0.4
61,MetaDrive-Tut-20Env-v0,138,213.41757951216533,63229,374,456.5553832054138,35.32508087158203,-36.611412048339844,11.286172866821289,0.42
62,MetaDrive-Tut-20Env-v0,138,218.50843077637992,64158,377,463.8122308254242,35.13310623168945,,24.501522064208984,0.44
63,MetaDrive-Tut-20Env-v0,138,218.375684128189,65181,380,471.85548543930054,35.760135650634766,-36.361690521240234,4.776679039001465,0.45
64,MetaDrive-Tut-20Env-v0,137,222.77843177912646,66153,382,479.95273995399475,36.43614959716797,-37.077911376953125,7.425818920135498,0.46
65,MetaDrive-Tut-20Env-v0,137,226.28084300897513,67237,385,488.11565589904785,36.79572296142578,-37.12908935546875,8.171134948730469,0.48
66,MetaDrive-Tut-20Env-v0,137,230.4444102320658,68084,387,494.9928894042969,37.596031188964844,,10.993223190307617,0.5
67,MetaDrive-Tut-20Env-v0,137,235.9993602985835,69238,390,504.34742975234985,39.273067474365234,,16.87331199645996,0.53
68,MetaDrive-Tut-20Env-v0,136,243.82924740215006,70265,392,513.2831015586853,38.47096633911133,-39.38664627075195,9.548696517944336,0.55
69,MetaDrive-Tut-20Env-v0,136,250.22317570156517,71197,394,520.4318084716797,39.58115768432617,-39.89289855957031,14.357494354248047,0.57
70,MetaDrive-Tut-20Env-v0,136,248.40264098004644,72901,397,532.4855828285217,40.032440185546875,-40.610450744628906,13.146825790405273,0.57
71,MetaDrive-Tut-20Env-v0,136,247.38635926826103,73327,398,535.5694189071655,40.39610290527344,-41.149085998535156,4.863831520080566,0.57
72,MetaDrive-Tut-20Env-v0,136,247.38572496441932,74077,400,541.3790137767792,41.630340576171875,-41.36127471923828,5.118309020996094,0.57
73,MetaDrive-Tut-20Env-v0,136,247.6854243250281,75078,403,549.165819644928,40.29323196411133,,21.88078498840332,0.58
74,MetaDrive-Tut-20Env-v0,136,252.24468632859683,76173,405,558.792683839798,40.827213287353516,-41.02884292602539,6.850925445556641,0.59
75,MetaDrive-Tut-20Env-v0,135,256.10697432466327,77569,408,570.6719126701355,41.450340270996094,-41.772464752197266,5.878603935241699,0.6
76,MetaDrive-Tut-20Env-v0,135,259.6780007981083,78190,409,575.8459923267365,42.555599212646484,,5.046364784240723,0.61
77,MetaDrive-Tut-20Env-v0,135,264.90972321451284,79370,411,585.804529428482,41.94401931762695,,30.178634643554688,0.63
78,MetaDrive-Tut-20Env-v0,135,265.8290858564449,80148,413,591.927339553833,42.753150939941406,,9.246986389160156,0.64
79,MetaDrive-Tut-20Env-v0,135,270.91427713232054,81162,415,599.2666370868683,41.65888595581055,,23.854721069335938,0.66
80,MetaDrive-Tut-20Env-v0,135,275.25443157933836,82241,417,607.5264422893524,42.27647399902344,-41.876922607421875,9.67999267578125,0.68
81,MetaDrive-Tut-20Env-v0,135,281.4490258888759,83356,419,616.6438674926758,42.939849853515625,,11.292377471923828,0.7
82,MetaDrive-Tut-20Env-v0,135,283.712336519467,84339,421,624.2184326648712,43.64109802246094,-43.79291534423828,5.481297492980957,0.71
83,MetaDrive-Tut-20Env-v0,134,286.73618490163085,85487,423,633.330708026886,43.30028533935547,-43.66627502441406,7.875802040100098,0.72
84,MetaDrive-Tut-20Env-v0,134,292.6492568169642,86555,425,641.973879814148,43.05829620361328,-43.36048126220703,5.681098937988281,0.74
85,MetaDrive-Tut-20Env-v0,134,294.0625426418418,87129,426,646.8226470947266,43.67811965942383,-44.66340637207031,12.452512741088867,0.74
86,MetaDrive-Tut-20Env-v0,134,297.5532965426093,88207,428,655.9706947803497,43.47740936279297,-44.03277587890625,6.4133710861206055,0.76
87,MetaDrive-Tut-20Env-v0,134,302.19977429168165,89210,430,663.9628913402557,44.769386291503906,,17.766141891479492,0.78
88,MetaDrive-Tut-20Env-v0,134,304.2207897181833,90185,433,671.385270357132,42.35662078857422,-42.89091110229492,12.221662521362305,0.8
89,MetaDrive-Tut-20Env-v0,134,304.4154381054177,91171,435,678.8978884220123,45.03237533569336,-45.65132522583008,8.190876007080078,0.8
90,MetaDrive-Tut-20Env-v0,134,306.43400878960824,92261,438,687.6085252761841,43.27117919921875,-43.739295959472656,6.1041154861450195,0.81
91,MetaDrive-Tut-20Env-v0,134,300.06290494132105,93405,441,695.9485864639282,43.31307601928711,-43.80546569824219,9.647823333740234,0.81
92,MetaDrive-Tut-20Env-v0,134,299.99310449538234,94385,443,703.4339845180511,45.97850036621094,-45.49388122558594,24.809003829956055,0.8
93,MetaDrive-Tut-20Env-v0,134,303.1810586755016,95404,445,711.9142556190491,45.263587951660156,,11.291238784790039,0.81
94,MetaDrive-Tut-20Env-v0,133,306.01541438994605,96333,447,719.9369282722473,45.657493591308594,-45.87400436401367,8.022924423217773,0.82
95,MetaDrive-Tut-20Env-v0,133,310.14808598794093,97217,449,726.3299589157104,44.914390563964844,-44.80854034423828,6.899558067321777,0.84
96,MetaDrive-Tut-20Env-v0,133,310.83651452986527,98406,451,736.9673674106598,44.41020202636719,,5.361923694610596,0.84
97,MetaDrive-Tut-20Env-v0,133,313.52570478907165,99291,453,743.6050772666931,45.36859893798828,-46.04520797729492,5.458889007568359,0.85
98,MetaDrive-Tut-20Env-v0,133,315.7848759165862,100415,455,753.4496619701385,44.77531433105469,-45.0050048828125,10.323400497436523,0.85
99,MetaDrive-Tut-20Env-v0,133,318.18812986250066,101016,456,758.3879358768463,43.67218017578125,,7.4422078132629395,0.86
100,MetaDrive-Tut-20Env-v0,133,311.79085564912094,102241,460,767.6904942989349,47.66514587402344,-48.247161865234375,15.54330062866211,0.85
101,MetaDrive-Tut-20Env-v0,132,316.82618184238544,103627,462,779.4372005462646,43.830047607421875,-45.2322998046875,11.445171356201172,0.86
102,MetaDrive-Tut-20Env-v0,132,317.8367822356156,104355,464,785.2488989830017,45.704689025878906,-46.11067199707031,9.659584045410156,0.86
103,MetaDrive-Tut-20Env-v0,132,315.7618310974186,105071,466,791.0204076766968,44.8786506652832,-44.26835632324219,8.005806922912598,0.85
104,MetaDrive-Tut-20Env-v0,132,315.20385738000545,106037,468,798.8571922779083,44.849788665771484,-44.51000213623047,6.970487117767334,0.85
105,MetaDrive-Tut-20Env-v0,132,315.83973814408614,107555,471,811.093353509903,45.227752685546875,-45.813316345214844,20.8316650390625,0.85
106,MetaDrive-Tut-20Env-v0,132,318.3530368187761,108584,473,818.9104807376862,45.97307586669922,,13.727495193481445,0.86
107,MetaDrive-Tut-20Env-v0,132,317.787654670426,109585,474,825.9412529468536,43.63274383544922,-43.51874542236328,12.000574111938477,0.85
108,MetaDrive-Tut-20Env-v0,132,318.8923532332561,110059,475,829.5146627426147,44.384605407714844,-45.02450180053711,13.358325004577637,0.85
109,MetaDrive-Tut-20Env-v0,132,324.28703200990964,111343,478,839.188601732254,45.93001937866211,-46.22064971923828,4.761519432067871,0.86
110,MetaDrive-Tut-20Env-v0,132,323.09430832874585,112102,480,844.250452041626,45.68158721923828,,10.240922927856445,0.86
111,MetaDrive-Tut-20Env-v0,132,318.2238916475789,113019,483,850.517991065979,45.12506103515625,-45.593170166015625,10.666507720947266,0.85
112,MetaDrive-Tut-20Env-v0,132,322.8022541618683,114220,485,861.9083936214447,44.661224365234375,,6.592345714569092,0.85
113,MetaDrive-Tut-20Env-v0,132,320.0478670445158,115046,488,868.0717911720276,45.24401092529297,,5.386989116668701,0.84
114,MetaDrive-Tut-20Env-v0,132,315.2829135366467,116004,491,875.0115966796875,45.15386199951172,,18.497215270996094,0.83
115,MetaDrive-Tut-20Env-v0,132,313.5596638476903,117005,492,883.0261435508728,44.326786041259766,-44.48686218261719,7.118830680847168,0.82
116,MetaDrive-Tut-20Env-v0,132,308.2191201152818,118233,497,892.5761733055115,43.583961486816406,-43.535587310791016,5.968044281005859,0.81
117,MetaDrive-Tut-20Env-v0,132,305.8681862019623,119082,501,898.6801824569702,43.72691345214844,,7.351192951202393,0.81
118,MetaDrive-Tut-20Env-v0,132,295.0439690776894,120046,506,905.9005739688873,45.920753479003906,,10.160494804382324,0.78
119,MetaDrive-Tut-20Env-v0,132,290.34022718206035,121058,509,913.7127346992493,44.18168640136719,,7.464189529418945,0.77
120,MetaDrive-Tut-20Env-v0,132,291.7496981445871,122277,512,922.6365752220154,45.858985900878906,-46.682769775390625,9.11275863647461,0.78
121,MetaDrive-Tut-20Env-v0,132,292.24028598577536,123291,514,930.7204768657684,47.92021942138672,-48.83674621582031,5.19972562789917,0.78
122,MetaDrive-Tut-20Env-v0,132,289.37362611398777,124264,517,937.7158634662628,46.36132049560547,,8.86363410949707,0.77
123,MetaDrive-Tut-20Env-v0,132,286.659117517541,125390,520,945.5703573226929,45.06241226196289,,19.206401824951172,0.77
124,MetaDrive-Tut-20Env-v0,132,284.41668713224203,126138,522,951.0472023487091,46.20504379272461,,12.313163757324219,0.77
125,MetaDrive-Tut-20Env-v0,132,285.3142515110279,127057,524,958.4901216030121,47.419593811035156,-48.04682540893555,6.634238243103027,0.77
126,MetaDrive-Tut-20Env-v0,132,281.9909559112518,128109,527,967.7838325500488,45.208648681640625,-45.48638916015625,7.600358009338379,0.76
127,MetaDrive-Tut-20Env-v0,132,283.96626709408946,129057,529,975.699541091919,45.815940856933594,-46.38397216796875,13.07678508758545,0.76
128,MetaDrive-Tut-20Env-v0,132,283.80710482620174,130031,532,983.132928609848,46.288726806640625,-46.846397399902344,9.849185943603516,0.76
129,MetaDrive-Tut-20Env-v0,132,281.57082162672924,131007,535,990.3621709346771,45.448665618896484,-45.78937911987305,13.821606636047363,0.76
130,MetaDrive-Tut-20Env-v0,132,284.87040500000455,132001,537,999.6453335285187,47.581268310546875,-48.58845520019531,5.205714702606201,0.77
131,MetaDrive-Tut-20Env-v0,131,287.9305485974284,133426,540,1011.9806442260742,44.97505569458008,,8.292901039123535,0.76
132,MetaDrive-Tut-20Env-v0,131,290.2102079113823,134339,542,1019.3363788127899,45.393943786621094,-46.08356475830078,8.540470123291016,0.77
133,MetaDrive-Tut-20Env-v0,131,286.25481295515857,135247,545,1026.2261581420898,45.96916961669922,-46.148048400878906,12.824508666992188,0.76
134,MetaDrive-Tut-20Env-v0,131,286.53277849725566,136067,547,1032.7536606788635,46.43595886230469,-46.5971565246582,7.155540466308594,0.76
135,MetaDrive-Tut-20Env-v0,131,289.541609824113,137204,549,1043.1446878910065,44.79979705810547,,9.099373817443848,0.76
136,MetaDrive-Tut-20Env-v0,131,289.66557295250334,138598,552,1053.7132847309113,46.13220977783203,,7.198719024658203,0.76
137,MetaDrive-Tut-20Env-v0,131,280.97458505785966,139067,555,1056.7308175563812,46.74732208251953,-46.62351608276367,7.070093154907227,0.74
138,MetaDrive-Tut-20Env-v0,131,282.6429841372017,140075,558,1063.5689435005188,46.656402587890625,-47.26362228393555,7.61502742767334,0.75
139,MetaDrive-Tut-20Env-v0,131,281.87239515577795,141480,561,1074.3329455852509,44.88679504394531,,17.129823684692383,0.75
140,MetaDrive-Tut-20Env-v0,131,281.7453221746991,142212,563,1079.5234410762787,46.164588928222656,,15.847175598144531,0.76
141,MetaDrive-Tut-20Env-v0,131,284.4541607063188,143010,565,1085.2550373077393,45.65549087524414,,11.15434741973877,0.77
142,MetaDrive-Tut-20Env-v0,131,285.38552651531955,144439,568,1096.6090514659882,44.826297760009766,-45.61069107055664,9.080533981323242,0.77
143,MetaDrive-Tut-20Env-v0,131,284.6825188907008,145241,570,1102.1675341129303,46.80512237548828,-47.21686553955078,13.062599182128906,0.77
144,MetaDrive-Tut-20Env-v0,131,280.8245969494144,146135,573,1109.1120221614838,44.44674301147461,-45.58042907714844,21.28542709350586,0.76
145,MetaDrive-Tut-20Env-v0,131,282.51031471035014,147158,575,1116.6678304672241,45.76862716674805,,25.73825454711914,0.77
146,MetaDrive-Tut-20Env-v0,131,280.84378562078024,148316,578,1125.1351730823517,45.457984924316406,,8.628483772277832,0.78
147,MetaDrive-Tut-20Env-v0,131,281.68112452330286,149480,581,1134.9762835502625,46.833370208740234,,7.325994491577148,0.77
148,MetaDrive-Tut-20Env-v0,131,285.6529952648614,150499,583,1143.4368844032288,46.46470642089844,-46.78909683227539,6.856534957885742,0.78
149,MetaDrive-Tut-20Env-v0,131,280.1593229148808,151118,585,1148.3154475688934,46.635536193847656,,13.848217964172363,0.77
150,MetaDrive-Tut-20Env-v0,131,283.5983746499363,152267,588,1158.6082832813263,45.78950500488281,-46.13727569580078,7.948781967163086,0.77
151,MetaDrive-Tut-20Env-v0,131,283.95235744959473,153222,591,1166.1016261577606,46.8917121887207,,8.512405395507812,0.76
152,MetaDrive-Tut-20Env-v0,131,286.99750924527666,154087,593,1172.9262762069702,46.832611083984375,-47.28799057006836,5.365983963012695,0.78
153,MetaDrive-Tut-20Env-v0,131,291.38505080354946,155250,595,1182.8253362178802,47.03470993041992,,16.555225372314453,0.79
154,MetaDrive-Tut-20Env-v0,131,297.3360737781546,156393,597,1192.7515182495117,46.93867874145508,-48.03717041015625,9.743315696716309,0.8
155,MetaDrive-Tut-20Env-v0,131,300.62237626373144,157245,599,1199.8177936077118,45.866294860839844,-46.42985534667969,6.2676544189453125,0.8
156,MetaDrive-Tut-20Env-v0,130,304.0137413043866,158261,601,1208.2873950004578,45.52056884765625,-45.9707145690918,12.005399703979492,0.81
157,MetaDrive-Tut-20Env-v0,130,310.6732793288255,159467,603,1220.3119649887085,47.65446090698242,-48.188934326171875,12.14272689819336,0.82
158,MetaDrive-Tut-20Env-v0,130,314.3391223240025,160301,605,1227.441012620926,47.99470520019531,-48.42095184326172,8.057880401611328,0.83
159,MetaDrive-Tut-20Env-v0,130,319.64142286040016,161134,607,1234.0556135177612,46.41670227050781,,20.603069305419922,0.85
160,MetaDrive-Tut-20Env-v0,130,317.2005993873146,162451,610,1243.544861316681,47.486061096191406,-48.38800811767578,6.704182147979736,0.84
161,MetaDrive-Tut-20Env-v0,130,319.90519220812394,163588,612,1252.5223352909088,46.604591369628906,,9.717065811157227,0.84
162,MetaDrive-Tut-20Env-v0,130,316.4693773965234,164242,614,1258.5349702835083,47.53484344482422,,6.988988876342773,0.83
163,MetaDrive-Tut-20Env-v0,130,318.1354836873589,165468,617,1267.8353517055511,48.745269775390625,,7.091479301452637,0.84
164,MetaDrive-Tut-20Env-v0,130,319.529732775535,166434,619,1275.425185918808,47.712406158447266,,10.938127517700195,0.84
165,MetaDrive-Tut-20Env-v0,130,321.50594688913657,167480,621,1283.4831199645996,48.81848907470703,,36.733245849609375,0.84
166,MetaDrive-Tut-20Env-v0,130,320.7724767603515,168315,623,1289.6223266124725,46.52476119995117,-47.68135070800781,14.889753341674805,0.84
167,MetaDrive-Tut-20Env-v0,130,320.4468700330051,169207,625,1296.2742764949799,46.753807067871094,-47.10697937011719,16.098346710205078,0.84
168,MetaDrive-Tut-20Env-v0,130,323.9130679804165,170320,627,1306.0455904006958,49.2343635559082,,7.594933032989502,0.85
169,MetaDrive-Tut-20Env-v0,130,322.4148031913343,171091,629,1311.6901779174805,46.01658630371094,-46.264732360839844,9.110967636108398,0.85
170,MetaDrive-Tut-20Env-v0,130,324.95127965064177,172394,632,1322.056180715561,46.37207794189453,,11.405401229858398,0.86
171,MetaDrive-Tut-20Env-v0,130,328.51667054858785,173480,634,1331.6886241436005,47.998199462890625,,6.710348606109619,0.86
172,MetaDrive-Tut-20Env-v0,130,328.8377878824572,174567,636,1340.9957911968231,48.30134963989258,-49.73374557495117,10.285303115844727,0.86
173,MetaDrive-Tut-20Env-v0,130,325.88609854097786,175194,638,1345.4477384090424,47.38359069824219,,18.15444564819336,0.85
174,MetaDrive-Tut-20Env-v0,130,326.21831374033485,176279,640,1353.8041315078735,49.02480697631836,-48.96148681640625,15.501522064208984,0.86
175,MetaDrive-Tut-20Env-v0,130,327.7039872840024,177329,642,1362.214094877243,48.0959587097168,-48.99805450439453,5.9900665283203125,0.86
176,MetaDrive-Tut-20Env-v0,130,331.72319616256163,178424,644,1371.1335082054138,46.472164154052734,,8.973626136779785,0.87
177,MetaDrive-Tut-20Env-v0,130,333.0516459667215,179002,645,1375.9872031211853,47.10130310058594,,5.940165996551514,0.87
178,MetaDrive-Tut-20Env-v0,129,330.61007384185393,180272,648,1387.0840349197388,47.21430969238281,,6.985226631164551,0.86
179,MetaDrive-Tut-20Env-v0,129,328.1854747492048,181079,650,1393.1409010887146,48.11321258544922,-49.51537322998047,38.39195251464844,0.86
180,MetaDrive-Tut-20Env-v0,129,326.575075324935,182223,653,1402.655195236206,45.62141418457031,-46.07368469238281,25.427082061767578,0.85
181,MetaDrive-Tut-20Env-v0,129,333.0913015721879,183237,655,1411.0556373596191,47.3028450012207,-48.43010330200195,14.512298583984375,0.87
182,MetaDrive-Tut-20Env-v0,129,333.432558101544,184149,657,1418.5158104896545,47.18206787109375,-47.96478271484375,7.784032344818115,0.87
183,MetaDrive-Tut-20Env-v0,129,335.4960110930338,185108,659,1426.066329240799,46.565895080566406,,10.48095417022705,0.88
184,MetaDrive-Tut-20Env-v0,129,332.5724850913143,186193,662,1434.2176258563995,47.6344108581543,-48.042816162109375,6.935473918914795,0.87
185,MetaDrive-Tut-20Env-v0,129,335.9189537199621,187360,664,1443.841816663742,48.453125,,11.304143905639648,0.87
186,MetaDrive-Tut-20Env-v0,129,334.08126268562717,188174,666,1450.0832645893097,43.36158752441406,,16.25728416442871,0.87
187,MetaDrive-Tut-20Env-v0,129,333.2604979112455,189009,668,1456.6896827220917,48.22384262084961,-48.678627014160156,10.03343677520752,0.87
188,MetaDrive-Tut-20Env-v0,129,334.12790158115,190323,671,1467.6744031906128,49.09938430786133,-49.21746826171875,13.538064002990723,0.87
189,MetaDrive-Tut-20Env-v0,129,340.19000248634615,191566,673,1478.7884588241577,47.807830810546875,,6.098583698272705,0.88
190,MetaDrive-Tut-20Env-v0,129,340.2103142555004,192196,674,1485.1435494422913,45.68301010131836,,7.665609359741211,0.88
191,MetaDrive-Tut-20Env-v0,129,343.4707915198403,193410,676,1496.669973373413,48.549617767333984,,8.136582374572754,0.88
192,MetaDrive-Tut-20Env-v0,129,344.85939146765077,194388,678,1504.9895808696747,47.02899932861328,,9.523255348205566,0.88
193,MetaDrive-Tut-20Env-v0,129,346.8755788701639,195304,680,1513.0087823867798,46.319881439208984,,8.702296257019043,0.89
194,MetaDrive-Tut-20Env-v0,129,345.4070580205277,196076,682,1519.735456943512,49.49871826171875,,10.20585823059082,0.89
195,MetaDrive-Tut-20Env-v0,128,347.35879685806754,197546,685,1532.00270652771,48.52158737182617,,6.970334053039551,0.9
196,MetaDrive-Tut-20Env-v0,128,350.89845021140485,198103,686,1536.6890552043915,44.55831527709961,-44.277099609375,5.802914619445801,0.91
197,MetaDrive-Tut-20Env-v0,128,347.9009734647389,199099,689,1545.032971382141,48.109073638916016,-48.56202697753906,5.604995250701904,0.91
198,MetaDrive-Tut-20Env-v0,128,350.22725480034757,200080,691,1553.2270169258118,47.65355682373047,,12.346779823303223,0.92
199,MetaDrive-Tut-20Env-v0,128,345.81467058927615,201240,694,1562.2434527873993,47.454219818115234,,6.502893447875977,0.91
200,MetaDrive-Tut-20Env-v0,128,343.64230569426354,202207,696,1570.72886800766,48.10417938232422,-48.73957443237305,9.485838890075684,0.91
201,MetaDrive-Tut-20Env-v0,128,339.256350766427,203111,699,1577.2947044372559,46.08222961425781,-47.013999938964844,10.688237190246582,0.91
202,MetaDrive-Tut-20Env-v0,128,338.61816010462564,204165,701,1585.6086385250092,46.60417556762695,-46.13774108886719,11.932119369506836,0.91
203,MetaDrive-Tut-20Env-v0,128,337.48035679382724,205315,703,1594.9343519210815,48.72214126586914,-49.05390930175781,5.912537574768066,0.91
204,MetaDrive-Tut-20Env-v0,128,338.3616425864426,206311,705,1603.2974739074707,46.049381256103516,-46.28153991699219,5.827841281890869,0.91
205,MetaDrive-Tut-20Env-v0,128,339.13240616422,207183,707,1610.386836528778,47.740814208984375,-47.851688385009766,11.72808837890625,0.91
206,MetaDrive-Tut-20Env-v0,128,341.0037559423206,208020,709,1617.823370218277,46.32413101196289,,11.543502807617188,0.91
207,MetaDrive-Tut-20Env-v0,128,335.14510228875116,209052,713,1625.2121663093567,48.80713653564453,,9.907636642456055,0.9
208,MetaDrive-Tut-20Env-v0,128,333.85309774993453,210172,716,1633.8666987419128,46.43980407714844,,7.441010475158691,0.89
209,MetaDrive-Tut-20Env-v0,128,334.2026890110363,211090,718,1640.9238696098328,46.165443420410156,,6.69162130355835,0.89
210,MetaDrive-Tut-20Env-v0,128,330.5974543100636,212088,721,1648.437816619873,47.841339111328125,,7.735363006591797,0.88
211,MetaDrive-Tut-20Env-v0,128,328.8470537702205,213229,724,1656.75958776474,47.41222381591797,-47.53721237182617,16.513656616210938,0.88
212,MetaDrive-Tut-20Env-v0,128,322.465824329529,214098,727,1663.6425075531006,49.393348693847656,,6.725857734680176,0.86
213,MetaDrive-Tut-20Env-v0,128,323.99469581101897,215156,729,1672.006463766098,46.95868682861328,,7.177377223968506,0.86
214,MetaDrive-Tut-20Env-v0,128,326.79374630317113,216320,731,1681.6631979942322,45.86183166503906,,10.65550708770752,0.86
215,MetaDrive-Tut-20Env-v0,128,325.1935493339365,217131,733,1688.629642009735,47.554115295410156,-47.909523010253906,7.915544509887695,0.85
216,MetaDrive-Tut-20Env-v0,128,325.21436874858233,218180,735,1697.1890842914581,46.62587356567383,,9.39297866821289,0.85
217,MetaDrive-Tut-20Env-v0,128,321.6371751674988,219054,738,1703.5544757843018,48.880165100097656,,5.97461462020874,0.84
218,MetaDrive-Tut-20Env-v0,128,316.63086930914875,220006,741,1711.044572353363,47.352142333984375,,10.213152885437012,0.83
219,MetaDrive-Tut-20Env-v0,128,313.81209714543087,221402,744,1723.4047627449036,48.71803283691406,,8.477992057800293,0.81
220,MetaDrive-Tut-20Env-v0,128,311.5597500452432,222243,746,1731.1621329784393,48.025569915771484,-47.59342956542969,13.270983695983887,0.81
221,MetaDrive-Tut-20Env-v0,128,310.85215875864907,223094,748,1738.0850551128387,49.46223831176758,,10.282875061035156,0.81
222,MetaDrive-Tut-20Env-v0,128,308.982009895746,224327,752,1749.191180229187,47.5944709777832,-47.38550567626953,21.04290199279785,0.8
223,MetaDrive-Tut-20Env-v0,128,304.95356722848743,225012,754,1755.7595567703247,47.29389190673828,,7.47627067565918,0.79
224,MetaDrive-Tut-20Env-v0,128,300.20370528807854,226110,758,1764.4931139945984,46.385562896728516,,21.799510955810547,0.78
225,MetaDrive-Tut-20Env-v0,128,298.6752307177772,227171,761,1772.9848203659058,47.108585357666016,-47.06775665283203,8.897907257080078,0.78
226,MetaDrive-Tut-20Env-v0,127,293.56981756991235,228150,764,1782.4246871471405,48.41831970214844,,5.549923419952393,0.76
227,MetaDrive-Tut-20Env-v0,127,293.6910119364397,229222,766,1790.8695225715637,46.40097427368164,,10.839495658874512,0.76
228,MetaDrive-Tut-20Env-v0,127,293.7476431320546,230135,768,1798.2282376289368,43.7166633605957,-44.48567199707031,23.3745174407959,0.76
229,MetaDrive-Tut-20Env-v0,127,293.22104139403706,231037,770,1805.114370584488,46.57220458984375,-46.70568084716797,10.363533020019531,0.76
230,MetaDrive-Tut-20Env-v0,127,291.5066199824131,232586,773,1817.1696577072144,49.390342712402344,,8.697929382324219,0.76
231,MetaDrive-Tut-20Env-v0,127,290.7454937631499,233159,774,1822.3089072704315,47.7697639465332,-48.36004638671875,25.444765090942383,0.76
232,MetaDrive-Tut-20Env-v0,127,289.45864376481023,234272,776,1831.100067615509,46.60302734375,,11.25516414642334,0.76
233,MetaDrive-Tut-20Env-v0,127,288.3304326544482,235221,778,1838.5691323280334,45.09706497192383,-46.25299072265625,6.180299758911133,0.75
234,MetaDrive-Tut-20Env-v0,127,287.0279876132357,236496,781,1848.3461067676544,43.04560852050781,,11.565629959106445,0.74
235,MetaDrive-Tut-20Env-v0,127,289.0578605657756,237127,782,1853.6744902133942,45.90332794189453,-46.862884521484375,11.775511741638184,0.74
236,MetaDrive-Tut-20Env-v0,127,287.1505435268861,238089,784,1861.0711460113525,46.69353485107422,-47.575130462646484,10.990154266357422,0.74
237,MetaDrive-Tut-20Env-v0,127,288.7079390045438,239339,786,1872.7172746658325,47.98751449584961,-47.763946533203125,17.359140396118164,0.74
238,MetaDrive-Tut-20Env-v0,127,290.0011992260881,240295,788,1879.898862361908,45.68617248535156,-45.72296142578125,5.804825305938721,0.75
239,MetaDrive-Tut-20Env-v0,127,290.40886526355314,241211,790,1887.1885738372803,45.98992156982422,-45.54096221923828,7.564096450805664,0.75
240,MetaDrive-Tut-20Env-v0,127,290.91179522114015,242420,792,1897.2971551418304,45.38817596435547,,8.826022148132324,0.75
241,MetaDrive-Tut-20Env-v0,127,291.5971385252126,243232,794,1903.2671959400177,47.02454376220703,,12.35604190826416,0.75
242,MetaDrive-Tut-20Env-v0,127,291.5182343454776,244301,796,1911.8495516777039,46.769840240478516,-47.84303665161133,10.41485595703125,0.75
243,MetaDrive-Tut-20Env-v0,127,294.5302609043459,245203,798,1918.3691492080688,45.34895324707031,-45.710296630859375,22.940000534057617,0.76
244,MetaDrive-Tut-20Env-v0,127,297.65993363010585,246474,800,1928.739717721939,46.07853698730469,,5.4235992431640625,0.76
245,MetaDrive-Tut-20Env-v0,127,295.12737195558634,247399,802,1936.209588766098,45.47998809814453,-46.09565734863281,16.184406280517578,0.76
246,MetaDrive-Tut-20Env-v0,127,295.79733762479646,248073,803,1942.3050467967987,46.82576370239258,-47.15281295776367,9.337745666503906,0.76
247,MetaDrive-Tut-20Env-v0,127,298.3251091764542,249342,805,1954.0812101364136,46.54997634887695,,6.299154758453369,0.76
248,MetaDrive-Tut-20Env-v0,127,300.0765899758842,250579,807,1964.5708298683167,45.08745574951172,-44.68107604980469,9.986881256103516,0.76
249,MetaDrive-Tut-20Env-v0,127,300.70460401724483,251592,809,1972.4830060005188,47.047119140625,,9.396280288696289,0.77
250,MetaDrive-Tut-20Env-v0,127,303.173008777162,252090,810,1976.052662372589,44.81808853149414,,11.09323787689209,0.78
251,MetaDrive-Tut-20Env-v0,127,307.0924081831325,253159,812,1984.6344645023346,43.73265075683594,-43.95254135131836,14.405952453613281,0.79
252,MetaDrive-Tut-20Env-v0,127,311.62838454304546,254320,814,1994.6144783496857,46.64702606201172,,7.092559814453125,0.8
253,MetaDrive-Tut-20Env-v0,127,312.5349423405252,255528,816,2005.3579931259155,45.457366943359375,,5.3308916091918945,0.8
254,MetaDrive-Tut-20Env-v0,127,310.44550908030396,256336,818,2012.086077451706,46.20764923095703,,10.909086227416992,0.79
255,MetaDrive-Tut-20Env-v0,127,312.65879155349086,257268,820,2018.477581501007,46.4222297668457,,10.318471908569336,0.8
256,MetaDrive-Tut-20Env-v0,127,312.2520872452106,258290,822,2025.6686289310455,45.64887619018555,,8.752303123474121,0.8
257,MetaDrive-Tut-20Env-v0,127,311.86706396203925,259089,824,2030.9798607826233,45.723915100097656,-45.78173065185547,22.240833282470703,0.79
258,MetaDrive-Tut-20Env-v0,127,313.872715487722,260113,826,2037.9636962413788,44.51622772216797,-44.76044464111328,7.77116584777832,0.8
259,MetaDrive-Tut-20Env-v0,127,311.64826778492693,261045,829,2043.9056646823883,44.910831451416016,-46.065208435058594,6.570860862731934,0.8
260,MetaDrive-Tut-20Env-v0,127,309.19818734124425,262073,831,2052.0384380817413,43.98119354248047,-44.24913787841797,32.074974060058594,0.79
261,MetaDrive-Tut-20Env-v0,127,310.54518351013445,263138,833,2061.2333595752716,43.70920181274414,,20.15310287475586,0.8
262,MetaDrive-Tut-20Env-v0,127,309.1747885526469,264181,835,2069.546712875366,45.48419189453125,-45.48023986816406,6.153940200805664,0.8
263,MetaDrive-Tut-20Env-v0,127,312.56859260337876,265366,837,2081.540177822113,44.30319595336914,,7.422358512878418,0.81
264,MetaDrive-Tut-20Env-v0,127,317.13440981288164,266415,839,2091.876738548279,47.093650817871094,-46.94721984863281,7.421883583068848,0.82
265,MetaDrive-Tut-20Env-v0,127,316.55877764163654,267049,841,2096.3675525188446,43.4438591003418,-44.6810302734375,11.02004623413086,0.82
266,MetaDrive-Tut-20Env-v0,127,317.97674483000975,268025,843,2102.860519170761,45.177574157714844,-46.07196807861328,7.438197612762451,0.84
267,MetaDrive-Tut-20Env-v0,127,315.511999708578,269255,846,2113.1977717876434,44.56660461425781,-45.7086181640625,9.096441268920898,0.83
268,MetaDrive-Tut-20Env-v0,127,315.25370764113495,270045,848,2119.956663131714,46.7634162902832,-46.510677337646484,5.319204330444336,0.83
269,MetaDrive-Tut-20Env-v0,127,318.78941395616533,271149,850,2129.136402606964,45.66510772705078,-45.9363899230957,8.348522186279297,0.84
270,MetaDrive-Tut-20Env-v0,127,319.83766985696707,272126,852,2136.9083609580994,43.31246566772461,,10.075995445251465,0.85
271,MetaDrive-Tut-20Env-v0,127,324.0171418001717,273524,855,2148.4317333698273,45.340721130371094,,6.901055335998535,0.86
272,MetaDrive-Tut-20Env-v0,127,322.08732646376455,274158,857,2153.2143700122833,42.92665100097656,,8.665449142456055,0.85
273,MetaDrive-Tut-20Env-v0,127,325.53456466217324,275169,859,2160.842465877533,47.01752471923828,-47.492286682128906,9.134385108947754,0.86
274,MetaDrive-Tut-20Env-v0,127,325.23489644087175,276170,860,2167.2918803691864,44.7633056640625,,10.395804405212402,0.85
275,MetaDrive-Tut-20Env-v0,127,327.55074829675397,277171,861,2175.4811918735504,43.39189529418945,-43.08192443847656,9.988687515258789,0.84
276,MetaDrive-Tut-20Env-v0,127,328.9190692784796,278172,862,2182.2669517993927,42.56632995605469,,20.331466674804688,0.84
277,MetaDrive-Tut-20Env-v0,127,332.22558516285477,279173,863,2189.8143384456635,44.818485260009766,-45.24094009399414,18.225444793701172,0.84
278,MetaDrive-Tut-20Env-v0,127,330.76325869679386,280174,864,2197.587920188904,41.965389251708984,,8.161980628967285,0.83
279,MetaDrive-Tut-20Env-v0,127,330.29730383431075,281175,865,2204.1934061050415,40.619789123535156,-41.66583251953125,9.585814476013184,0.82
280,MetaDrive-Tut-20Env-v0,127,330.66313100631925,282611,867,2213.5909876823425,43.61298370361328,-44.18605041503906,9.114448547363281,0.82
281,MetaDrive-Tut-20Env-v0,127,329.1431524920952,283514,869,2220.028026342392,44.78858184814453,,6.072740077972412,0.81
282,MetaDrive-Tut-20Env-v0,127,330.4599195112146,284123,870,2225.2845010757446,43.97705841064453,-44.18024444580078,8.093260765075684,0.81
283,MetaDrive-Tut-20Env-v0,127,330.1906534635634,285029,872,2231.805956363678,43.77672576904297,-45.11992645263672,12.284900665283203,0.81
284,MetaDrive-Tut-20Env-v0,127,325.2367000140311,286239,875,2240.017769098282,44.10985565185547,-45.24998092651367,10.733599662780762,0.81
285,MetaDrive-Tut-20Env-v0,127,325.6534774635325,287264,877,2248.913722038269,41.72412109375,,6.696622371673584,0.81
286,MetaDrive-Tut-20Env-v0,127,326.79543615954265,288286,880,2257.58300614357,43.403076171875,,5.090806007385254,0.82
287,MetaDrive-Tut-20Env-v0,127,323.9221024176435,289153,882,2263.8902912139893,40.94371032714844,-41.35069274902344,8.748661041259766,0.82
288,MetaDrive-Tut-20Env-v0,127,317.6712027910962,290434,886,2274.2351825237274,43.557579040527344,,8.204221725463867,0.8
289,MetaDrive-Tut-20Env-v0,127,319.6616467847944,291459,888,2283.2549724578857,43.059669494628906,-43.281436920166016,11.12527084350586,0.8
290,MetaDrive-Tut-20Env-v0,127,320.6207574333733,292001,889,2289.2243990898132,43.21112823486328,-43.809234619140625,8.106757164001465,0.8
291,MetaDrive-Tut-20Env-v0,127,322.6938892518365,293141,891,2300.9626269340515,42.40510940551758,-42.98072052001953,11.724145889282227,0.8
292,MetaDrive-Tut-20Env-v0,127,322.0203167776348,294028,893,2308.2490670681,44.403907775878906,,8.778128623962402,0.8
293,MetaDrive-Tut-20Env-v0,127,323.86724424848626,295094,895,2317.1624851226807,42.06056213378906,,27.617353439331055,0.81
294,MetaDrive-Tut-20Env-v0,127,319.4384549012844,296315,899,2326.922485113144,42.15733337402344,-42.06352996826172,10.58084487915039,0.79
295,MetaDrive-Tut-20Env-v0,127,317.9377568954123,297314,901,2335.1474573612213,43.57516860961914,,13.189981460571289,0.79
296,MetaDrive-Tut-20Env-v0,127,317.7869393008761,298417,903,2344.507237672806,45.618629455566406,-46.18479919433594,7.744584083557129,0.79
297,MetaDrive-Tut-20Env-v0,127,315.6525144544442,299481,905,2353.1565079689026,42.663177490234375,-42.93597412109375,4.003567695617676,0.79
298,MetaDrive-Tut-20Env-v0,127,312.73773918190574,300418,907,2360.9672787189484,43.0623779296875,,5.829685211181641,0.78
299,MetaDrive-Tut-20Env-v0,127,312.51985634558815,301344,909,2368.9566292762756,44.15363311767578,,7.416224479675293,0.78
300,MetaDrive-Tut-20Env-v0,127,311.95953667792475,302185,911,2376.4562096595764,41.644683837890625,-41.894752502441406,14.393800735473633,0.78
301,MetaDrive-Tut-20Env-v0,127,311.3236246455616,303400,913,2387.9333486557007,43.30070877075195,,9.582099914550781,0.78
302,MetaDrive-Tut-20Env-v0,126,313.2901445016876,304014,914,2394.1769700050354,42.858951568603516,,12.791003227233887,0.78
303,MetaDrive-Tut-20Env-v0,126,314.48076647955367,305187,916,2406.098521232605,43.42347717285156,-43.71885299682617,16.033119201660156,0.78
304,MetaDrive-Tut-20Env-v0,126,315.0805725511304,306354,919,2417.3425347805023,42.24022674560547,,6.010584831237793,0.78
305,MetaDrive-Tut-20Env-v0,126,314.5200452534857,307083,921,2423.2478132247925,41.10188293457031,-41.545684814453125,13.257625579833984,0.78
306,MetaDrive-Tut-20Env-v0,126,315.91131103991347,308062,923,2430.5923402309418,41.52299118041992,,12.830107688903809,0.79
307,MetaDrive-Tut-20Env-v0,126,312.99921200291857,309132,926,2439.4518945217133,43.21493911743164,,14.267778396606445,0.78
308,MetaDrive-Tut-20Env-v0,126,314.7318065531549,310086,928,2448.40144944191,44.24247360229492,,8.767814636230469,0.78
309,MetaDrive-Tut-20Env-v0,126,318.42522287271976,311224,930,2459.1017723083496,42.45903396606445,,6.105302810668945,0.8
310,MetaDrive-Tut-20Env-v0,126,320.0450609903064,312079,932,2466.222918987274,42.776912689208984,-43.479915618896484,5.671657085418701,0.8
311,MetaDrive-Tut-20Env-v0,126,315.68008846004795,313116,935,2473.870136976242,45.15013122558594,,9.728662490844727,0.79
312,MetaDrive-Tut-20Env-v0,126,307.97986172645335,314277,939,2481.8565635681152,42.39645767211914,-42.78091812133789,15.088406562805176,0.78
313,MetaDrive-Tut-20Env-v0,126,312.4989823577646,315287,941,2489.981381893158,43.933860778808594,-44.35177230834961,12.940571784973145,0.79
314,MetaDrive-Tut-20Env-v0,126,315.14513490005214,316385,943,2500.008708715439,43.048030853271484,-43.3752326965332,6.89666748046875,0.79
315,MetaDrive-Tut-20Env-v0,126,316.57685726338144,317254,945,2508.2821435928345,43.42434310913086,,9.161476135253906,0.79
316,MetaDrive-Tut-20Env-v0,126,318.12718039225484,318147,947,2516.5259041786194,42.443626403808594,-42.73462677001953,11.676833152770996,0.8
317,MetaDrive-Tut-20Env-v0,126,320.00571749156785,319137,949,2525.6874465942383,42.64173126220703,-43.706478118896484,6.004101753234863,0.81
318,MetaDrive-Tut-20Env-v0,126,321.50221515419685,320038,951,2533.3999536037445,42.07444381713867,,10.021946907043457,0.81
319,MetaDrive-Tut-20Env-v0,126,321.8762335968407,321213,954,2542.47727560997,44.55099868774414,-44.38670349121094,9.553476333618164,0.82
320,MetaDrive-Tut-20Env-v0,126,322.7946445412423,322302,957,2550.8929328918457,44.13871765136719,,21.27033805847168,0.83
321,MetaDrive-Tut-20Env-v0,126,321.90621839258927,323109,959,2556.905084848404,42.4902229309082,-42.4986686706543,6.669142723083496,0.83
322,MetaDrive-Tut-20Env-v0,126,320.8416137895799,324005,961,2564.2803814411163,44.37017822265625,-44.53041458129883,7.859884262084961,0.85
323,MetaDrive-Tut-20Env-v0,126,320.46501649631176,325336,964,2576.038053750992,44.44282531738281,,5.198325157165527,0.88
324,MetaDrive-Tut-20Env-v0,126,321.66696672138164,326467,966,2587.0759642124176,44.845542907714844,-45.23107147216797,13.427043914794922,0.89
325,MetaDrive-Tut-20Env-v0,126,322.58487091257666,327303,968,2594.3767018318176,43.937522888183594,-44.45695877075195,4.473629951477051,0.9
326,MetaDrive-Tut-20Env-v0,126,322.2106017833741,328386,970,2604.2702689170837,43.520973205566406,,5.753679275512695,0.9
327,MetaDrive-Tut-20Env-v0,126,318.94849850002726,329296,973,2611.645343065262,43.27337646484375,,9.558439254760742,0.88
328,MetaDrive-Tut-20Env-v0,126,320.55401222536165,330301,975,2620.617087841034,42.877174377441406,-43.18244934082031,8.26509952545166,0.88
329,MetaDrive-Tut-20Env-v0,126,319.5375620224778,331232,977,2628.00856590271,42.809059143066406,,10.098867416381836,0.88
330,MetaDrive-Tut-20Env-v0,126,320.5321251577781,332004,979,2634.174071073532,43.53644943237305,,8.17056655883789,0.89
331,MetaDrive-Tut-20Env-v0,126,321.0885938846886,333201,982,2643.725676059723,44.287147521972656,-44.755699157714844,7.994137763977051,0.88
332,MetaDrive-Tut-20Env-v0,126,325.71739110096905,334157,984,2651.6658928394318,42.246185302734375,-42.15979766845703,6.028838157653809,0.9
333,MetaDrive-Tut-20Env-v0,126,327.0100301250147,335205,986,2660.335529565811,42.51884078979492,-42.69721603393555,8.185184478759766,0.9
334,MetaDrive-Tut-20Env-v0,125,328.60188363878495,336353,988,2670.546772956848,45.27132034301758,-45.9930534362793,14.177739143371582,0.9
335,MetaDrive-Tut-20Env-v0,125,321.285240772881,337248,991,2678.158282995224,42.73747253417969,,6.497859001159668,0.89
336,MetaDrive-Tut-20Env-v0,125,322.16275325519325,338296,993,2686.447093486786,45.0644645690918,,6.366098880767822,0.89
337,MetaDrive-Tut-20Env-v0,125,320.85732084632815,339235,995,2694.121874332428,43.251495361328125,-43.2181396484375,5.717328071594238,0.89
338,MetaDrive-Tut-20Env-v0,125,325.56914185766504,340398,997,2703.93576836586,43.1451416015625,,5.758105278015137,0.9
339,MetaDrive-Tut-20Env-v0,125,326.58394053514724,341123,999,2709.378419160843,40.819427490234375,-41.160247802734375,9.288660049438477,0.91
340,MetaDrive-Tut-20Env-v0,125,327.8431609500926,342182,1001,2718.3933675289154,43.75548553466797,,5.887331008911133,0.91
341,MetaDrive-Tut-20Env-v0,125,327.7490560388512,343111,1003,2726.2140357494354,41.427738189697266,-41.482322692871094,5.697368144989014,0.91
342,MetaDrive-Tut-20Env-v0,125,327.75531642621974,344334,1006,2737.2003843784332,41.47609329223633,,15.017422676086426,0.91
343,MetaDrive-Tut-20Env-v0,125,327.3258250533193,345223,1008,2745.2516388893127,42.29403305053711,-42.64066696166992,14.642826080322266,0.91
344,MetaDrive-Tut-20Env-v0,125,328.1146059336147,346339,1010,2755.1213183403015,45.28436279296875,-45.82864761352539,18.123291015625,0.91
345,MetaDrive-Tut-20Env-v0,125,329.93138729541863,347487,1012,2765.0810832977295,43.53715133666992,-43.85002517700195,6.149362564086914,0.91
346,MetaDrive-Tut-20Env-v0,125,330.84831392541184,348079,1013,2770.7580592632294,40.92054748535156,-40.85723876953125,11.837379455566406,0.91
347,MetaDrive-Tut-20Env-v0,125,329.06596005185753,349172,1015,2779.7135496139526,41.37945556640625,,5.849119663238525,0.91
348,MetaDrive-Tut-20Env-v0,125,330.5838220332317,350083,1017,2787.6681838035583,41.058258056640625,-41.28555679321289,6.733277320861816,0.91
349,MetaDrive-Tut-20Env-v0,125,327.6723277656667,351132,1020,2796.026925086975,42.138736724853516,,5.636218070983887,0.9
350,MetaDrive-Tut-20Env-v0,125,325.3180428263481,352092,1023,2803.6458060741425,43.317989349365234,,8.464956283569336,0.89
351,MetaDrive-Tut-20Env-v0,125,328.9917583005239,353099,1025,2811.342939376831,44.87150192260742,-45.576053619384766,6.741569995880127,0.9
352,MetaDrive-Tut-20Env-v0,125,326.6547338111084,354269,1028,2821.1801512241364,41.27029800415039,-40.768211364746094,6.73702335357666,0.89
353,MetaDrive-Tut-20Env-v0,125,327.15500951875106,355275,1030,2829.797937631607,42.08396530151367,-42.13036346435547,14.256290435791016,0.89
354,MetaDrive-Tut-20Env-v0,125,328.74528506321525,356387,1032,2839.1107845306396,43.278404235839844,-44.09282684326172,6.698792934417725,0.89
355,MetaDrive-Tut-20Env-v0,125,331.4119078345834,357374,1034,2846.668603181839,40.390037536621094,,9.773801803588867,0.9
356,MetaDrive-Tut-20Env-v0,125,332.44032649947695,358296,1036,2853.985890865326,42.996517181396484,,11.756574630737305,0.9
357,MetaDrive-Tut-20Env-v0,125,337.73431460090796,359459,1038,2863.821356534958,41.77360534667969,-41.07975769042969,7.680067539215088,0.91
358,MetaDrive-Tut-20Env-v0,125,335.36434692512375,360198,1040,2870.1007013320923,41.90460968017578,,10.041871070861816,0.9
359,MetaDrive-Tut-20Env-v0,125,331.7905964080925,361493,1043,2880.383306980133,41.86857986450195,-42.22380065917969,5.5201873779296875,0.89
360,MetaDrive-Tut-20Env-v0,125,332.1908817880629,362016,1044,2884.679518222809,41.322227478027344,,5.991827487945557,0.89
361,MetaDrive-Tut-20Env-v0,125,332.55608375555994,363044,1046,2892.9824347496033,40.669342041015625,,13.200799942016602,0.89
362,MetaDrive-Tut-20Env-v0,125,333.01142003132986,364513,1049,2905.1269376277924,42.70653533935547,-42.72010040283203,9.142337799072266,0.89
363,MetaDrive-Tut-20Env-v0,125,332.2046114912431,365113,1050,2910.5687820911407,44.324981689453125,-44.52777862548828,6.414617538452148,0.89
364,MetaDrive-Tut-20Env-v0,125,332.9154544666333,366072,1052,2917.9115719795227,44.184104919433594,,9.918207168579102,0.89
365,MetaDrive-Tut-20Env-v0,125,327.33424556028706,367179,1057,2925.3701841831207,42.18639373779297,-43.66986083984375,7.8340959548950195,0.86
366,MetaDrive-Tut-20Env-v0,125,328.740278863826,368127,1059,2932.1542921066284,42.48212432861328,-42.659671783447266,7.405194282531738,0.86
367,MetaDrive-Tut-20Env-v0,125,329.04804311471963,369466,1062,2942.1005177497864,42.59895324707031,,7.099213600158691,0.86
368,MetaDrive-Tut-20Env-v0,125,330.0589211272153,370452,1064,2950.7414333820343,42.218685150146484,,15.679800033569336,0.86
369,MetaDrive-Tut-20Env-v0,125,329.30733910026095,371005,1065,2955.5087180137634,42.773948669433594,-43.54756546020508,9.93549633026123,0.86
370,MetaDrive-Tut-20Env-v0,125,330.96383041731207,372507,1068,2968.120034456253,44.580223083496094,-45.268150329589844,7.4275288581848145,0.86
371,MetaDrive-Tut-20Env-v0,125,332.43321138451705,373113,1069,2973.318806886673,42.69403076171875,-42.39786911010742,6.488073348999023,0.86
372,MetaDrive-Tut-20Env-v0,125,332.73398123121245,374038,1071,2981.3750426769257,42.797088623046875,,7.668575286865234,0.86
373,MetaDrive-Tut-20Env-v0,125,336.0942202969885,375282,1074,2992.042220592499,41.21421813964844,,6.260463237762451,0.87
374,MetaDrive-Tut-20Env-v0,125,336.82823560390693,376338,1076,3000.899190425873,41.8282585144043,,7.6677446365356445,0.87
375,MetaDrive-Tut-20Env-v0,125,337.1655559528502,377122,1078,3007.1041831970215,42.30345916748047,,10.783540725708008,0.87
376,MetaDrive-Tut-20Env-v0,125,336.04880119463394,378110,1081,3014.537314414978,41.128379821777344,,7.924964904785156,0.86
377,MetaDrive-Tut-20Env-v0,125,336.81392798890016,379285,1083,3024.9138734340668,41.215675354003906,-41.11906051635742,9.188674926757812,0.86
378,MetaDrive-Tut-20Env-v0,125,337.0863788886477,380427,1085,3034.754418849945,42.37336349487305,-42.41709518432617,8.090017318725586,0.85
379,MetaDrive-Tut-20Env-v0,125,334.97376324044626,381165,1087,3040.4309771060944,41.229591369628906,-41.00439453125,5.530789375305176,0.85
380,MetaDrive-Tut-20Env-v0,125,336.4249592210581,382326,1090,3049.9340648651123,41.89360427856445,,7.59356689453125,0.85
381,MetaDrive-Tut-20Env-v0,125,335.016776644718,383104,1092,3056.8701996803284,42.92852020263672,,8.867301940917969,0.85
382,MetaDrive-Tut-20Env-v0,125,333.44780233445715,384445,1095,3068.3766367435455,42.23399353027344,-42.24274444580078,12.605171203613281,0.84
383,MetaDrive-Tut-20Env-v0,125,328.88851681894545,385010,1097,3073.2255806922913,43.1475715637207,,7.053762435913086,0.83
384,MetaDrive-Tut-20Env-v0,125,325.44851612881376,386395,1101,3085.571341753006,43.06090545654297,-43.25314712524414,9.712201118469238,0.81
385,MetaDrive-Tut-20Env-v0,125,323.19220132577857,387156,1104,3091.9894502162933,42.88497543334961,,5.155544281005859,0.8
386,MetaDrive-Tut-20Env-v0,125,318.62455580827987,388416,1107,3102.045343399048,41.541465759277344,,8.509279251098633,0.78
387,MetaDrive-Tut-20Env-v0,125,317.76745247246936,389194,1109,3108.0555922985077,41.76743698120117,,5.964666366577148,0.78
388,MetaDrive-Tut-20Env-v0,125,312.34669068721445,390194,1112,3115.7726006507874,41.217594146728516,,7.366833686828613,0.77
389,MetaDrive-Tut-20Env-v0,125,309.3228565270314,391035,1114,3122.3195004463196,40.35496520996094,-40.16670227050781,9.682175636291504,0.77
390,MetaDrive-Tut-20Env-v0,125,310.9909990878532,392013,1116,3130.6467707157135,42.65071105957031,-42.48408508300781,7.795835971832275,0.78
391,MetaDrive-Tut-20Env-v0,125,308.0499651471634,393243,1120,3140.078871488571,43.07585906982422,-43.15279006958008,6.129909515380859,0.78
392,MetaDrive-Tut-20Env-v0,125,308.8710256671342,394232,1122,3148.5684430599213,40.49120330810547,,9.346141815185547,0.78
393,MetaDrive-Tut-20Env-v0,125,309.0754661051219,395273,1125,3157.7456312179565,43.28046417236328,-42.666114807128906,4.886960983276367,0.78
394,MetaDrive-Tut-20Env-v0,125,311.836116559426,396322,1127,3167.0941576957703,41.39952087402344,,7.637188911437988,0.79
395,MetaDrive-Tut-20Env-v0,125,306.35271182418876,397080,1130,3172.691678762436,41.794029235839844,,9.83116340637207,0.78
396,MetaDrive-Tut-20Env-v0,125,306.14714108760074,398250,1132,3182.520118713379,42.992286682128906,,7.005701541900635,0.78
397,MetaDrive-Tut-20Env-v0,125,306.0225001961706,399131,1134,3189.4427013397217,42.96723175048828,-42.75904846191406,6.69429874420166,0.77
398,MetaDrive-Tut-20Env-v0,125,305.8807366734405,400139,1136,3197.5786414146423,42.79195022583008,-43.28562927246094,13.97537612915039,0.77
399,MetaDrive-Tut-20Env-v0,125,303.46479547442544,401007,1138,3204.1141974925995,42.10396957397461,-41.77705383300781,8.873757362365723,0.77
400,MetaDrive-Tut-20Env-v0,125,307.29342189557343,402274,1141,3214.055020093918,41.792266845703125,,7.598142623901367,0.79
401,MetaDrive-Tut-20Env-v0,125,302.64720842849215,403355,1144,3222.671549797058,40.97828674316406,-40.62704086303711,5.087162017822266,0.78
402,MetaDrive-Tut-20Env-v0,125,301.75664011537106,404295,1146,3230.7776029109955,42.51410675048828,-43.125144958496094,10.08492660522461,0.78
403,MetaDrive-Tut-20Env-v0,125,302.66093667268905,405393,1148,3241.1810116767883,41.0659065246582,-40.989871978759766,6.387673377990723,0.78
404,MetaDrive-Tut-20Env-v0,125,300.38942199387174,406315,1150,3248.6818177700043,41.83058166503906,-42.523963928222656,5.971330642700195,0.78
405,MetaDrive-Tut-20Env-v0,125,301.1087457819804,407282,1152,3256.619761943817,42.489524841308594,,6.920422554016113,0.78
406,MetaDrive-Tut-20Env-v0,125,307.95530126527905,408344,1154,3265.599550008774,41.94734191894531,,6.148960590362549,0.8
407,MetaDrive-Tut-20Env-v0,125,310.3355992882999,409155,1156,3272.522612810135,41.991539001464844,-42.248451232910156,5.779684543609619,0.8
408,MetaDrive-Tut-20Env-v0,125,306.75954659425395,410411,1160,3282.9353330135345,44.03159713745117,-43.486507415771484,6.937622547149658,0.78
409,MetaDrive-Tut-20Env-v0,125,308.0268879492533,411373,1162,3290.7365634441376,41.641841888427734,-41.17808532714844,14.869481086730957,0.78
410,MetaDrive-Tut-20Env-v0,124,307.9903265859146,412410,1164,3299.4583950042725,40.97359085083008,,7.792477130889893,0.78
411,MetaDrive-Tut-20Env-v0,124,306.35037516702994,413230,1166,3306.094516992569,41.1238899230957,,10.972183227539062,0.77
412,MetaDrive-Tut-20Env-v0,124,304.98644233068677,414164,1168,3314.300689458847,42.667274475097656,,6.962215423583984,0.77
413,MetaDrive-Tut-20Env-v0,124,303.93214515835837,415561,1171,3326.253552675247,42.0654296875,-41.3878173828125,8.242165565490723,0.76
414,MetaDrive-Tut-20Env-v0,124,306.71974139058244,416092,1172,3330.6087424755096,42.88164520263672,,8.527490615844727,0.77
415,MetaDrive-Tut-20Env-v0,124,301.22224537016587,417156,1175,3339.402923345566,43.11573791503906,,7.15558385848999,0.75
416,MetaDrive-Tut-20Env-v0,124,303.06695755437465,418204,1177,3348.2091290950775,42.94408416748047,,7.161310195922852,0.75
417,MetaDrive-Tut-20Env-v0,124,301.52421616518643,419488,1181,3358.446008682251,41.288780212402344,,7.972963809967041,0.75
418,MetaDrive-Tut-20Env-v0,124,295.17843127900824,420058,1183,3362.7598764896393,44.88450241088867,,4.715540409088135,0.73
419,MetaDrive-Tut-20Env-v0,124,295.01566226199304,421546,1186,3374.704797744751,43.00278854370117,,11.374593734741211,0.74
420,MetaDrive-Tut-20Env-v0,124,295.47069713593424,422036,1187,3378.682341814041,43.076717376708984,,6.605632781982422,0.74
421,MetaDrive-Tut-20Env-v0,124,294.2519274300818,423019,1190,3386.777726650238,42.117401123046875,-42.90380859375,5.758522987365723,0.74
422,MetaDrive-Tut-20Env-v0,124,297.9610623046429,424606,1193,3401.3785030841827,41.54334259033203,,4.459113597869873,0.74
423,MetaDrive-Tut-20Env-v0,124,299.21599375041666,425479,1195,3407.7897610664368,41.87615966796875,-42.990013122558594,5.026744842529297,0.75
424,MetaDrive-Tut-20Env-v0,124,302.24735522131414,426533,1197,3415.839321374893,40.77581787109375,-40.145111083984375,13.85618782043457,0.76
425,MetaDrive-Tut-20Env-v0,124,304.6593825634079,427263,1199,3420.7378334999084,39.523033142089844,-40.06048583984375,6.432956695556641,0.78
426,MetaDrive-Tut-20Env-v0,124,303.04145619186346,428062,1201,3427.253605365753,43.354774475097656,,6.588915824890137,0.78
427,MetaDrive-Tut-20Env-v0,124,308.1589247316177,429532,1204,3438.9834384918213,43.82077407836914,,6.7072882652282715,0.8
428,MetaDrive-Tut-20Env-v0,124,308.1162957907066,430363,1206,3445.116945028305,40.81226348876953,-40.896331787109375,11.981892585754395,0.82
429,MetaDrive-Tut-20Env-v0,124,308.163907157135,431262,1208,3452.643447160721,41.605491638183594,,7.673862934112549,0.82
430,MetaDrive-Tut-20Env-v0,124,308.9756471831846,432259,1211,3461.6609404087067,41.831214904785156,-42.00314712524414,5.110050201416016,0.82
431,MetaDrive-Tut-20Env-v0,124,311.7609745778975,433326,1213,3470.6847133636475,41.59901428222656,,7.796304702758789,0.82
432,MetaDrive-Tut-20Env-v0,124,307.8354942227661,434096,1215,3476.6612524986267,42.045738220214844,,9.561279296875,0.81
433,MetaDrive-Tut-20Env-v0,124,309.2549726426834,435038,1217,3484.6643302440643,42.67369842529297,,9.040278434753418,0.81
434,MetaDrive-Tut-20Env-v0,124,310.618878744635,436174,1220,3493.1301736831665,42.62577819824219,,6.047928333282471,0.82
435,MetaDrive-Tut-20Env-v0,124,312.1790128298316,437244,1222,3502.4933614730835,43.7596321105957,,7.660163879394531,0.82
436,MetaDrive-Tut-20Env-v0,124,311.713527580157,438195,1225,3509.2150077819824,39.47712707519531,-39.378028869628906,10.32663631439209,0.82
437,MetaDrive-Tut-20Env-v0,124,307.7677893139324,439179,1228,3516.834277153015,43.497196197509766,-44.32271194458008,5.7816386222839355,0.8
438,MetaDrive-Tut-20Env-v0,124,307.20709536450886,440220,1231,3524.8341760635376,42.505680084228516,,6.752935409545898,0.8
439,MetaDrive-Tut-20Env-v0,124,307.6807214452602,441212,1233,3532.0740151405334,42.43057632446289,,11.43629264831543,0.81
440,MetaDrive-Tut-20Env-v0,124,308.84322694352704,442408,1235,3542.075813293457,41.71351623535156,,6.478041648864746,0.81
441,MetaDrive-Tut-20Env-v0,124,309.17803047877396,443225,1237,3548.6285302639008,42.90818786621094,-43.689125061035156,7.021350383758545,0.8
442,MetaDrive-Tut-20Env-v0,124,310.79366758781094,444164,1239,3555.873776435852,40.16346740722656,,8.768733978271484,0.8
443,MetaDrive-Tut-20Env-v0,124,311.34632097047444,445119,1241,3562.883542537689,41.883811950683594,-42.15299987792969,9.095283508300781,0.8
444,MetaDrive-Tut-20Env-v0,124,312.3744671310128,446329,1244,3570.946727514267,39.72600555419922,-39.78968048095703,10.269937515258789,0.81
445,MetaDrive-Tut-20Env-v0,125,308.6251808289064,447352,1247,3578.6350684165955,40.84272003173828,,8.406444549560547,0.8
446,MetaDrive-Tut-20Env-v0,125,309.60407375974836,448330,1249,3586.241156101227,40.8964958190918,,8.503458023071289,0.8
447,MetaDrive-Tut-20Env-v0,125,312.1537317313915,449466,1251,3595.6440284252167,44.06623077392578,,6.457170486450195,0.8
448,MetaDrive-Tut-20Env-v0,124,309.69946560896483,450169,1253,3601.9923179149628,42.18716812133789,-42.13176345825195,7.900539398193359,0.79
449,MetaDrive-Tut-20Env-v0,124,311.8213921460905,451049,1255,3609.47665476799,42.5789909362793,-42.00870895385742,8.641849517822266,0.8
450,MetaDrive-Tut-20Env-v0,124,313.0514060843415,452028,1257,3617.6817541122437,43.96216583251953,,7.568562030792236,0.81
451,MetaDrive-Tut-20Env-v0,124,314.2597747736184,453337,1260,3628.071845769882,41.0087776184082,-41.39209747314453,10.496622085571289,0.81
452,MetaDrive-Tut-20Env-v0,124,310.87549012063687,454392,1263,3637.2663218975067,41.06202697753906,,7.123445510864258,0.8
453,MetaDrive-Tut-20Env-v0,124,310.9775830044635,455441,1265,3646.571013689041,42.027618408203125,-42.1881217956543,7.444899559020996,0.8
454,MetaDrive-Tut-20Env-v0,124,311.78949625696646,456269,1267,3653.3126447200775,43.2625617980957,-43.67246627807617,4.643621444702148,0.81
455,MetaDrive-Tut-20Env-v0,124,314.2205456956523,457115,1269,3662.33051943779,41.82837677001953,-41.33218765258789,6.525928020477295,0.82
456,MetaDrive-Tut-20Env-v0,124,313.14643671996396,458204,1271,3672.1630232334137,41.78128433227539,,7.206676483154297,0.82
457,MetaDrive-Tut-20Env-v0,124,311.33819312868184,459129,1273,3679.65513586998,42.930442810058594,-43.74370574951172,6.336164474487305,0.82
458,MetaDrive-Tut-20Env-v0,124,314.86849060169743,460015,1275,3686.537374973297,41.968994140625,-42.35237121582031,14.747016906738281,0.84
459,MetaDrive-Tut-20Env-v0,124,313.93823233853504,461081,1278,3694.4369513988495,41.83627700805664,-41.61159133911133,8.47128963470459,0.84
460,MetaDrive-Tut-20Env-v0,124,316.95224137157123,462217,1280,3704.07724070549,40.596954345703125,-40.82030487060547,5.860405921936035,0.85
461,MetaDrive-Tut-20Env-v0,124,321.47955774313385,463262,1282,3713.160223007202,42.54277801513672,,8.773307800292969,0.86
462,MetaDrive-Tut-20Env-v0,124,322.8819329280043,464217,1284,3721.3562791347504,41.902496337890625,-42.553897857666016,12.07483196258545,0.87
463,MetaDrive-Tut-20Env-v0,124,323.3601528844119,465382,1286,3731.0526485443115,41.396881103515625,,6.437396049499512,0.87
464,MetaDrive-Tut-20Env-v0,124,324.68595491237465,466220,1288,3740.360722541809,41.056610107421875,,11.133035659790039,0.87
465,MetaDrive-Tut-20Env-v0,124,325.7489473647753,467521,1291,3751.621222257614,40.626373291015625,-40.55664825439453,10.046159744262695,0.88
466,MetaDrive-Tut-20Env-v0,124,321.56352923356627,468095,1293,3756.280056476593,42.20627975463867,-43.33638000488281,6.840022087097168,0.87
467,MetaDrive-Tut-20Env-v0,124,322.60858642836195,469345,1296,3766.195037841797,42.13725280761719,-42.22309112548828,5.5482401847839355,0.87
468,MetaDrive-Tut-20Env-v0,124,324.94459887314736,470474,1298,3777.335251569748,40.40092468261719,,6.7127180099487305,0.87
469,MetaDrive-Tut-20Env-v0,124,325.88200366131326,471332,1300,3784.7747910022736,42.25363540649414,,6.325236797332764,0.87
470,MetaDrive-Tut-20Env-v0,124,323.96492276540374,472311,1303,3793.3194992542267,42.46411895751953,-42.63023376464844,7.240598678588867,0.86
471,MetaDrive-Tut-20Env-v0,124,321.80643037946584,473432,1306,3801.5732073783875,41.90011215209961,,7.17735481262207,0.86
472,MetaDrive-Tut-20Env-v0,124,319.72646617589936,474106,1309,3807.0901107788086,40.61710739135742,,6.339333534240723,0.85
473,MetaDrive-Tut-20Env-v0,124,319.9969006102279,475194,1311,3816.0640687942505,40.2540283203125,,5.442888259887695,0.85
474,MetaDrive-Tut-20Env-v0,124,320.01721056933803,476257,1313,3824.821987390518,41.175384521484375,-41.81370544433594,14.171815872192383,0.85
475,MetaDrive-Tut-20Env-v0,124,321.3396475023273,477106,1315,3831.6671981811523,41.249961853027344,,7.152522087097168,0.86
476,MetaDrive-Tut-20Env-v0,124,318.9871602357527,478090,1318,3840.6568155288696,39.70556640625,,7.442877769470215,0.85
477,MetaDrive-Tut-20Env-v0,124,312.005747298289,479115,1322,3849.4086396694183,40.159610748291016,-39.67162322998047,8.64474868774414,0.83
478,MetaDrive-Tut-20Env-v0,124,314.5817529487671,480295,1325,3860.2494111061096,42.72842788696289,-42.5069694519043,6.405186653137207,0.83
479,MetaDrive-Tut-20Env-v0,124,321.42014385256937,481411,1327,3869.6183066368103,40.87485885620117,-40.575164794921875,6.8826751708984375,0.85
480,MetaDrive-Tut-20Env-v0,124,318.2830791848302,482064,1329,3874.8772518634796,38.873626708984375,,5.983714580535889,0.84
481,MetaDrive-Tut-20Env-v0,124,318.3976694805094,483008,1332,3881.9028108119965,42.39484405517578,,4.976822376251221,0.83
482,MetaDrive-Tut-20Env-v0,124,316.46031220572235,484502,1335,3894.96245098114,40.288814544677734,,7.800436973571777,0.83
483,MetaDrive-Tut-20Env-v0,124,316.4657243001904,485046,1336,3899.814569234848,42.20515441894531,,6.327618598937988,0.83
484,MetaDrive-Tut-20Env-v0,124,319.4045854157913,486117,1338,3908.8223876953125,43.373069763183594,-43.06748580932617,5.821835517883301,0.84
485,MetaDrive-Tut-20Env-v0,124,318.3451673851306,487033,1340,3916.9248151779175,43.218719482421875,-43.74250411987305,9.63885498046875,0.84
486,MetaDrive-Tut-20Env-v0,124,319.68167936736984,488070,1342,3925.6834630966187,42.27220153808594,,4.042414665222168,0.84
487,MetaDrive-Tut-20Env-v0,124,321.66939619261325,489128,1344,3935.360499382019,39.951438903808594,,5.531105041503906,0.84
488,MetaDrive-Tut-20Env-v0,124,325.22871718452535,490531,1347,3947.126538515091,41.67757034301758,-41.567481994628906,5.147584438323975,0.85
489,MetaDrive-Tut-20Env-v0,124,325.1487244556817,491041,1348,3951.425169944763,42.88227081298828,-43.04232406616211,5.978438377380371,0.85
490,MetaDrive-Tut-20Env-v0,124,324.7205881063269,492021,1350,3960.4228389263153,41.9171142578125,-42.79070281982422,5.41358757019043,0.85
491,MetaDrive-Tut-20Env-v0,124,327.7205364235873,493050,1352,3970.0306074619293,42.89008331298828,,5.226334095001221,0.86
492,MetaDrive-Tut-20Env-v0,124,325.95970792876517,494365,1355,3983.2041368484497,43.388938903808594,-43.42591094970703,4.363243103027344,0.85
493,MetaDrive-Tut-20Env-v0,124,323.86875484870757,495205,1357,3990.174096107483,43.2830810546875,-43.290802001953125,10.791789054870605,0.85
494,MetaDrive-Tut-20Env-v0,124,326.24182756344396,496593,1360,4003.2317428588867,42.22825622558594,-42.53803634643555,7.359350204467773,0.86
495,MetaDrive-Tut-20Env-v0,124,327.37301751869813,497108,1361,4008.133721113205,41.44090270996094,,6.460272789001465,0.86
496,MetaDrive-Tut-20Env-v0,123,325.9331185974342,498096,1364,4017.486519575119,42.070777893066406,,11.755146026611328,0.86
497,MetaDrive-Tut-20Env-v0,123,327.12960402760876,499005,1366,4026.554156064987,39.97889709472656,-40.244468688964844,4.897780418395996,0.86
