jacobyokehongsi/assignment-2022fall/assignment3/MetaDrive-Tut-10Env-v0/td3/progress.csv
,log_dir,frame_per_second,episode_reward,total_steps,total_episodes,total_time,target_q,actor_loss,critic_loss,success_rate
0,MetaDrive-Tut-10Env-v0,487,11.740571803724038,2001,2,4.104703903198242,,,,0.0
1,MetaDrive-Tut-10Env-v0,485,11.487002444413198,3002,3,6.1814305782318115,,,,0.0
2,MetaDrive-Tut-10Env-v0,521,11.107059172348286,4003,4,7.669358253479004,,,,0.0
3,MetaDrive-Tut-10Env-v0,546,11.592594365581494,5004,5,9.149401426315308,,,,0.0
4,MetaDrive-Tut-10Env-v0,494,11.619447359358366,6005,6,12.147282838821411,,,,0.0
5,MetaDrive-Tut-10Env-v0,517,11.944958430776158,7006,7,13.531649112701416,,,,0.0
6,MetaDrive-Tut-10Env-v0,535,11.661657496217078,8007,8,14.955292701721191,,,,0.0
7,MetaDrive-Tut-10Env-v0,547,10.282165192299415,9319,10,17.025384187698364,,,,0.0
8,MetaDrive-Tut-10Env-v0,546,10.406529810164857,10055,11,18.404823303222656,0.014366725459694862,-0.020823491737246513,0.0007857703603804111,0.0
9,MetaDrive-Tut-10Env-v0,415,4.361676540665134,11005,42,26.46234679222107,0.08316780626773834,-0.12111876904964447,0.4346430003643036,0.0
10,MetaDrive-Tut-10Env-v0,344,5.034688985179068,12010,70,34.83954620361328,0.2005857527256012,,0.475953608751297,0.0
11,MetaDrive-Tut-10Env-v0,300,8.324062072075664,13043,92,43.40632963180542,0.40138792991638184,-0.5440257787704468,0.7640149593353271,0.0
12,MetaDrive-Tut-10Env-v0,267,10.195375835709521,14062,114,52.47966146469116,0.7609415054321289,,0.27638763189315796,0.0
13,MetaDrive-Tut-10Env-v0,250,13.670216697067742,15013,134,59.90995645523071,1.1642069816589355,-1.246886968612671,1.0852165222167969,0.0
14,MetaDrive-Tut-10Env-v0,236,18.705281685528476,16048,154,67.81602048873901,1.6825730800628662,,1.7264595031738281,0.0
15,MetaDrive-Tut-10Env-v0,227,23.060802676036328,17017,170,74.944904088974,2.2467639446258545,-2.5017194747924805,2.5193634033203125,0.0
16,MetaDrive-Tut-10Env-v0,218,25.241597272223494,18037,188,82.56569147109985,3.100248336791992,-3.2886569499969482,0.29091528058052063,0.0
17,MetaDrive-Tut-10Env-v0,210,26.804729394533503,19075,206,90.76088285446167,3.4342546463012695,-3.8239290714263916,2.4097847938537598,0.0
18,MetaDrive-Tut-10Env-v0,203,29.343422217141587,20041,222,98.68754458427429,3.888169288635254,-4.457744121551514,6.675361156463623,0.0
19,MetaDrive-Tut-10Env-v0,197,31.583071196083566,21042,237,106.38378262519836,5.033207893371582,,2.1661829948425293,0.0
20,MetaDrive-Tut-10Env-v0,192,35.9490970748166,22020,249,114.11397123336792,5.830806255340576,,3.7175886631011963,0.0
21,MetaDrive-Tut-10Env-v0,188,40.92976638117143,23009,260,121.90078043937683,6.8548688888549805,-7.345459938049316,6.297143936157227,0.0
22,MetaDrive-Tut-10Env-v0,186,44.806639230202684,24058,271,129.2086546421051,7.643553733825684,,3.8912129402160645,0.0
23,MetaDrive-Tut-10Env-v0,182,52.31979441930027,25032,280,136.80956721305847,8.446064949035645,,2.997971534729004,0.0
24,MetaDrive-Tut-10Env-v0,179,62.03498870092758,26052,288,145.4845530986786,9.287863731384277,,3.530575752258301,0.0
25,MetaDrive-Tut-10Env-v0,175,67.70122424054087,27020,298,153.59675407409668,10.456350326538086,,6.553679466247559,0.0
26,MetaDrive-Tut-10Env-v0,173,76.82282150106262,28014,306,161.66951608657837,12.080398559570312,,1.7910224199295044,0.0
27,MetaDrive-Tut-10Env-v0,169,84.72452505442008,29069,316,171.18537187576294,12.527610778808594,-12.987748146057129,8.161947250366211,0.0
28,MetaDrive-Tut-10Env-v0,166,93.11807085494331,30094,324,180.85291695594788,14.374731063842773,,10.748417854309082,0.0
29,MetaDrive-Tut-10Env-v0,164,100.8784810063339,31010,331,188.42038702964783,15.192058563232422,,1.463923692703247,0.0
30,MetaDrive-Tut-10Env-v0,162,108.47967658458407,32027,339,196.7713165283203,17.13016128540039,-17.40322494506836,2.4064512252807617,0.0
31,MetaDrive-Tut-10Env-v0,161,113.45545318741318,33082,349,204.78355503082275,17.35097885131836,,9.276716232299805,0.0
32,MetaDrive-Tut-10Env-v0,159,119.97105289312601,34027,356,212.87631177902222,17.53417205810547,-17.566612243652344,8.756531715393066,0.0
33,MetaDrive-Tut-10Env-v0,157,123.40539767063451,35008,365,222.39032578468323,19.544227600097656,,4.285826683044434,0.0
34,MetaDrive-Tut-10Env-v0,155,126.38745084437895,36063,374,232.1060552597046,20.15958595275879,-20.956592559814453,5.7043890953063965,0.0
35,MetaDrive-Tut-10Env-v0,153,124.69745235298224,37049,383,240.81773686408997,21.68714141845703,-22.275577545166016,7.914992332458496,0.0
36,MetaDrive-Tut-10Env-v0,152,125.03448647636448,38044,392,249.27289009094238,22.37063217163086,,15.33681869506836,0.0
37,MetaDrive-Tut-10Env-v0,152,127.66853507960538,39092,401,257.1175570487976,24.028120040893555,,29.039352416992188,0.0
38,MetaDrive-Tut-10Env-v0,151,121.85984794056341,40067,411,264.8285491466522,23.636974334716797,-24.238780975341797,12.937299728393555,0.0
39,MetaDrive-Tut-10Env-v0,150,122.74368227690175,41064,420,273.3996765613556,25.520395278930664,,14.328341484069824,0.0
40,MetaDrive-Tut-10Env-v0,148,120.32729715396407,42120,429,282.70695209503174,25.215255737304688,,7.489190578460693,0.0
41,MetaDrive-Tut-10Env-v0,147,121.543493828275,43192,435,293.6335599422455,26.66279411315918,,21.159584045410156,0.0
42,MetaDrive-Tut-10Env-v0,146,122.64259392859803,44082,440,301.15045642852783,27.77535057067871,,5.488832473754883,0.01
43,MetaDrive-Tut-10Env-v0,145,126.2925659203364,45120,446,309.9821367263794,27.069881439208984,,6.56546688079834,0.03
44,MetaDrive-Tut-10Env-v0,144,132.6910449153308,46043,450,317.5537586212158,29.85637664794922,-30.465782165527344,9.98524284362793,0.06
45,MetaDrive-Tut-10Env-v0,144,133.87851712088204,47091,454,325.9234924316406,30.154346466064453,-30.64090919494629,5.9313249588012695,0.08
46,MetaDrive-Tut-10Env-v0,143,136.54834194846683,48032,459,333.9722354412079,30.487585067749023,,6.307898998260498,0.08
47,MetaDrive-Tut-10Env-v0,143,142.94885493031796,49063,464,342.49527502059937,31.428627014160156,-30.87624168395996,14.838238716125488,0.11
48,MetaDrive-Tut-10Env-v0,142,147.1264330226438,50109,470,351.50284457206726,32.09386444091797,-32.382972717285156,15.362399101257324,0.13
49,MetaDrive-Tut-10Env-v0,141,152.3376300162464,51110,475,360.20028138160706,33.260169982910156,,6.958044052124023,0.14
50,MetaDrive-Tut-10Env-v0,141,154.36719221761265,52131,482,368.3468351364136,34.06035614013672,-34.48139190673828,10.709796905517578,0.14
51,MetaDrive-Tut-10Env-v0,141,158.69593458619823,53017,487,375.2095067501068,32.34648132324219,-33.10176086425781,14.743061065673828,0.15
52,MetaDrive-Tut-10Env-v0,140,162.46988325027363,54016,494,383.96590995788574,33.01285171508789,,18.316814422607422,0.15
53,MetaDrive-Tut-10Env-v0,140,166.1041573165646,55004,500,392.48635935783386,33.95027160644531,,8.368019104003906,0.16
54,MetaDrive-Tut-10Env-v0,139,169.81106938271515,56108,507,402.2271146774292,36.206390380859375,,18.688901901245117,0.16
55,MetaDrive-Tut-10Env-v0,139,174.9491516199495,57116,514,410.40532398223877,39.0987548828125,,14.948577880859375,0.16
56,MetaDrive-Tut-10Env-v0,138,176.15313234926893,58065,520,419.2788164615631,36.825477600097656,-37.6674919128418,8.269532203674316,0.16
57,MetaDrive-Tut-10Env-v0,137,178.39652595876055,59224,528,430.3611695766449,39.082218170166016,,16.284427642822266,0.18
58,MetaDrive-Tut-10Env-v0,137,180.48180528045756,60063,533,436.9568598270416,37.271636962890625,-38.81542205810547,6.821650505065918,0.2
59,MetaDrive-Tut-10Env-v0,137,176.93575325349877,61134,541,445.29969024658203,37.951271057128906,,20.056865692138672,0.2
60,MetaDrive-Tut-10Env-v0,137,177.9222295886834,62077,546,453.06274032592773,39.651466369628906,-40.526222229003906,21.232345581054688,0.19
61,MetaDrive-Tut-10Env-v0,137,177.43426815720488,63114,550,460.56752848625183,40.155906677246094,,13.792315483093262,0.17
62,MetaDrive-Tut-10Env-v0,136,175.99076034372152,64217,556,469.54018235206604,38.42906951904297,-38.161224365234375,22.368852615356445,0.17
63,MetaDrive-Tut-10Env-v0,136,177.01516198848384,65107,560,477.4203248023987,41.526668548583984,-42.27705764770508,17.716796875,0.18
64,MetaDrive-Tut-10Env-v0,136,173.92203288842862,66001,566,485.1085443496704,41.49648666381836,-42.31023025512695,11.614889144897461,0.16
65,MetaDrive-Tut-10Env-v0,135,173.59973830441396,67110,572,494.8948299884796,37.50197982788086,,12.903209686279297,0.14
66,MetaDrive-Tut-10Env-v0,135,173.90714598666247,68005,577,502.0944800376892,43.67953109741211,-43.639408111572266,8.090339660644531,0.15
67,MetaDrive-Tut-10Env-v0,135,176.1863893294885,69079,582,510.951696395874,39.85582733154297,-40.71692657470703,31.966350555419922,0.17
68,MetaDrive-Tut-10Env-v0,135,175.6924702838368,70163,589,519.6477575302124,41.7849235534668,-42.26272964477539,11.486159324645996,0.17
69,MetaDrive-Tut-10Env-v0,134,175.565893377048,71057,593,526.6885933876038,42.8294677734375,-44.69675064086914,20.84393882751465,0.19
70,MetaDrive-Tut-10Env-v0,134,174.53919460701582,72246,600,536.0756032466888,45.080413818359375,,18.13015365600586,0.2
71,MetaDrive-Tut-10Env-v0,134,176.0665515130065,73047,605,542.9576997756958,43.48451232910156,-43.83810806274414,7.921452522277832,0.2
72,MetaDrive-Tut-10Env-v0,134,175.94977269225987,74008,610,550.6932291984558,41.68766784667969,,50.18633270263672,0.2
73,MetaDrive-Tut-10Env-v0,134,175.93856195308442,75006,617,558.0984835624695,41.34638214111328,,47.78527069091797,0.2
74,MetaDrive-Tut-10Env-v0,134,177.60533289219634,76125,624,567.8036909103394,43.351806640625,-43.51431655883789,49.039058685302734,0.2
75,MetaDrive-Tut-10Env-v0,133,178.49430991098274,77322,630,578.0714981555939,42.640838623046875,,17.260475158691406,0.19
76,MetaDrive-Tut-10Env-v0,133,176.84756064576743,78027,634,584.2061474323273,43.76484680175781,-44.2451171875,8.358417510986328,0.17
77,MetaDrive-Tut-10Env-v0,133,181.7328144291891,79066,638,593.5001409053802,43.732086181640625,,8.204996109008789,0.17
78,MetaDrive-Tut-10Env-v0,133,179.36236582335462,80034,644,600.9305818080902,44.05928039550781,,23.278491973876953,0.16
79,MetaDrive-Tut-10Env-v0,133,174.65883262744444,81165,651,609.829345703125,43.98432922363281,-44.541751861572266,19.75625228881836,0.14
80,MetaDrive-Tut-10Env-v0,132,174.28493441971438,82214,656,619.0233917236328,42.75012969970703,,23.426910400390625,0.13
81,MetaDrive-Tut-10Env-v0,132,173.87574103935512,83117,660,628.2236428260803,42.923057556152344,-43.0375862121582,9.217214584350586,0.11
82,MetaDrive-Tut-10Env-v0,131,179.4670859122815,84084,664,637.1295738220215,44.46595764160156,,10.858094215393066,0.12
83,MetaDrive-Tut-10Env-v0,131,176.24469488379378,85153,671,646.0900158882141,45.68147659301758,-45.738990783691406,9.58104133605957,0.11
84,MetaDrive-Tut-10Env-v0,131,174.51440882819588,86244,677,654.453188419342,44.506813049316406,,31.702762603759766,0.1
85,MetaDrive-Tut-10Env-v0,131,173.9407961873883,87031,681,660.2232639789581,42.926429748535156,-43.54635238647461,13.053421020507812,0.1
86,MetaDrive-Tut-10Env-v0,131,175.59320557602769,88225,686,668.7417614459991,45.73113250732422,-45.854366302490234,12.74896240234375,0.11
87,MetaDrive-Tut-10Env-v0,131,173.04014179264217,89170,692,675.777506351471,46.49230194091797,,34.39459991455078,0.09
88,MetaDrive-Tut-10Env-v0,131,172.60549198622996,90099,698,682.8272845745087,43.276458740234375,-44.396915435791016,8.386089324951172,0.08
89,MetaDrive-Tut-10Env-v0,132,172.66121513415598,91072,702,689.7174482345581,46.97866439819336,,46.16691589355469,0.09
90,MetaDrive-Tut-10Env-v0,132,176.70410373606782,92245,706,697.9323031902313,45.98386001586914,-46.73408126831055,11.272073745727539,0.12
91,MetaDrive-Tut-10Env-v0,132,178.119038106866,93168,710,704.8515994548798,45.715972900390625,,20.930492401123047,0.12
92,MetaDrive-Tut-10Env-v0,132,178.71569537053642,94056,715,711.7023813724518,45.31073760986328,,36.620338439941406,0.12
93,MetaDrive-Tut-10Env-v0,132,180.61761447590456,95083,720,719.6700127124786,45.302486419677734,-45.478271484375,15.662042617797852,0.14
94,MetaDrive-Tut-10Env-v0,132,182.29228700836066,96020,725,726.9875543117523,45.23627471923828,,50.288185119628906,0.15
95,MetaDrive-Tut-10Env-v0,132,183.79646524654268,97064,729,734.5700001716614,46.86554718017578,,13.23188304901123,0.16
96,MetaDrive-Tut-10Env-v0,131,184.20704839304392,98015,734,743.4346611499786,48.05180358886719,-48.054054260253906,29.087791442871094,0.15
97,MetaDrive-Tut-10Env-v0,131,183.300643624149,99195,740,753.309103012085,47.5175895690918,-47.88219451904297,45.139381408691406,0.16
98,MetaDrive-Tut-10Env-v0,131,188.88364898743646,100101,743,760.6897268295288,48.933101654052734,-49.8521728515625,7.799864768981934,0.18
99,MetaDrive-Tut-10Env-v0,131,189.60247247893048,101138,748,768.825345993042,45.23064422607422,,25.17561149597168,0.19
100,MetaDrive-Tut-10Env-v0,131,190.55022967100956,102282,754,778.1919662952423,44.088294982910156,,36.53121566772461,0.19
101,MetaDrive-Tut-10Env-v0,131,189.5494382307571,103121,757,784.5139391422272,48.92139434814453,-49.42497634887695,32.43824005126953,0.2
102,MetaDrive-Tut-10Env-v0,131,184.85607449394286,104048,763,792.2379813194275,47.98225021362305,,9.622389793395996,0.19
103,MetaDrive-Tut-10Env-v0,131,187.4282687438085,105234,769,802.3769686222076,48.23586654663086,,9.856245040893555,0.2
104,MetaDrive-Tut-10Env-v0,131,190.2835422908526,106005,772,808.9175517559052,47.13838195800781,-47.63316345214844,10.033147811889648,0.21
105,MetaDrive-Tut-10Env-v0,130,194.82233037356872,107016,776,818.0587141513824,47.03886413574219,,7.399013996124268,0.23
106,MetaDrive-Tut-10Env-v0,130,192.2052465127146,108045,782,826.039008140564,47.037437438964844,-47.393653869628906,10.03235912322998,0.22
107,MetaDrive-Tut-10Env-v0,130,194.4709765609408,109129,785,835.0394463539124,47.9412841796875,-48.64659881591797,30.35803985595703,0.24
108,MetaDrive-Tut-10Env-v0,130,196.09368610749215,110328,791,844.7561657428741,49.77205276489258,,10.956575393676758,0.25
109,MetaDrive-Tut-10Env-v0,130,198.360896530049,111264,796,853.1654019355774,47.027687072753906,,12.657539367675781,0.25
110,MetaDrive-Tut-10Env-v0,130,198.42305034011133,112150,800,860.8287663459778,47.050350189208984,,13.574962615966797,0.24
111,MetaDrive-Tut-10Env-v0,130,197.61393851681282,113038,804,868.4827530384064,47.44078063964844,,60.22465515136719,0.23
112,MetaDrive-Tut-10Env-v0,130,198.40059566382791,114101,808,876.9052228927612,47.55931091308594,-48.18971252441406,10.149513244628906,0.24
113,MetaDrive-Tut-10Env-v0,130,195.30024134431312,115110,814,884.8522455692291,46.712032318115234,,24.24115753173828,0.25
114,MetaDrive-Tut-10Env-v0,129,193.78085253797343,116051,819,892.8681795597076,47.523258209228516,-49.04491424560547,11.679329872131348,0.23
115,MetaDrive-Tut-10Env-v0,129,193.17792863863858,117088,825,901.2414150238037,48.20676803588867,,18.87771987915039,0.23
116,MetaDrive-Tut-10Env-v0,129,192.41566076575862,118036,826,909.9655864238739,47.360103607177734,,40.35246276855469,0.22
117,MetaDrive-Tut-10Env-v0,129,192.9143410537854,119239,831,918.7095410823822,45.9576301574707,-44.964698791503906,18.236074447631836,0.24
118,MetaDrive-Tut-10Env-v0,129,197.31230293497276,120265,836,926.996413230896,47.396331787109375,-48.20533752441406,18.536895751953125,0.25
119,MetaDrive-Tut-10Env-v0,129,197.89726969137334,121131,840,934.7646424770355,48.18805694580078,-49.05158615112305,8.713241577148438,0.25
120,MetaDrive-Tut-10Env-v0,129,197.788605338569,122284,845,944.9245631694794,47.716339111328125,,16.986236572265625,0.24
121,MetaDrive-Tut-10Env-v0,129,198.65295368876113,123018,849,951.5200464725494,45.983314514160156,,11.064996719360352,0.23
122,MetaDrive-Tut-10Env-v0,129,196.72376069253795,124101,855,960.1852831840515,45.60368347167969,-47.71771240234375,51.145973205566406,0.23
123,MetaDrive-Tut-10Env-v0,129,196.90318841011577,125109,861,969.6189365386963,49.24079132080078,-48.741851806640625,13.40632438659668,0.22
124,MetaDrive-Tut-10Env-v0,128,194.27922674317128,126006,867,977.3923537731171,48.037567138671875,,34.81146240234375,0.22
125,MetaDrive-Tut-10Env-v0,128,185.61437027211133,127010,874,985.4901247024536,45.734458923339844,,33.107398986816406,0.2
126,MetaDrive-Tut-10Env-v0,128,186.24449710121843,128113,878,994.1529092788696,49.20833969116211,-49.303993225097656,34.223358154296875,0.19
127,MetaDrive-Tut-10Env-v0,128,187.56603466608084,129272,883,1003.8578310012817,47.33765411376953,,29.995466232299805,0.2
128,MetaDrive-Tut-10Env-v0,128,186.0631983252459,130111,887,1010.534104347229,48.21551513671875,-47.41271209716797,9.41256046295166,0.19
129,MetaDrive-Tut-10Env-v0,128,184.23431662977765,131137,893,1018.6947839260101,47.90960693359375,-47.74177932739258,10.65108585357666,0.18
130,MetaDrive-Tut-10Env-v0,128,183.99298804751396,132063,897,1026.3977453708649,47.374229431152344,-48.43500900268555,28.025463104248047,0.2
131,MetaDrive-Tut-10Env-v0,128,184.9598406553072,133118,903,1035.6315429210663,47.657833099365234,,9.170592308044434,0.19
132,MetaDrive-Tut-10Env-v0,128,183.18903966525602,134155,908,1043.97208070755,47.823204040527344,-48.42671203613281,22.929269790649414,0.17
133,MetaDrive-Tut-10Env-v0,128,187.70374774602413,135051,911,1050.534884929657,49.626495361328125,-50.74654006958008,27.106388092041016,0.2
134,MetaDrive-Tut-10Env-v0,128,189.71924130497808,136055,915,1057.761517047882,49.87070083618164,-50.78908157348633,25.77454376220703,0.21
135,MetaDrive-Tut-10Env-v0,128,192.9511467239111,137123,920,1065.9289054870605,46.12615966796875,-47.943870544433594,61.21288299560547,0.22
136,MetaDrive-Tut-10Env-v0,128,193.0381662794009,138164,925,1073.9112231731415,46.8642692565918,,21.702728271484375,0.23
137,MetaDrive-Tut-10Env-v0,128,193.17342704943826,139011,929,1080.5361351966858,50.66680908203125,-51.784645080566406,11.736007690429688,0.23
138,MetaDrive-Tut-10Env-v0,128,187.50410792516578,140149,936,1090.251766204834,50.09064483642578,-51.126434326171875,10.917582511901855,0.22
139,MetaDrive-Tut-10Env-v0,128,187.2083055350166,141117,940,1098.2717306613922,47.335655212402344,-47.392311096191406,28.883831024169922,0.22
140,MetaDrive-Tut-10Env-v0,128,183.76873745918394,142090,946,1106.2338874340057,49.08448791503906,,14.953603744506836,0.22
141,MetaDrive-Tut-10Env-v0,128,182.61436586183612,143010,950,1113.6740975379944,50.10237121582031,,26.08120346069336,0.22
142,MetaDrive-Tut-10Env-v0,128,185.2964382067654,144026,955,1122.724039554596,50.6840705871582,,17.305612564086914,0.22
143,MetaDrive-Tut-10Env-v0,128,188.15892783746662,145038,959,1130.5890715122223,50.86744689941406,,26.35446548461914,0.25
144,MetaDrive-Tut-10Env-v0,128,189.84837114804373,146258,965,1141.4589221477509,49.532203674316406,,14.798810005187988,0.26
145,MetaDrive-Tut-10Env-v0,127,191.79156811088097,147281,970,1151.2679073810577,46.48053741455078,-46.88817596435547,42.33101272583008,0.27
146,MetaDrive-Tut-10Env-v0,127,194.10865715413485,148104,974,1159.0242476463318,48.98899841308594,,13.179645538330078,0.27
147,MetaDrive-Tut-10Env-v0,127,193.44148395709516,149057,978,1167.5013236999512,46.1009635925293,-47.03791427612305,22.046201705932617,0.26
148,MetaDrive-Tut-10Env-v0,127,193.54431383725512,150095,982,1176.5783338546753,51.39683532714844,-52.66178894042969,8.438335418701172,0.26
149,MetaDrive-Tut-10Env-v0,127,196.8688477011249,151099,985,1185.4299719333649,51.233642578125,-51.76255416870117,15.796876907348633,0.26
150,MetaDrive-Tut-10Env-v0,127,198.95826185479422,152224,989,1193.8503217697144,49.718910217285156,,12.4244384765625,0.28
151,MetaDrive-Tut-10Env-v0,127,197.76170215898634,153010,994,1200.1657502651215,50.87195587158203,,19.914386749267578,0.28
152,MetaDrive-Tut-10Env-v0,127,195.61360192048429,154146,1000,1210.611098766327,47.83932113647461,,12.380535125732422,0.27
153,MetaDrive-Tut-10Env-v0,127,198.44817240479057,155139,1004,1219.9826271533966,50.86438751220703,-52.0347900390625,14.236120223999023,0.28
154,MetaDrive-Tut-10Env-v0,127,195.02933829395525,156016,1009,1227.1569464206696,49.09857177734375,,23.6485595703125,0.26
155,MetaDrive-Tut-10Env-v0,126,193.62481904539055,157022,1013,1237.0728063583374,49.2387809753418,,11.735713958740234,0.25
156,MetaDrive-Tut-10Env-v0,126,191.4149460247514,158283,1019,1248.1556251049042,47.88629150390625,-48.09686279296875,17.6046142578125,0.25
157,MetaDrive-Tut-10Env-v0,126,191.01995052313612,159218,1023,1254.8700621128082,46.937408447265625,,32.006141662597656,0.24
158,MetaDrive-Tut-10Env-v0,126,189.93864792575667,160130,1028,1262.113118171692,48.59477996826172,,15.478519439697266,0.24
159,MetaDrive-Tut-10Env-v0,126,189.10591158812133,161057,1033,1268.8828475475311,49.776893615722656,-49.62660217285156,10.657625198364258,0.24
160,MetaDrive-Tut-10Env-v0,126,189.41985871618937,162236,1039,1277.779944896698,50.73819351196289,,13.810420036315918,0.24
161,MetaDrive-Tut-10Env-v0,126,190.7514018636697,163144,1043,1285.8491067886353,50.88298797607422,,11.172017097473145,0.23
162,MetaDrive-Tut-10Env-v0,126,196.3331874183245,164202,1047,1295.5028603076935,48.86066436767578,,9.694402694702148,0.25
163,MetaDrive-Tut-10Env-v0,126,199.09583497362303,165197,1050,1303.7372295856476,48.77829360961914,-48.644779205322266,16.62692642211914,0.28
164,MetaDrive-Tut-10Env-v0,126,200.1076907816181,166120,1053,1311.284841299057,49.418235778808594,,9.502927780151367,0.29
165,MetaDrive-Tut-10Env-v0,126,200.74554215846004,167100,1056,1320.483967781067,48.157752990722656,,17.39138412475586,0.3
166,MetaDrive-Tut-10Env-v0,126,203.3693993601026,168330,1060,1331.904854774475,48.56855010986328,,11.281320571899414,0.3
167,MetaDrive-Tut-10Env-v0,126,204.71985152422218,169277,1064,1340.582183122635,48.59735107421875,-48.783363342285156,18.652273178100586,0.3
168,MetaDrive-Tut-10Env-v0,126,206.76605974238387,170191,1067,1349.0656328201294,47.6583366394043,-48.095916748046875,9.407007217407227,0.32
169,MetaDrive-Tut-10Env-v0,126,209.6310522481198,171189,1070,1357.0021922588348,47.877174377441406,-48.325279235839844,15.072575569152832,0.34
170,MetaDrive-Tut-10Env-v0,126,212.39174867235297,172026,1073,1363.657658815384,49.6445426940918,,14.121321678161621,0.36
171,MetaDrive-Tut-10Env-v0,126,214.640798589717,173164,1076,1372.6642367839813,50.55760955810547,,19.399822235107422,0.39
172,MetaDrive-Tut-10Env-v0,126,212.42505756004707,174057,1080,1379.7716155052185,48.53063201904297,-49.94829177856445,9.159873962402344,0.38
173,MetaDrive-Tut-10Env-v0,126,209.42389248901458,175043,1084,1387.8972063064575,48.30780792236328,-49.02263641357422,9.56325912475586,0.38
174,MetaDrive-Tut-10Env-v0,126,211.03038635147607,176141,1088,1396.3002474308014,47.62534713745117,-48.18836975097656,35.289833068847656,0.38
175,MetaDrive-Tut-10Env-v0,126,215.71992300346773,177313,1091,1405.431676864624,47.04835510253906,-46.545188903808594,16.450672149658203,0.4
176,MetaDrive-Tut-10Env-v0,126,219.30694734398512,178268,1094,1413.1361911296844,50.98971176147461,,8.288593292236328,0.43
177,MetaDrive-Tut-10Env-v0,126,220.09213458885586,179095,1097,1421.1634666919708,51.5824089050293,-51.64383316040039,11.355218887329102,0.43
178,MetaDrive-Tut-10Env-v0,126,223.41503761244857,180154,1100,1429.6975708007812,51.532230377197266,,15.783802032470703,0.46
179,MetaDrive-Tut-10Env-v0,126,221.13504284143931,181152,1105,1437.33944272995,49.025482177734375,,12.447134017944336,0.46
180,MetaDrive-Tut-10Env-v0,126,225.1780233620365,182306,1109,1446.5432841777802,49.650367736816406,,15.15574836730957,0.47
181,MetaDrive-Tut-10Env-v0,126,224.2228443419794,183153,1113,1452.729880809784,47.848121643066406,-48.71592712402344,26.680234909057617,0.46
182,MetaDrive-Tut-10Env-v0,126,226.0389050886107,184054,1116,1459.7820513248444,47.880767822265625,,25.951393127441406,0.46
183,MetaDrive-Tut-10Env-v0,126,226.41953584682764,185191,1121,1468.326728105545,47.833343505859375,-48.08026885986328,12.897760391235352,0.46
184,MetaDrive-Tut-10Env-v0,126,226.92863336416553,186100,1124,1474.633006811142,45.53889465332031,,22.804786682128906,0.47
185,MetaDrive-Tut-10Env-v0,126,231.2846476411169,187165,1127,1482.6646175384521,45.8639030456543,-46.187313079833984,10.089126586914062,0.49
186,MetaDrive-Tut-10Env-v0,126,235.7382168182472,188190,1130,1490.8825373649597,48.11238098144531,,19.771305084228516,0.52
187,MetaDrive-Tut-10Env-v0,126,235.60875443145042,189020,1134,1498.5777175426483,49.80955505371094,,27.559120178222656,0.52
188,MetaDrive-Tut-10Env-v0,126,239.81221933017164,190100,1137,1507.9150383472443,46.96986389160156,,21.929256439208984,0.55
189,MetaDrive-Tut-10Env-v0,126,238.40845398614573,191057,1141,1515.4110929965973,46.922122955322266,-46.55854034423828,16.318117141723633,0.55
190,MetaDrive-Tut-10Env-v0,125,239.03533430290264,192155,1145,1525.1326727867126,47.943851470947266,-48.940818786621094,19.251285552978516,0.55
191,MetaDrive-Tut-10Env-v0,125,237.26482712521712,193012,1148,1532.6377394199371,48.43550109863281,,7.698142051696777,0.55
192,MetaDrive-Tut-10Env-v0,125,235.1139304475391,194079,1152,1542.9156396389008,47.75491714477539,-48.59758377075195,12.225580215454102,0.53
193,MetaDrive-Tut-10Env-v0,125,232.85342004399186,195305,1157,1553.7972328662872,44.52574920654297,-45.96088790893555,21.722881317138672,0.51
194,MetaDrive-Tut-10Env-v0,125,233.63091517870444,196019,1159,1560.1788547039032,43.68152618408203,-43.944339752197266,11.293455123901367,0.51
195,MetaDrive-Tut-10Env-v0,125,233.8680747858016,197038,1163,1567.9139647483826,50.47669219970703,,34.35857391357422,0.52
196,MetaDrive-Tut-10Env-v0,125,232.40890456809484,198076,1167,1575.945353269577,46.75157928466797,,12.536131858825684,0.51
197,MetaDrive-Tut-10Env-v0,125,233.1105928359149,199122,1170,1585.6073241233826,48.908180236816406,,13.320280075073242,0.49
198,MetaDrive-Tut-10Env-v0,125,228.68507636829221,200159,1175,1594.62344956398,48.35276794433594,-48.80825424194336,8.986382484436035,0.46
199,MetaDrive-Tut-10Env-v0,125,230.55580886309608,201084,1178,1603.503707408905,47.07069396972656,,16.802988052368164,0.47
200,MetaDrive-Tut-10Env-v0,125,234.18570228194213,202223,1181,1614.30837059021,48.20159912109375,-48.83922576904297,8.699638366699219,0.49
201,MetaDrive-Tut-10Env-v0,125,233.3774152592342,203310,1185,1624.5624582767487,43.692909240722656,,15.888574600219727,0.47
202,MetaDrive-Tut-10Env-v0,125,232.80091355004376,204187,1188,1632.2857942581177,47.136505126953125,-46.986183166503906,10.220937728881836,0.47
203,MetaDrive-Tut-10Env-v0,125,229.33933145881022,205294,1192,1642.0691957473755,45.431297302246094,,36.62946319580078,0.44
204,MetaDrive-Tut-10Env-v0,124,229.79583792317342,206189,1195,1650.0866477489471,48.12621307373047,-48.91510772705078,25.425884246826172,0.43
205,MetaDrive-Tut-10Env-v0,124,227.31684270692284,207196,1199,1659.4832735061646,45.56898498535156,,13.08491325378418,0.42
206,MetaDrive-Tut-10Env-v0,124,226.60137558312917,208030,1202,1667.5758118629456,45.8306884765625,,12.771766662597656,0.4
207,MetaDrive-Tut-10Env-v0,124,230.1300214896469,209367,1206,1678.364218711853,47.3726806640625,-47.376007080078125,12.062178611755371,0.43
208,MetaDrive-Tut-10Env-v0,124,231.62023597300657,210161,1208,1684.3923499584198,48.861305236816406,-49.749244689941406,17.49660873413086,0.44
209,MetaDrive-Tut-10Env-v0,124,233.8476047393194,211253,1211,1693.1253414154053,47.80417251586914,-47.826595306396484,7.755491256713867,0.47
210,MetaDrive-Tut-10Env-v0,124,234.29122942467112,212111,1214,1700.7561140060425,46.819454193115234,-47.47819900512695,37.79176330566406,0.46
211,MetaDrive-Tut-10Env-v0,124,235.16161267810836,213122,1218,1708.994751214981,45.84634780883789,,16.423248291015625,0.47
212,MetaDrive-Tut-10Env-v0,124,238.70117094037064,214034,1221,1716.4775133132935,48.067787170410156,,12.308883666992188,0.49
213,MetaDrive-Tut-10Env-v0,124,238.83805744776666,215100,1225,1724.9521977901459,46.43748474121094,,20.71124267578125,0.49
214,MetaDrive-Tut-10Env-v0,124,235.1375967305541,216176,1230,1733.0882940292358,47.897674560546875,,18.945301055908203,0.45
215,MetaDrive-Tut-10Env-v0,124,237.24513130300735,217040,1233,1739.934998512268,46.42072296142578,,40.243019104003906,0.46
216,MetaDrive-Tut-10Env-v0,124,238.36825872526217,218154,1236,1748.1453411579132,50.30421447753906,,47.30083465576172,0.47
217,MetaDrive-Tut-10Env-v0,124,241.00688665312282,219375,1240,1758.6175351142883,45.60899353027344,-46.00189971923828,14.828022956848145,0.47
218,MetaDrive-Tut-10Env-v0,124,240.33951834729018,220172,1243,1765.8835904598236,47.141361236572266,,38.39628601074219,0.47
219,MetaDrive-Tut-10Env-v0,124,241.82733636424877,221033,1246,1772.3410904407501,44.15260696411133,-44.74224090576172,10.216545104980469,0.48
220,MetaDrive-Tut-10Env-v0,124,242.14265278131126,222112,1250,1781.3322048187256,44.78754425048828,,16.33794403076172,0.46
221,MetaDrive-Tut-10Env-v0,124,245.94409369508506,223393,1253,1793.3274421691895,49.612571716308594,-50.252960205078125,9.590768814086914,0.48
222,MetaDrive-Tut-10Env-v0,124,248.08653102294957,224401,1256,1802.3591525554657,48.76050567626953,-49.705543518066406,9.481940269470215,0.49
223,MetaDrive-Tut-10Env-v0,124,245.49621191259124,225125,1259,1808.1456680297852,45.65082550048828,-46.39208984375,25.0740966796875,0.49
224,MetaDrive-Tut-10Env-v0,124,247.90754299148168,226383,1262,1818.0526006221771,42.97998809814453,-43.97956085205078,17.28607177734375,0.5
225,MetaDrive-Tut-10Env-v0,124,247.0087590056664,227020,1265,1824.0579721927643,46.322547912597656,,8.669060707092285,0.49
226,MetaDrive-Tut-10Env-v0,124,247.09089543147115,228068,1268,1834.1715745925903,47.559814453125,,19.59218978881836,0.5
227,MetaDrive-Tut-10Env-v0,124,242.19715310793458,229057,1273,1842.0466094017029,47.654090881347656,-47.4088134765625,7.421576499938965,0.48
228,MetaDrive-Tut-10Env-v0,124,244.1006816172185,230151,1277,1851.0582740306854,46.48653793334961,-48.01371765136719,20.757957458496094,0.49
229,MetaDrive-Tut-10Env-v0,124,240.02037293798887,231193,1282,1859.7316858768463,48.12646484375,-47.73072814941406,16.52654266357422,0.46
230,MetaDrive-Tut-10Env-v0,124,239.38473278672842,232033,1285,1867.3382608890533,47.48139190673828,-47.63502502441406,31.974674224853516,0.45
231,MetaDrive-Tut-10Env-v0,124,239.42810725671484,233275,1290,1877.2826707363129,47.7930908203125,-48.69709014892578,20.112689971923828,0.46
232,MetaDrive-Tut-10Env-v0,124,239.11181640695813,234154,1293,1884.6506752967834,44.893150329589844,,10.428863525390625,0.46
233,MetaDrive-Tut-10Env-v0,124,241.10230081199646,235304,1297,1893.4837703704834,46.35021209716797,,9.742655754089355,0.48
234,MetaDrive-Tut-10Env-v0,124,240.17266328360358,236062,1301,1899.9989631175995,47.37483215332031,,12.783565521240234,0.46
235,MetaDrive-Tut-10Env-v0,124,240.88739113289276,237233,1305,1910.3086850643158,45.42632293701172,-45.02727508544922,13.347371101379395,0.46
236,MetaDrive-Tut-10Env-v0,124,239.06978150846138,238130,1308,1917.5348589420319,46.69390869140625,,11.77016830444336,0.45
237,MetaDrive-Tut-10Env-v0,124,238.21568047355856,239154,1311,1925.722484588623,44.79515838623047,,15.082159042358398,0.44
238,MetaDrive-Tut-10Env-v0,124,235.99521009298803,240106,1315,1934.484002828598,47.21162033081055,,45.202392578125,0.43
239,MetaDrive-Tut-10Env-v0,124,234.6058095560246,241152,1319,1942.947165966034,45.62197494506836,,35.01190948486328,0.43
240,MetaDrive-Tut-10Env-v0,124,234.86744804977445,242346,1323,1953.3254871368408,49.41929244995117,,20.332433700561523,0.42
241,MetaDrive-Tut-10Env-v0,124,235.29504302494198,243147,1326,1960.253701210022,46.42723846435547,-46.91264343261719,14.603433609008789,0.42
242,MetaDrive-Tut-10Env-v0,123,238.41006404753946,244055,1329,1968.7189905643463,46.952484130859375,-46.937652587890625,20.998638153076172,0.43
243,MetaDrive-Tut-10Env-v0,123,236.98610803208348,245102,1333,1977.6331105232239,46.27702331542969,,10.001852035522461,0.42
244,MetaDrive-Tut-10Env-v0,123,234.7981521027279,246274,1337,1987.2566692829132,48.866188049316406,,18.96144676208496,0.41
245,MetaDrive-Tut-10Env-v0,123,236.5146856867212,247040,1339,1993.5055792331696,47.20188903808594,,9.741533279418945,0.42
246,MetaDrive-Tut-10Env-v0,123,234.5247781920776,248138,1343,2003.3721280097961,45.4810676574707,,39.762596130371094,0.42
247,MetaDrive-Tut-10Env-v0,123,234.66335627990833,249149,1346,2012.539562702179,46.00950622558594,-46.880332946777344,15.123202323913574,0.42
248,MetaDrive-Tut-10Env-v0,123,233.49495867368714,250365,1350,2022.2629988193512,45.154136657714844,-45.57623291015625,8.30346393585205,0.43
249,MetaDrive-Tut-10Env-v0,123,231.2724013070109,251096,1353,2027.9842495918274,47.622291564941406,,11.625155448913574,0.42
250,MetaDrive-Tut-10Env-v0,123,231.87819690595776,252304,1357,2038.0332124233246,45.67771911621094,,14.63351058959961,0.43
251,MetaDrive-Tut-10Env-v0,123,231.08958065865212,253105,1360,2044.627509355545,42.734004974365234,-43.15699768066406,11.265167236328125,0.42
252,MetaDrive-Tut-10Env-v0,123,232.96961104477217,254580,1364,2057.3161079883575,48.99578857421875,,22.666343688964844,0.43
253,MetaDrive-Tut-10Env-v0,123,232.70726280873262,255064,1366,2060.8910365104675,47.56616973876953,,13.48190975189209,0.42
254,MetaDrive-Tut-10Env-v0,123,231.65597152173484,256239,1371,2071.0172793865204,43.87602996826172,-44.248470306396484,19.672786712646484,0.42
255,MetaDrive-Tut-10Env-v0,123,234.44724865005267,257191,1374,2078.014974117279,44.483428955078125,-45.46770477294922,9.757610321044922,0.44
256,MetaDrive-Tut-10Env-v0,123,234.54974745875427,258191,1378,2085.870163679123,44.135414123535156,-44.683937072753906,14.029718399047852,0.43
257,MetaDrive-Tut-10Env-v0,123,235.77372904178156,259094,1382,2094.0466318130493,46.98626708984375,,10.464276313781738,0.43
258,MetaDrive-Tut-10Env-v0,123,235.28852184521458,260218,1386,2103.712685108185,45.68440628051758,,14.89028549194336,0.44
259,MetaDrive-Tut-10Env-v0,123,238.9333559870312,261179,1389,2111.6615550518036,44.074951171875,-44.41245651245117,15.873353958129883,0.46
260,MetaDrive-Tut-10Env-v0,123,237.983621939908,262035,1392,2120.002434015274,43.68384552001953,-43.991729736328125,12.666316986083984,0.46
261,MetaDrive-Tut-10Env-v0,123,240.37445114293544,263365,1396,2131.9184889793396,45.464393615722656,-46.79658126831055,46.08495330810547,0.46
262,MetaDrive-Tut-10Env-v0,123,240.44620999078455,264083,1398,2138.562445640564,47.43288040161133,-47.77289581298828,10.062398910522461,0.47
263,MetaDrive-Tut-10Env-v0,123,240.37588142194275,265139,1403,2148.0508873462677,49.40057373046875,-49.50030517578125,14.446159362792969,0.46
264,MetaDrive-Tut-10Env-v0,123,237.56252141868114,266052,1407,2156.133993625641,45.06092834472656,,13.50726318359375,0.45
265,MetaDrive-Tut-10Env-v0,123,237.18398405856303,267208,1411,2166.65984249115,48.38414001464844,,10.412805557250977,0.44
266,MetaDrive-Tut-10Env-v0,123,237.94897899234584,268031,1414,2173.208074092865,47.391326904296875,-47.26640319824219,14.94267463684082,0.45
267,MetaDrive-Tut-10Env-v0,123,237.06175050379443,269012,1418,2181.9663548469543,46.298606872558594,,8.474903106689453,0.44
268,MetaDrive-Tut-10Env-v0,123,235.48903747909205,270089,1422,2190.8117508888245,43.158626556396484,-42.94760513305664,53.461753845214844,0.45
269,MetaDrive-Tut-10Env-v0,123,233.85585735719533,271092,1425,2198.9856770038605,47.238502502441406,,11.386073112487793,0.45
270,MetaDrive-Tut-10Env-v0,123,232.94630237356768,272019,1428,2206.417204141617,45.63642120361328,-45.414100646972656,14.657258987426758,0.46
271,MetaDrive-Tut-10Env-v0,123,234.69554627175884,273334,1432,2216.674684524536,45.2213020324707,,14.9603853225708,0.47
272,MetaDrive-Tut-10Env-v0,123,234.14609894409435,274033,1435,2222.8786096572876,48.248802185058594,-49.44053649902344,14.083205223083496,0.46
273,MetaDrive-Tut-10Env-v0,123,231.96070698294844,275192,1440,2232.398512840271,47.53044891357422,,13.869588851928711,0.44
274,MetaDrive-Tut-10Env-v0,123,231.45891446224957,276213,1443,2240.7990458011627,47.068992614746094,-47.91844940185547,11.434089660644531,0.44
275,MetaDrive-Tut-10Env-v0,123,228.60481009367925,277199,1447,2248.843206167221,45.7900390625,-46.77521514892578,12.91584300994873,0.42
276,MetaDrive-Tut-10Env-v0,123,229.23146358490106,278115,1450,2256.6855602264404,46.86711120605469,-47.68125915527344,16.222139358520508,0.43
277,MetaDrive-Tut-10Env-v0,123,227.78153099710175,279226,1454,2264.6900720596313,46.38309860229492,,13.201790809631348,0.43
278,MetaDrive-Tut-10Env-v0,123,227.57482040396133,280202,1457,2272.72185754776,45.50275421142578,,11.665283203125,0.42
279,MetaDrive-Tut-10Env-v0,123,230.73099112191642,281370,1461,2283.1905229091644,46.183311462402344,,8.545177459716797,0.42
280,MetaDrive-Tut-10Env-v0,123,227.30004187844304,282157,1464,2291.0408973693848,48.737022399902344,-49.01363754272461,13.125958442687988,0.4
281,MetaDrive-Tut-10Env-v0,123,227.58417827047637,283059,1467,2300.032018184662,45.928184509277344,-46.3011360168457,15.216398239135742,0.41
282,MetaDrive-Tut-10Env-v0,123,228.19904857727843,284040,1471,2308.706668138504,43.8671989440918,,14.388492584228516,0.41
283,MetaDrive-Tut-10Env-v0,123,227.88698849706543,285048,1474,2316.193754196167,48.12228012084961,,12.167137145996094,0.41
284,MetaDrive-Tut-10Env-v0,123,227.86515334259897,286197,1478,2326.0397605895996,46.13871765136719,-46.89788055419922,8.826484680175781,0.41
285,MetaDrive-Tut-10Env-v0,123,226.30105270212545,287120,1482,2333.952972173691,48.16261291503906,,19.75651741027832,0.41
286,MetaDrive-Tut-10Env-v0,123,227.15459518777362,288068,1485,2341.442923307419,45.23036193847656,,37.55976104736328,0.42
287,MetaDrive-Tut-10Env-v0,123,227.98706100660183,289232,1488,2350.8182520866394,44.30648422241211,,10.74746322631836,0.43
288,MetaDrive-Tut-10Env-v0,123,227.14601430114556,290010,1491,2356.534727573395,45.77257537841797,,8.672937393188477,0.42
289,MetaDrive-Tut-10Env-v0,123,225.35362683398407,291172,1495,2365.331184387207,43.54371643066406,,10.805166244506836,0.41
290,MetaDrive-Tut-10Env-v0,123,222.35352431510927,292059,1499,2373.58171415329,46.13044738769531,-46.096458435058594,10.818602561950684,0.38
291,MetaDrive-Tut-10Env-v0,123,223.30219323438357,293253,1503,2383.188149690628,47.54411697387695,-46.935585021972656,11.687633514404297,0.41
292,MetaDrive-Tut-10Env-v0,123,226.69163508190752,294144,1505,2389.990128993988,49.339107513427734,,9.44807243347168,0.43
293,MetaDrive-Tut-10Env-v0,123,229.96921133706724,295424,1509,2401.034309864044,46.79261779785156,,15.530320167541504,0.43
294,MetaDrive-Tut-10Env-v0,123,229.01260028388867,296354,1512,2408.8418130874634,43.57090377807617,,11.833120346069336,0.42
295,MetaDrive-Tut-10Env-v0,123,230.73635738627252,297070,1515,2415.126653432846,44.69883728027344,,19.092742919921875,0.43
296,MetaDrive-Tut-10Env-v0,122,233.78983996621798,298288,1518,2425.8578238487244,44.89897918701172,,22.34957504272461,0.45
297,MetaDrive-Tut-10Env-v0,122,234.12504788359223,299125,1521,2432.498559951782,45.447078704833984,-46.46462631225586,17.33957290649414,0.45
298,MetaDrive-Tut-10Env-v0,122,232.8404129516011,300022,1524,2439.622902870178,46.33033752441406,,7.931973934173584,0.44
299,MetaDrive-Tut-10Env-v0,122,231.433296883208,301116,1528,2448.8664371967316,47.10492706298828,,17.579185485839844,0.42
300,MetaDrive-Tut-10Env-v0,122,229.94030930733524,302376,1533,2460.5096623897552,44.514739990234375,,19.052024841308594,0.39
301,MetaDrive-Tut-10Env-v0,122,230.85170444152993,303127,1536,2466.6899597644806,45.62326431274414,-46.04734420776367,12.912851333618164,0.4
302,MetaDrive-Tut-10Env-v0,122,234.43361903259793,304420,1540,2477.727573156357,44.5949592590332,,11.964513778686523,0.41
303,MetaDrive-Tut-10Env-v0,122,231.7384387988096,305210,1544,2484.4511575698853,47.54955291748047,,7.955582618713379,0.39
304,MetaDrive-Tut-10Env-v0,122,232.41866367135702,306092,1547,2492.249969959259,46.52549743652344,,41.994136810302734,0.39
305,MetaDrive-Tut-10Env-v0,122,233.5010606315109,307263,1551,2503.190248966217,45.30953598022461,-45.772666931152344,8.811315536499023,0.37
306,MetaDrive-Tut-10Env-v0,122,231.3678764625456,308164,1555,2511.1946318149567,44.811859130859375,,14.969745635986328,0.36
307,MetaDrive-Tut-10Env-v0,122,231.5722108306138,309236,1559,2520.290772676468,45.569698333740234,,7.4109416007995605,0.36
308,MetaDrive-Tut-10Env-v0,122,228.4694853738807,310069,1562,2527.1676881313324,45.791893005371094,-46.246826171875,13.627622604370117,0.35
309,MetaDrive-Tut-10Env-v0,122,229.8243194867563,311195,1566,2536.497175693512,45.77090072631836,-45.62903594970703,11.312389373779297,0.37
310,MetaDrive-Tut-10Env-v0,122,229.48240199590134,312186,1569,2544.643482208252,46.60739517211914,,12.09439468383789,0.37
311,MetaDrive-Tut-10Env-v0,122,233.40202299223435,313174,1572,2552.9258182048798,45.01038360595703,,6.867490291595459,0.39
312,MetaDrive-Tut-10Env-v0,122,234.85641862606647,314268,1575,2561.644612312317,42.45622634887695,,13.011808395385742,0.4
313,MetaDrive-Tut-10Env-v0,122,232.262402686145,315066,1578,2568.3666141033173,44.55326461791992,,8.780067443847656,0.39
314,MetaDrive-Tut-10Env-v0,122,235.02661863422625,316384,1582,2580.0287635326385,43.817405700683594,,17.233884811401367,0.41
315,MetaDrive-Tut-10Env-v0,122,234.15189090177043,317164,1585,2586.3172228336334,45.8704833984375,,20.718355178833008,0.4
316,MetaDrive-Tut-10Env-v0,122,233.47253947042142,318052,1588,2594.2372262477875,46.366024017333984,,9.322969436645508,0.38
317,MetaDrive-Tut-10Env-v0,122,234.67127690335735,319175,1592,2604.1544721126556,44.99125289916992,-45.248085021972656,9.991510391235352,0.38
318,MetaDrive-Tut-10Env-v0,122,234.7658059825174,320359,1596,2613.756025791168,44.0988883972168,-44.817657470703125,10.902563095092773,0.39
319,MetaDrive-Tut-10Env-v0,122,237.7529928834429,321110,1598,2620.3831152915955,47.43916320800781,,9.076019287109375,0.4
320,MetaDrive-Tut-10Env-v0,122,241.49562402943528,322404,1601,2632.0194408893585,46.50358581542969,,12.604358673095703,0.42
321,MetaDrive-Tut-10Env-v0,122,241.84182402258247,323156,1603,2638.00701713562,45.33332824707031,,14.767117500305176,0.41
322,MetaDrive-Tut-10Env-v0,122,240.19250772294595,324167,1606,2645.316741704941,45.46220016479492,-44.998924255371094,14.178422927856445,0.41
323,MetaDrive-Tut-10Env-v0,122,238.71722845505988,325071,1609,2653.2938141822815,43.01414108276367,-43.308204650878906,12.301777839660645,0.4
324,MetaDrive-Tut-10Env-v0,122,236.6004789055339,326043,1613,2660.979790687561,44.080322265625,-44.0572509765625,13.00946044921875,0.38
325,MetaDrive-Tut-10Env-v0,122,233.48620553817494,327078,1617,2669.394648551941,46.5369987487793,,12.148478507995605,0.37
326,MetaDrive-Tut-10Env-v0,122,233.70603410922203,328102,1620,2677.630796432495,45.75150680541992,,11.005290985107422,0.37
327,MetaDrive-Tut-10Env-v0,122,235.51692743806927,329155,1623,2685.624941587448,46.244728088378906,-46.50433349609375,13.866596221923828,0.39
328,MetaDrive-Tut-10Env-v0,122,240.20112737789012,330217,1625,2695.2331926822662,44.23149871826172,-44.86859130859375,10.164237976074219,0.4
329,MetaDrive-Tut-10Env-v0,122,242.53179403542762,331237,1628,2703.884734392166,44.196537017822266,-45.44562530517578,81.37884521484375,0.41
330,MetaDrive-Tut-10Env-v0,122,242.1064167520955,332013,1631,2710.3156049251556,44.43585205078125,-45.37755584716797,23.48892593383789,0.42
331,MetaDrive-Tut-10Env-v0,122,244.51546072170723,333139,1634,2718.6628296375275,45.91172790527344,-46.86829376220703,10.318604469299316,0.44
332,MetaDrive-Tut-10Env-v0,122,243.40998338203198,334072,1637,2725.3987865448,44.35124206542969,,11.502364158630371,0.43
333,MetaDrive-Tut-10Env-v0,122,243.8581376969126,335359,1640,2735.3950068950653,45.55218505859375,-47.011756896972656,14.156196594238281,0.45
334,MetaDrive-Tut-10Env-v0,122,246.61440477939865,336259,1643,2742.350461959839,45.287445068359375,-45.70695114135742,13.665807723999023,0.47
335,MetaDrive-Tut-10Env-v0,122,246.05205106952232,337034,1646,2748.2501480579376,45.36702346801758,,12.406011581420898,0.47
336,MetaDrive-Tut-10Env-v0,122,242.2879569179839,338159,1651,2757.569109916687,43.88045120239258,-44.653385162353516,21.710357666015625,0.46
337,MetaDrive-Tut-10Env-v0,122,245.39883982370858,339039,1653,2764.9838213920593,46.43036651611328,-46.88294982910156,10.854172706604004,0.48
338,MetaDrive-Tut-10Env-v0,122,245.18240062360084,340120,1657,2773.717306137085,46.95580291748047,,14.594615936279297,0.49
339,MetaDrive-Tut-10Env-v0,122,248.61282671854784,341357,1661,2786.1571662425995,45.14833068847656,-45.65876770019531,12.697961807250977,0.49
340,MetaDrive-Tut-10Env-v0,122,249.77010203717083,342170,1663,2792.59898519516,44.40807342529297,,15.870416641235352,0.51
341,MetaDrive-Tut-10Env-v0,122,247.0633516936138,343362,1668,2802.365966320038,46.00273895263672,,11.081276893615723,0.48
342,MetaDrive-Tut-10Env-v0,122,247.0565493814252,344345,1671,2809.891217947006,45.88437271118164,-46.33879852294922,18.621448516845703,0.48
343,MetaDrive-Tut-10Env-v0,122,247.0586809025568,345009,1673,2815.811189174652,46.6220588684082,-47.27341842651367,10.781940460205078,0.48
344,MetaDrive-Tut-10Env-v0,122,245.84951241880563,346122,1677,2824.2420654296875,41.07795715332031,,14.42208480834961,0.47
345,MetaDrive-Tut-10Env-v0,122,247.21778834989362,347006,1680,2831.215029001236,44.39772415161133,,14.261910438537598,0.49
346,MetaDrive-Tut-10Env-v0,122,246.18570210658038,348059,1684,2839.698331594467,44.21601486206055,-44.274784088134766,11.075986862182617,0.48
347,MetaDrive-Tut-10Env-v0,122,245.68994007091194,349170,1688,2848.3216831684113,44.54658508300781,,8.796375274658203,0.49
348,MetaDrive-Tut-10Env-v0,122,246.92754232184936,350460,1692,2859.0641057491302,42.58256149291992,,39.260414123535156,0.5
349,MetaDrive-Tut-10Env-v0,122,248.43790698043068,351377,1694,2866.4504928588867,43.33302307128906,-44.28412628173828,18.645193099975586,0.51
350,MetaDrive-Tut-10Env-v0,122,250.3759181922904,352127,1696,2873.1761243343353,42.200523376464844,-42.386966705322266,11.932992935180664,0.51
351,MetaDrive-Tut-10Env-v0,122,247.618141266947,353021,1699,2880.173401594162,45.92234420776367,-46.75486755371094,11.42921257019043,0.51
352,MetaDrive-Tut-10Env-v0,122,245.9807849982274,354155,1702,2889.751627445221,45.46501159667969,-44.897804260253906,14.781312942504883,0.51
353,MetaDrive-Tut-10Env-v0,122,245.25030648234636,355388,1706,2899.6580896377563,41.448768615722656,,32.66307830810547,0.48
354,MetaDrive-Tut-10Env-v0,122,247.03187597477995,356166,1708,2905.0110716819763,42.12554168701172,,35.514591217041016,0.5
355,MetaDrive-Tut-10Env-v0,122,245.7456667629849,357163,1711,2912.03000497818,45.04949188232422,-44.455116271972656,34.922637939453125,0.51
356,MetaDrive-Tut-10Env-v0,122,249.1305353037829,358391,1715,2921.1569287776947,42.100242614746094,-41.735130310058594,15.604310035705566,0.53
357,MetaDrive-Tut-10Env-v0,122,250.34612482330584,359171,1717,2926.8350434303284,46.766212463378906,-46.830039978027344,8.732439041137695,0.54
358,MetaDrive-Tut-10Env-v0,122,253.01653300610712,360180,1720,2935.8022952079773,42.176727294921875,,8.81980037689209,0.53
359,MetaDrive-Tut-10Env-v0,122,254.13630062287092,361077,1723,2942.9747066497803,43.749507904052734,-43.87432861328125,10.815895080566406,0.52
360,MetaDrive-Tut-10Env-v0,122,249.15195621506854,362341,1727,2954.464076280594,44.33717346191406,-44.67432403564453,12.809242248535156,0.51
361,MetaDrive-Tut-10Env-v0,122,250.439246486544,363038,1729,2961.610655784607,43.801177978515625,,16.073707580566406,0.49
362,MetaDrive-Tut-10Env-v0,122,250.0628238067267,364090,1733,2969.9928221702576,42.57857894897461,,7.6868977546691895,0.49
363,MetaDrive-Tut-10Env-v0,122,250.26498493550952,365114,1736,2978.539755821228,43.102115631103516,,21.09618377685547,0.49
364,MetaDrive-Tut-10Env-v0,122,248.84245400358958,366356,1740,2987.6369342803955,42.37553405761719,,13.858646392822266,0.48
365,MetaDrive-Tut-10Env-v0,122,246.23804012294823,367062,1744,2992.6509082317352,45.66416549682617,,11.421842575073242,0.46
366,MetaDrive-Tut-10Env-v0,122,247.49827135049367,368184,1748,3002.1634187698364,45.33482360839844,,9.95616626739502,0.46
367,MetaDrive-Tut-10Env-v0,122,250.8295999138297,369313,1751,3011.4219932556152,44.67056655883789,-45.20833206176758,20.127399444580078,0.48
368,MetaDrive-Tut-10Env-v0,122,248.78389676142683,370288,1754,3019.1955540180206,44.65453338623047,,9.92918586730957,0.47
369,MetaDrive-Tut-10Env-v0,122,252.04727344882912,371331,1757,3028.842947244644,42.61039733886719,-43.36870574951172,14.289449691772461,0.47
370,MetaDrive-Tut-10Env-v0,122,250.64360949354943,372294,1760,3036.77885723114,43.72967529296875,,32.45849609375,0.49
371,MetaDrive-Tut-10Env-v0,122,250.7274876849329,373371,1763,3045.429567337036,43.85798645019531,-44.47654342651367,12.725010871887207,0.48
372,MetaDrive-Tut-10Env-v0,122,252.99977606415345,374144,1765,3051.2952773571014,41.992942810058594,,10.42146110534668,0.5
373,MetaDrive-Tut-10Env-v0,122,253.65163317234666,375082,1768,3058.901009082794,43.78166961669922,,10.766144752502441,0.51
374,MetaDrive-Tut-10Env-v0,122,253.8368684575487,376084,1771,3066.7876534461975,42.577415466308594,,13.335921287536621,0.51
375,MetaDrive-Tut-10Env-v0,122,255.39355586509603,377461,1774,3079.5935547351837,43.67665100097656,-43.335933685302734,9.58674430847168,0.52
376,MetaDrive-Tut-10Env-v0,122,258.3444127605028,378196,1776,3086.0842859745026,43.04244613647461,,9.933205604553223,0.54
377,MetaDrive-Tut-10Env-v0,122,260.4471651354558,379489,1779,3097.856867313385,42.743736267089844,-43.46990203857422,7.214537620544434,0.53
378,MetaDrive-Tut-10Env-v0,122,261.2978230410932,380153,1781,3104.014407634735,43.48023986816406,-43.2615852355957,37.10613250732422,0.53
379,MetaDrive-Tut-10Env-v0,122,259.98923674838437,381173,1786,3112.0634639263153,43.631439208984375,-44.54347229003906,13.886677742004395,0.53
380,MetaDrive-Tut-10Env-v0,122,260.3718377539815,382199,1789,3121.4721891880035,46.12681198120117,-45.974647521972656,10.484935760498047,0.53
381,MetaDrive-Tut-10Env-v0,122,257.1348371235657,383044,1792,3130.312219619751,46.87226104736328,,14.885356903076172,0.52
382,MetaDrive-Tut-10Env-v0,122,254.69280611957234,384001,1795,3138.2624657154083,44.56923294067383,-45.15919494628906,10.580305099487305,0.52
383,MetaDrive-Tut-10Env-v0,122,254.07551701127548,385213,1799,3148.2068605422974,45.714542388916016,-44.89805603027344,10.753561019897461,0.51
384,MetaDrive-Tut-10Env-v0,122,253.25687759508085,386210,1802,3156.57479929924,43.99102020263672,,15.131738662719727,0.5
385,MetaDrive-Tut-10Env-v0,122,253.57716537580228,387002,1805,3162.938018321991,41.648494720458984,,20.137922286987305,0.51
386,MetaDrive-Tut-10Env-v0,122,252.1592025684418,388285,1809,3173.6333181858063,45.1887321472168,-46.67073059082031,12.609811782836914,0.49
387,MetaDrive-Tut-10Env-v0,122,254.1391827765511,389192,1812,3181.634285926819,45.20178985595703,,13.909659385681152,0.5
388,MetaDrive-Tut-10Env-v0,122,253.81494751297646,390240,1815,3189.828274488449,43.77961730957031,,9.98150634765625,0.5
389,MetaDrive-Tut-10Env-v0,122,256.4182396842399,391177,1817,3198.4185767173767,42.638206481933594,-42.965309143066406,9.351448059082031,0.49
390,MetaDrive-Tut-10Env-v0,122,256.10973663818845,392021,1819,3205.2852654457092,45.01197814941406,-45.956871032714844,9.728516578674316,0.51
391,MetaDrive-Tut-10Env-v0,122,257.8416545403318,393395,1822,3216.738476753235,41.301692962646484,-41.83842468261719,9.081974029541016,0.52
392,MetaDrive-Tut-10Env-v0,122,254.83284393848888,394405,1826,3224.87863612175,44.34796905517578,-44.01988220214844,9.8870267868042,0.52
393,MetaDrive-Tut-10Env-v0,122,254.38554527241052,395462,1829,3234.1241402626038,44.02131652832031,,11.166515350341797,0.52
394,MetaDrive-Tut-10Env-v0,122,254.62486553296014,396229,1831,3240.1943888664246,43.30940246582031,-43.36437225341797,10.073015213012695,0.53
395,MetaDrive-Tut-10Env-v0,122,255.46755441370297,397255,1834,3248.2440633773804,42.43152618408203,-42.8198127746582,11.874337196350098,0.54
396,MetaDrive-Tut-10Env-v0,122,260.12757325344023,398350,1836,3257.8457543849945,42.74214172363281,,18.091888427734375,0.55
397,MetaDrive-Tut-10Env-v0,122,259.56851397205037,399190,1839,3264.7178757190704,42.58929443359375,,9.731579780578613,0.55
398,MetaDrive-Tut-10Env-v0,122,261.19503227655713,400458,1843,3274.769429206848,43.302146911621094,,7.474886417388916,0.56
399,MetaDrive-Tut-10Env-v0,122,261.64353547752546,401079,1845,3280.1955742836,42.45786666870117,-43.08229446411133,9.110086441040039,0.56
400,MetaDrive-Tut-10Env-v0,122,263.08438494924235,402103,1848,3288.011390209198,45.38050842285156,-46.818851470947266,13.377155303955078,0.57
401,MetaDrive-Tut-10Env-v0,122,262.58474135938286,403289,1852,3297.305011034012,43.25212478637695,-43.87776565551758,11.767913818359375,0.57
402,MetaDrive-Tut-10Env-v0,122,262.4291469842962,404089,1854,3303.6294300556183,43.506263732910156,-43.3239631652832,9.66929817199707,0.57
403,MetaDrive-Tut-10Env-v0,122,262.4018524355864,405197,1857,3313.0886182785034,42.30622482299805,-41.75128173828125,50.49125671386719,0.57
404,MetaDrive-Tut-10Env-v0,122,266.69116792572345,406220,1859,3322.768198490143,44.70021438598633,,8.017080307006836,0.58
405,MetaDrive-Tut-10Env-v0,122,266.6917023893099,407181,1862,3330.0187680721283,44.36521911621094,-44.37689208984375,17.972801208496094,0.58
406,MetaDrive-Tut-10Env-v0,122,265.4298828786596,408261,1865,3337.737712621689,46.72618865966797,-46.647300720214844,9.390886306762695,0.58
407,MetaDrive-Tut-10Env-v0,122,267.24766117546113,409345,1868,3347.753614425659,45.5012321472168,-45.27362823486328,10.208255767822266,0.57
408,MetaDrive-Tut-10Env-v0,122,263.8345844171627,410246,1872,3355.3579268455505,41.05899429321289,,30.599367141723633,0.55
409,MetaDrive-Tut-10Env-v0,122,264.11955071929106,411521,1875,3366.0861303806305,43.114898681640625,-44.87746047973633,15.16456127166748,0.55
410,MetaDrive-Tut-10Env-v0,122,263.8362506532735,412242,1877,3371.077301979065,41.11703872680664,,18.55516815185547,0.56
411,MetaDrive-Tut-10Env-v0,122,263.1925432379587,413234,1880,3380.2874541282654,43.399742126464844,,10.066753387451172,0.55
412,MetaDrive-Tut-10Env-v0,122,263.8350838572266,414055,1882,3388.2558677196503,45.85893249511719,-45.515201568603516,13.432708740234375,0.56
413,MetaDrive-Tut-10Env-v0,122,270.8399993526531,415433,1885,3401.288481235504,43.383880615234375,-43.920799255371094,28.38790512084961,0.57
414,MetaDrive-Tut-10Env-v0,122,273.0344637844621,416167,1887,3406.796743631363,43.38630676269531,-44.46228790283203,27.845256805419922,0.59
415,MetaDrive-Tut-10Env-v0,122,274.07239654789674,417101,1889,3414.3652551174164,44.67981719970703,-45.379974365234375,19.246131896972656,0.59
416,MetaDrive-Tut-10Env-v0,122,276.65618413637515,418217,1892,3423.4385962486267,44.90679931640625,-45.801979064941406,10.709343910217285,0.6
417,MetaDrive-Tut-10Env-v0,122,274.8396015077918,419364,1896,3432.7464649677277,43.7227668762207,,10.03503131866455,0.59
418,MetaDrive-Tut-10Env-v0,122,276.5442895257381,420251,1899,3440.8245952129364,42.61579513549805,-43.557979583740234,8.509483337402344,0.58
419,MetaDrive-Tut-10Env-v0,122,272.9312695356419,421145,1903,3448.6437385082245,46.912864685058594,-46.60276794433594,8.200535774230957,0.56
420,MetaDrive-Tut-10Env-v0,122,278.3192381986207,422237,1905,3459.1105172634125,45.19165802001953,-45.95524215698242,8.508930206298828,0.58
421,MetaDrive-Tut-10Env-v0,122,277.555432665448,423537,1909,3470.6199719905853,44.433738708496094,-45.02043151855469,17.771682739257812,0.57
422,MetaDrive-Tut-10Env-v0,122,277.6835955751374,424015,1911,3475.3950378894806,44.42366409301758,-44.71403121948242,9.470431327819824,0.57
423,MetaDrive-Tut-10Env-v0,121,276.75835787799105,425113,1914,3484.560738801956,41.746498107910156,-42.5908203125,13.288296699523926,0.55
424,MetaDrive-Tut-10Env-v0,121,275.87207757197973,426460,1917,3496.1231484413147,44.47752380371094,,7.320581436157227,0.56
425,MetaDrive-Tut-10Env-v0,121,277.17479471313953,427345,1919,3504.0706417560577,44.35697937011719,-44.96950912475586,13.911980628967285,0.56
426,MetaDrive-Tut-10Env-v0,121,275.93613063795357,428076,1921,3509.6586830615997,44.500404357910156,,7.919503688812256,0.56
427,MetaDrive-Tut-10Env-v0,122,277.1241601265806,429202,1924,3517.800290822983,45.97288513183594,,9.601818084716797,0.57
428,MetaDrive-Tut-10Env-v0,121,281.6782428932731,430117,1926,3526.9513351917267,47.71446990966797,-47.244293212890625,10.390642166137695,0.58
429,MetaDrive-Tut-10Env-v0,121,281.8106657921202,431281,1929,3537.412858247757,43.151336669921875,-42.66828155517578,15.342976570129395,0.58
430,MetaDrive-Tut-10Env-v0,121,281.99327825759684,432420,1932,3547.291006088257,41.64556121826172,,16.302536010742188,0.57
431,MetaDrive-Tut-10Env-v0,121,282.89466677704473,433085,1934,3553.7153222560883,45.34556579589844,-45.16785430908203,12.5645170211792,0.57
432,MetaDrive-Tut-10Env-v0,121,282.63304983805074,434094,1936,3562.7650258541107,43.979881286621094,,9.02719497680664,0.57
433,MetaDrive-Tut-10Env-v0,121,285.26719563702346,435090,1939,3571.0532879829407,42.491668701171875,,14.04073429107666,0.57
434,MetaDrive-Tut-10Env-v0,121,287.8398793042909,436124,1942,3579.816974878311,45.82808303833008,,14.400533676147461,0.58
435,MetaDrive-Tut-10Env-v0,121,290.8048718092243,437529,1945,3591.606510400772,43.53676986694336,-44.07072067260742,16.969213485717773,0.6
436,MetaDrive-Tut-10Env-v0,121,291.68965246128374,438011,1946,3595.561441898346,43.69384765625,-43.772708892822266,8.666406631469727,0.6
437,MetaDrive-Tut-10Env-v0,121,290.36089668957675,439238,1950,3606.797964334488,43.63984680175781,,9.533809661865234,0.59
438,MetaDrive-Tut-10Env-v0,121,293.4579154348924,440115,1952,3615.590871810913,40.99329376220703,-41.642425537109375,7.085752010345459,0.6
439,MetaDrive-Tut-10Env-v0,121,293.23041633743736,441563,1956,3629.7507371902466,43.00005340576172,-42.54124069213867,7.014981269836426,0.58
440,MetaDrive-Tut-10Env-v0,121,293.10391019842893,442270,1958,3636.3652019500732,44.188072204589844,,9.568754196166992,0.58
441,MetaDrive-Tut-10Env-v0,121,291.9024724827469,443154,1960,3644.4764964580536,47.22103500366211,,8.593704223632812,0.58
442,MetaDrive-Tut-10Env-v0,121,292.9741176152583,444310,1963,3654.426774263382,43.92096710205078,,13.84281063079834,0.59
443,MetaDrive-Tut-10Env-v0,121,291.62411967193384,445290,1966,3663.949785709381,43.50322723388672,,10.512737274169922,0.58
444,MetaDrive-Tut-10Env-v0,121,291.5949704004858,446113,1968,3671.2530727386475,43.06961441040039,-42.938499450683594,19.693498611450195,0.59
445,MetaDrive-Tut-10Env-v0,121,292.66999323679016,447172,1972,3680.8475873470306,43.11030197143555,,7.189007759094238,0.59
446,MetaDrive-Tut-10Env-v0,121,291.07381829796986,448334,1975,3692.1220467090607,41.94703674316406,,10.385520935058594,0.58
447,MetaDrive-Tut-10Env-v0,121,293.24986041053353,449286,1977,3699.7244625091553,44.9140739440918,,13.459590911865234,0.58
448,MetaDrive-Tut-10Env-v0,121,295.9071251852827,450307,1979,3708.2109639644623,45.910274505615234,-45.951560974121094,7.129915237426758,0.6
449,MetaDrive-Tut-10Env-v0,121,297.56294553065845,451269,1981,3716.869270801544,43.61015319824219,-43.39518737792969,11.650039672851562,0.6
450,MetaDrive-Tut-10Env-v0,121,294.14102907968527,452115,1984,3724.807998418808,44.4155158996582,-45.12226867675781,11.228020668029785,0.59
451,MetaDrive-Tut-10Env-v0,121,292.96697196230065,453407,1987,3734.7294251918793,44.156349182128906,-45.19908142089844,6.710546493530273,0.59
452,MetaDrive-Tut-10Env-v0,121,294.1639892708927,454316,1989,3742.962242126465,46.08283233642578,,12.348170280456543,0.59
453,MetaDrive-Tut-10Env-v0,121,295.246884675267,455165,1991,3750.0667436122894,43.76408386230469,-43.53718948364258,18.07465362548828,0.59
454,MetaDrive-Tut-10Env-v0,121,294.5156489841697,456042,1994,3757.3505358695984,41.482154846191406,,12.953536987304688,0.59
455,MetaDrive-Tut-10Env-v0,121,295.564571849908,457228,1997,3767.3666348457336,41.9283447265625,,10.420029640197754,0.6
456,MetaDrive-Tut-10Env-v0,121,297.5154940868994,458161,2000,3774.9804520606995,43.62089538574219,-43.574710845947266,9.897004127502441,0.62
457,MetaDrive-Tut-10Env-v0,121,300.8639750839323,459342,2003,3784.9087817668915,41.3916015625,,29.26284408569336,0.64
458,MetaDrive-Tut-10Env-v0,121,296.77909915253883,460204,2006,3792.458443880081,45.79438400268555,,19.3153133392334,0.62
459,MetaDrive-Tut-10Env-v0,121,297.63814773662966,461336,2009,3802.594615459442,43.149024963378906,,7.693420886993408,0.63
460,MetaDrive-Tut-10Env-v0,121,302.0384027552902,462241,2011,3810.9638888835907,45.901649475097656,-46.141807556152344,19.810789108276367,0.65
461,MetaDrive-Tut-10Env-v0,121,301.5001853213636,463200,2014,3818.27752161026,44.456787109375,,8.363990783691406,0.65
462,MetaDrive-Tut-10Env-v0,121,299.78364921394956,464237,2017,3826.225231409073,44.03694152832031,-44.29814910888672,19.81454849243164,0.65
463,MetaDrive-Tut-10Env-v0,121,297.70392043937426,465345,2020,3835.5532915592194,43.652854919433594,-44.19706726074219,8.614236831665039,0.64
464,MetaDrive-Tut-10Env-v0,121,300.1801375416619,466130,2022,3842.6524584293365,45.1226692199707,,13.683137893676758,0.64
465,MetaDrive-Tut-10Env-v0,121,297.4552799161106,467218,2025,3851.4824640750885,45.68811798095703,,10.044477462768555,0.63
466,MetaDrive-Tut-10Env-v0,121,297.47116465074635,468265,2028,3860.1057872772217,42.964439392089844,-43.00878143310547,7.8966450691223145,0.63
467,MetaDrive-Tut-10Env-v0,121,299.01383984261645,469403,2031,3869.768311023712,44.05693817138672,-44.015708923339844,11.604446411132812,0.64
468,MetaDrive-Tut-10Env-v0,121,294.66564943917905,470086,2034,3875.1502211093903,47.08120346069336,,11.597748756408691,0.63
469,MetaDrive-Tut-10Env-v0,121,293.19471525723907,471511,2038,3886.87739777565,43.368568420410156,-44.172733306884766,7.224326133728027,0.63
470,MetaDrive-Tut-10Env-v0,121,291.19759808716185,472246,2040,3892.67294716835,43.321781158447266,,18.678211212158203,0.63
471,MetaDrive-Tut-10Env-v0,121,290.3997303102231,473311,2043,3901.0884354114532,45.429378509521484,-45.84050750732422,6.998312473297119,0.62
472,MetaDrive-Tut-10Env-v0,121,288.18530013638895,474032,2045,3906.7314581871033,43.931854248046875,,9.978034019470215,0.61
473,MetaDrive-Tut-10Env-v0,121,289.0090663927262,475070,2049,3915.347170114517,47.68760681152344,,7.933807373046875,0.61
474,MetaDrive-Tut-10Env-v0,121,285.7952217466103,476312,2053,3925.0082285404205,46.46994400024414,,26.34168243408203,0.6
475,MetaDrive-Tut-10Env-v0,121,282.63477502710896,477255,2056,3931.4932944774628,45.07923126220703,-43.526519775390625,7.403277397155762,0.61
476,MetaDrive-Tut-10Env-v0,121,282.46488011497485,478375,2059,3942.036641359329,46.306331634521484,-47.365211486816406,7.284358501434326,0.61
477,MetaDrive-Tut-10Env-v0,121,281.1582144394366,479280,2062,3949.5991957187653,43.98720932006836,,9.390085220336914,0.6
478,MetaDrive-Tut-10Env-v0,121,281.64812614901354,480390,2065,3958.2594487667084,44.182273864746094,,9.236551284790039,0.61
479,MetaDrive-Tut-10Env-v0,121,281.69528708381205,481085,2067,3964.2222352027893,46.61559295654297,-46.87148666381836,9.53300952911377,0.6
480,MetaDrive-Tut-10Env-v0,121,281.5943932127229,482375,2072,3975.347090959549,45.305885314941406,-46.36639404296875,28.57286262512207,0.6
481,MetaDrive-Tut-10Env-v0,121,280.8264694751468,483059,2074,3981.773293018341,42.88041687011719,-42.82432556152344,7.657487869262695,0.59
482,MetaDrive-Tut-10Env-v0,121,277.7147854274661,484003,2077,3989.1937127113342,43.533180236816406,-43.740196228027344,10.271967887878418,0.59
483,MetaDrive-Tut-10Env-v0,121,272.60063056009204,485006,2080,3997.22682261467,43.94538116455078,,9.104663848876953,0.58
484,MetaDrive-Tut-10Env-v0,121,277.03085260834837,486369,2083,4008.798217535019,44.17892074584961,-44.05445098876953,11.416107177734375,0.59
485,MetaDrive-Tut-10Env-v0,121,277.86775137062006,487107,2085,4015.8875584602356,43.76690673828125,-43.91722106933594,6.883061408996582,0.59
486,MetaDrive-Tut-10Env-v0,121,274.07168821321386,488136,2088,4024.1700401306152,44.47605514526367,,7.558518409729004,0.58
487,MetaDrive-Tut-10Env-v0,121,276.05481763252186,489104,2090,4032.598958015442,45.74678039550781,,21.894420623779297,0.58
488,MetaDrive-Tut-10Env-v0,121,277.5189766344496,490017,2092,4041.4747874736786,48.650760650634766,-48.75568771362305,26.281673431396484,0.57
489,MetaDrive-Tut-10Env-v0,121,280.897890655553,491313,2095,4053.916748046875,47.63633728027344,-48.44783020019531,8.677509307861328,0.58
490,MetaDrive-Tut-10Env-v0,121,281.6604177247424,492172,2098,4061.43714594841,45.24085235595703,,7.267261505126953,0.58
491,MetaDrive-Tut-10Env-v0,121,282.7472688398507,493176,2100,4069.7437479496,43.98988342285156,,10.308592796325684,0.58
492,MetaDrive-Tut-10Env-v0,121,282.8960660783216,494023,2102,4076.759783267975,44.7178840637207,-44.27001190185547,10.210186958312988,0.58
493,MetaDrive-Tut-10Env-v0,121,288.0337347608371,495507,2105,4089.736276626587,47.996524810791016,-49.644081115722656,15.683395385742188,0.61
494,MetaDrive-Tut-10Env-v0,121,288.81055520799606,496313,2107,4096.9894642829895,45.17649841308594,-45.597232818603516,31.490310668945312,0.61
495,MetaDrive-Tut-10Env-v0,121,284.65685327233837,497305,2110,4105.687406301498,46.48649215698242,-46.55890655517578,10.14913272857666,0.6
496,MetaDrive-Tut-10Env-v0,121,282.3710065295015,498112,2113,4112.7432997226715,49.379661560058594,,7.403417587280273,0.59
497,MetaDrive-Tut-10Env-v0,121,283.4857536436436,499203,2116,4122.16659784317,46.617733001708984,-47.591094970703125,22.848499298095703,0.58
